sagilar/Flex-cell_RoboSim/tests/runtimeFMUs/(RMQ)mappingFMU_URInterface_UR5e2001830857274934334/resources/mapping_urinterface.csv
timestamp target_q_0 target_q_1 target_q_2 target_q_3 target_q_4 target_q_5 target_qd_0 target_qd_1 target_qd_2 target_qd_3 target_qd_4 target_qd_5 target_qdd_0 target_qdd_1 target_qdd_2 target_qdd_3 target_qdd_4 target_qdd_5 target_current_0 target_current_1 target_current_2 target_current_3 target_current_4 target_current_5 target_moment_0 target_moment_1 target_moment_2 target_moment_3 target_moment_4 target_moment_5 actual_q_0 actual_q_1 actual_q_2 actual_q_3 actual_q_4 actual_q_5 actual_qd_0 actual_qd_1 actual_qd_2 actual_qd_3 actual_qd_4 actual_qd_5 actual_current_0 actual_current_1 actual_current_2 actual_current_3 actual_current_4 actual_current_5 joint_control_output_0 joint_control_output_1 joint_control_output_2 joint_control_output_3 joint_control_output_4 joint_control_output_5 actual_TCP_pose_0 actual_TCP_pose_1 actual_TCP_pose_2 actual_TCP_pose_3 actual_TCP_pose_4 actual_TCP_pose_5 actual_TCP_speed_0 actual_TCP_speed_1 actual_TCP_speed_2 actual_TCP_speed_3 actual_TCP_speed_4 actual_TCP_speed_5 actual_TCP_force_0 actual_TCP_force_1 actual_TCP_force_2 actual_TCP_force_3 actual_TCP_force_4 actual_TCP_force_5 target_TCP_pose_0 target_TCP_pose_1 target_TCP_pose_2 target_TCP_pose_3 target_TCP_pose_4 target_TCP_pose_5 target_TCP_speed_0 target_TCP_speed_1 target_TCP_speed_2 target_TCP_speed_3 target_TCP_speed_4 target_TCP_speed_5 actual_digital_input_bits joint_temperatures_0 joint_temperatures_1 joint_temperatures_2 joint_temperatures_3 joint_temperatures_4 joint_temperatures_5 actual_execution_time robot_mode joint_mode_0 joint_mode_1 joint_mode_2 joint_mode_3 joint_mode_4 joint_mode_5 safety_mode actual_tool_accelerometer_0 actual_tool_accelerometer_1 actual_tool_accelerometer_2 speed_scaling target_speed_fraction actual_momentum actual_main_voltage actual_robot_voltage actual_robot_current actual_joint_voltage_0 actual_joint_voltage_1 actual_joint_voltage_2 actual_joint_voltage_3 actual_joint_voltage_4 actual_joint_voltage_5 actual_digital_output_bits runtime_state
7704.299 -2.5847040000000003 -1.3422660000000004 1.3616509999999997 -2.0764069999999997 -0.9269629999999998 -0.8488470000000001 0.0 0.0 0.0 0.0 0.0 0.0 0.0 0.0 0.0 0.0 0.0 0.0 -1.4662761546088807 -4.171866198246701 -1.7175656429865378 -0.36033630916690235 -6.537139893687824e-06 0.0 -16.846273174752675 -44.44350252556896 -19.524408263642574 -2.620147789043336 -5.045472478397836e-05 0.0 -2.58474046388735 -1.342244343166687 1.3616474310504358 -2.0764080486693324 -0.9269745985614222 -0.8488829771624964 0.0 0.0 -0.0 -0.0 0.0 0.0 -1.3279119729995728 -4.401438236236572 -1.97019362449646 -0.3003165125846863 -0.016728475689888 0.046529147773981094 -1.4662761546088807 -4.171866198246701 -1.7175656429865378 -0.36033630916690235 -6.537139893687824e-06 0.0 0.4158268409282736 0.5957318096432909 0.4366221529901462 -2.36241525535537 -0.014763324496489021 -0.00019799075876753607 0.0 0.0 0.0 0.0 0.0 0.0 3.898400873616825 -4.785366346722234 -0.44246208458157765 0.12913030845788834 -0.043089833448350184 0.0884130000250103 0.415797601814085 0.5957450246880538 0.43663590913558453 -2.3623976153453077 -0.014774556886481166 -0.00017089876894282188 0.0 0.0 0.0 0.0 0.0 0.0 0 30.875 32.25 30.6875 34.75 36.9375 37.25 0.57582 7 253 253 253 253 253 253 2 -0.17238251864910126 0.13407529890537262 -9.921571731567383 0.0 0.7 0.0 47.77644348144531 47.8068962097168 0.6277561187744141 47.6995964050293 47.64226531982422 47.64226531982422 47.65659713745117 47.599266052246094 47.5562629699707 3840 1
7704.398999999999 -2.5847040000000003 -1.3422660000000004 1.3616509999999997 -2.0764069999999997 -0.9269629999999998 -0.8488470000000001 0.0 0.0 0.0 0.0 0.0 0.0 0.0 0.0 0.0 0.0 0.0 0.0 -1.4664111412380365 -4.171790298064946 -1.7175214251960684 -0.3603285469532371 -1.7366147083372753e-05 0.0 -16.84782405698079 -44.44269394979993 -19.52390561840327 -2.620091346918422 -0.00013403478981621796 0.0 -2.5847047011004847 -1.342244343166687 1.3616836706744593 -2.0764194927611292 -0.926950756703512 -0.8488591353045862 0.0 0.0 -0.0 -0.0 0.0 0.0 -1.3225888013839722 -4.3875579833984375 -1.9998080730438232 -0.3102498948574066 -0.01559838280081749 0.059478554874658585 -1.4664111412380365 -4.171790298064946 -1.7175214251960684 -0.3603285469532371 -1.7366147083372753e-05 0.0 0.4157985133092227 0.5957479385856357 0.43660663140860545 -2.3624103166833925 -0.014774832442822017 -0.00012532411742594956 0.0 0.0 0.0 0.0 0.0 0.0 4.030148548764496 -4.726602280611345 -0.0995318059121928 0.1234089576495459 -0.04732007883424738 0.09246201056543833 0.415797601814085 0.5957450246880538 0.43663590913558453 -2.3623976153453077 -0.014774556886481166 -0.00017089876894282188 0.0 0.0 0.0 0.0 0.0 0.0 0 30.875 32.25 30.6875 34.75 36.9375 37.25 0.574248 7 253 253 253 253 253 253 2 -0.07661445438861847 0.1149216815829277 -9.979032516479492 0.0 0.7 0.0 47.76301193237305 47.786293029785156 0.6120893359184265 47.71392822265625 47.64226531982422 47.6279296875 47.61359786987305 47.570594787597656 47.51326370239258 3840 1
7704.499 -2.5847040000000003 -1.3422660000000004 1.3616509999999997 -2.0764069999999997 -0.9269629999999998 -0.8488470000000001 0.0 0.0 0.0 0.0 0.0 0.0 0.0 0.0 0.0 0.0 0.0 0.0 -1.4662181058666455 -4.171827782507375 -1.7175309091030304 -0.3603295698336607 7.839518489867439e-08 0.0 -16.84560624378877 -44.44309327706322 -19.524013426609738 -2.620098784686452 6.050669777269112e-07 0.0 -2.5847047011004847 -1.3422562640956421 1.3616350332843226 -2.076395650903219 -0.9269388357745569 -0.8488591353045862 0.0 0.0 -0.0 -0.0 0.0 0.0 -1.2751184701919556 -4.37038516998291 -2.0169525146484375 -0.30651137232780457 -0.009026546031236649 0.058256860822439194 -1.4662181058666455 -4.171827782507375 -1.7175309091030304 -0.3603295698336607 7.839518489867439e-08 0.0 0.4157968814169369 0.5957497127197693 0.4366396513758476 -2.3623821917580914 -0.014793592386471762 -0.00015302739046914462 0.0 0.0 0.0 0.0 0.0 0.0 3.874797224187033 -4.709642548480002 -0.18845906399960555 0.12513611183808968 -0.04698185679227493 0.09242706380844022 0.415797601814085 0.5957450246880538 0.43663590913558453 -2.3623976153453077 -0.014774556886481166 -0.00017089876894282188 0.0 0.0 0.0 0.0 0.0 0.0 0 30.875 32.25 30.6875 34.75 36.9375 37.25 0.57918 7 253 253 253 253 253 253 2 -0.09576806426048279 0.15322890877723694 -9.90241813659668 0.0 0.7 0.0 47.77913284301758 47.80152130126953 0.5718072056770325 47.6995964050293 47.6279296875 47.670928955078125 47.64226531982422 47.584930419921875 47.5275993347168 3840 1
7704.598999999999 -2.5847040000000003 -1.3422660000000004 1.3616509999999997 -2.0764069999999997 -0.9269629999999998 -0.8488470000000001 0.0 0.0 0.0 0.0 0.0 0.0 0.0 0.0 0.0 0.0 0.0 0.0 -1.466164094687064 -4.171891858842815 -1.717531502297753 -0.36033143813160917 8.885126849447134e-06 0.0 -16.844985701005704 -44.44377589166317 -19.524020169744123 -2.620112369819602 6.857687569030933e-05 0.0 -2.5846923033343714 -1.3422802251628418 1.3616474310504358 -2.0764194927611292 -0.926950756703512 -0.8488352934466761 0.0 0.0 -0.0 -0.0 0.0 0.0 -1.3166637420654297 -4.36203670501709 -1.9680510759353638 -0.3171190917491913 -0.006896920036524534 0.0460144467651844 -1.466164094687064 -4.171891858842815 -1.717531502297753 -0.36033143813160917 8.885126849447134e-06 0.0 0.4157870777776153 0.5957505896877944 0.4366513156371804 -2.3623724623288864 -0.014790905658898207 -0.0001803282027341021 0.0 0.0 0.0 0.0 0.0 0.0 4.244913413902306 -4.808112373071935 -0.10743075521647638 0.12655544560565135 -0.040540047529184886 0.09498749076540913 0.415797601814085 0.5957450246880538 0.43663590913558453 -2.3623976153453077 -0.014774556886481166 -0.00017089876894282188 0.0 0.0 0.0 0.0 0.0 0.0 0 30.875 32.25 30.6875 34.75 36.9375 37.25 0.574369 7 253 253 253 253 253 253 2 -0.1149216815829277 0.15322890877723694 -9.998186111450195 0.0 0.7 0.0 47.780921936035156 47.78718948364258 0.5897097587585449 47.71392822265625 47.65659713745117 47.670928955078125 47.670928955078125 47.584930419921875 47.51326370239258 3840 1
7704.699 -2.5847040000000003 -1.3422660000000004 1.3616509999999997 -2.0764069999999997 -0.9269629999999998 -0.8488470000000001 0.0 0.0 0.0 0.0 0.0 0.0 0.0 0.0 0.0 0.0 0.0 0.0 -1.4661914639098486 -4.171852546809893 -1.7175238059110691 -0.3603349018211624 2.269569414613375e-06 0.0 -16.845300150232855 -44.44335709481029 -19.523932681154452 -2.6201375556759645 1.7516911379397365e-05 0.0 -2.58474046388735 -1.342244343166687 1.3616588751422327 -2.0764080486693324 -0.926950756703512 -0.8488591353045862 0.0 0.0 -0.0 -0.0 0.0 0.0 -1.3313926458358765 -4.413074493408203 -1.9806407690048218 -0.29594358801841736 -0.0026774799916893244 0.045073918998241425 -1.4661914639098486 -4.171852546809893 -1.7175238059110691 -0.3603349018211624 2.269569414613375e-06 0.0 0.4158214955094075 0.5957341019782727 0.4366187373659616 -2.3624036100606163 -0.014738028203787838 -0.00015616383712674535 0.0 0.0 0.0 0.0 0.0 0.0 3.8599405882711535 -4.395206683729382 -0.474177956282297 0.12298508175560979 -0.0493721985499431 0.09588153708180357 0.415797601814085 0.5957450246880538 0.43663590913558453 -2.3623976153453077 -0.014774556886481166 -0.00017089876894282188 0.0 0.0 0.0 0.0 0.0 0.0 0 30.875 32.25 30.6875 34.75 36.9375 37.25 0.578436 7 253 253 253 253 253 253 2 -0.09576806426048279 0.24899697303771973 -9.998186111450195 0.0 0.7 0.0 47.767486572265625 47.78898239135742 0.5829969644546509 47.6995964050293 47.61359786987305 47.6279296875 47.61359786987305 47.5562629699707 47.51326370239258 3840 1
7704.799 -2.5847040000000003 -1.3422660000000004 1.3616509999999997 -2.0764069999999997 -0.9269629999999998 -0.8488470000000001 0.0 0.0 0.0 0.0 0.0 0.0 0.0 0.0 0.0 0.0 0.0 0.0 -1.4663539422914906 -4.171793079878768 -1.7175252991042507 -0.3603342975435375 -6.242073180166126e-06 0.0 -16.847166889450794 -44.4427235848706 -19.523949655011265 -2.620133161734409 -4.817735118240905e-05 0.0 -2.5846923033343714 -1.3422802251628418 1.3616226355182093 -2.0764080486693324 -0.9269745985614222 -0.8488228956805628 0.0 0.0 -0.0 -0.0 0.0 0.0 -1.3452829122543335 -4.397994041442871 -2.0106372833251953 -0.2826564311981201 0.005414190236479044 0.031408220529556274 -1.4663539422914906 -4.171793079878768 -1.7175252991042507 -0.3603342975435375 -6.242073180166126e-06 0.0 0.4157927429574571 0.5957484806679834 0.43666029492370884 -2.362383421983444 -0.014774134088864967 -0.00020656365613154056 0.0 0.0 0.0 0.0 0.0 0.0 4.206702766198106 -4.4022976971065715 -0.47562508737754916 0.12448690484954533 -0.04538712468811491 0.09833521489102347 0.415797601814085 0.5957450246880538 0.43663590913558453 -2.3623976153453077 -0.014774556886481166 -0.00017089876894282188 0.0 0.0 0.0 0.0 0.0 0.0 0 30.875 32.25 30.6875 34.75 36.9375 37.25 0.573468 7 253 253 253 253 253 253 2 -0.019153613597154617 0.1149216815829277 -9.959878921508789 0.0 0.7 0.0 47.77644348144531 47.79704284667969 0.5986637473106384 47.7282600402832 47.64226531982422 47.64226531982422 47.64226531982422 47.584930419921875 47.51326370239258 3840 1
7704.898999999999 -2.5847040000000003 -1.3422660000000004 1.3616509999999997 -2.0764069999999997 -0.9269629999999998 -0.8488470000000001 0.0 0.0 0.0 0.0 0.0 0.0 0.0 0.0 0.0 0.0 0.0 0.0 -1.466138485845415 -4.171933343934928 -1.717541235403174 -0.3603311582415851 1.0992040959295675e-05 0.0 -16.84469147706927 -44.44421783843435 -19.524130810711288 -2.620110334628562 8.483838657805009e-05 0.0 -2.5847166220294397 -1.3422562640956421 1.3616588751422327 -2.076383729974264 -0.9269626776324671 -0.848846737538473 0.0 0.0 -0.0 -0.0 0.0 0.0 -1.3207060098648071 -4.405203342437744 -1.9550093412399292 -0.28767308592796326 -0.0026294405106455088 0.04076593741774559 -1.466138485845415 -4.171933343934928 -1.717541235403174 -0.3603311582415851 1.0992040959295675e-05 0.0 0.4158038307780659 0.5957389988151314 0.4366207383458895 -2.3624190855737695 -0.014742569006572795 -0.00013563420222311855 0.0 0.0 0.0 0.0 0.0 0.0 3.9660791034359884 -4.580431001652495 -0.5229231563906191 0.12627633600016355 -0.044373999171652356 0.09414489688817654 0.415797601814085 0.5957450246880538 0.43663590913558453 -2.3623976153453077 -0.014774556886481166 -0.00017089876894282188 0.0 0.0 0.0 0.0 0.0 0.0 0 30.875 32.25 30.6875 34.75 36.9375 37.25 0.580273 7 253 253 253 253 253 253 2 -0.09576806426048279 0.2106897532939911 -9.998186111450195 0.0 0.7 0.0 47.788089752197266 47.775550842285156 0.5449506640434265 47.71392822265625 47.61359786987305 47.6279296875 47.6279296875 47.5562629699707 47.51326370239258 3840 1
7704.999 -2.5847040000000003 -1.3422660000000004 1.3616509999999997 -2.0764069999999997 -0.9269629999999998 -0.8488470000000001 0.0 0.0 0.0 0.0 0.0 0.0 0.0 0.0 0.0 0.0 0.0 0.0 -1.4661665043798056 -4.171907096538146 -1.7175457824440366 -0.3603378057546171 4.37647830626646e-06 0.0 -16.845013386337737 -44.44393822106655 -19.524182499147507 -2.6201586713243943 3.3778381992244206e-05 0.0 -2.5846923033343714 -1.3422683042338868 1.361671272908346 -2.0764080486693324 -0.926950756703512 -0.8488352934466761 0.0 0.0 -0.0 -0.0 0.0 0.0 -1.3537752628326416 -4.380321025848389 -1.963366150856018 -0.2789946496486664 -0.002709629712626338 0.037181343883275986 -1.4661665043798056 -4.171907096538146 -1.7175457824440366 -0.3603378057546171 4.37647830626646e-06 0.0 0.4157857619062616 0.5957497356173763 0.43662765355596644 -2.3623973515450207 -0.014771484145917155 -0.00013289270569743374 0.0 0.0 0.0 0.0 0.0 0.0 4.097821850112105 -4.457894477085625 -0.3664719459127901 0.12304866129206089 -0.04214967877192686 0.09396385947216741 0.415797601814085 0.5957450246880538 0.43663590913558453 -2.3623976153453077 -0.014774556886481166 -0.00017089876894282188 0.0 0.0 0.0 0.0 0.0 0.0 0 30.875 32.25 30.6875 34.75 36.9375 37.25 0.581436 7 253 253 253 253 253 253 2 -0.038307227194309235 0.15322890877723694 -9.979032516479492 0.0 0.7 0.0 47.74509811401367 47.75584411621094 0.5941867828369141 47.670928955078125 47.599266052246094 47.61359786987305 47.599266052246094 47.54193115234375 47.4559326171875 3840 1
7705.098999999999 -2.5847040000000003 -1.3422660000000004 1.3616509999999997 -2.0764069999999997 -0.9269629999999998 -0.8488470000000001 0.0 0.0 0.0 0.0 0.0 0.0 0.0 0.0 0.0 0.0 0.0 0.0 -1.4662695939339088 -4.17178194296609 -1.7174866823756267 -0.36032087995065404 2.4800823109204027e-06 0.0 -16.846197798144768 -44.44260494170632 -19.523510679779932 -2.6200355971109346 1.9141684662420588e-05 0.0 -2.5847047011004847 -1.342244343166687 1.3616474310504358 -2.0764080486693324 -0.9269388357745569 -0.8488228956805628 0.0 0.0 -0.0 -0.0 0.0 0.0 -1.3014785051345825 -4.41484260559082 -1.9932583570480347 -0.25904977321624756 -0.0069431122392416 0.05427104979753494 -1.4662695939339088 -4.17178194296609 -1.7174866823756267 -0.36032087995065404 2.4800823109204027e-06 0.0 0.4157995522661816 0.5957513943655266 0.4366268434043735 -2.36238866924289 -0.014745947600315395 -0.0001233833797439209 0.0 0.0 0.0 0.0 0.0 0.0 4.17937545012501 -4.61326194556602 -0.5143009511663887 0.12914253249417051 -0.04394269465687792 0.09443810044146951 0.415797601814085 0.5957450246880538 0.43663590913558453 -2.3623976153453077 -0.014774556886481166 -0.00017089876894282188 0.0 0.0 0.0 0.0 0.0 0.0 0 30.875 32.25 30.6875 34.75 36.9375 37.25 0.586104 7 253 253 253 253 253 253 2 -0.07661445438861847 0.24899697303771973 -9.998186111450195 0.0 0.7 0.0 47.751365661621094 47.762115478515625 0.6098535060882568 47.670928955078125 47.61359786987305 47.599266052246094 47.6279296875 47.54193115234375 47.498931884765625 3840 1
7705.199 -2.5847040000000003 -1.3422660000000004 1.3616509999999997 -2.0764069999999997 -0.9269629999999998 -0.8488470000000001 0.0 0.0 0.0 0.0 0.0 0.0 0.0 0.0 0.0 0.0 0.0 0.0 -1.4661958856202975 -4.171958697168225 -1.7175637272295408 -0.3603347137898274 4.3764768867016446e-06 0.0 -16.845350951947044 -44.444487930147396 -19.524386486296308 -2.620136188425776 3.377837103580864e-05 0.0 -2.5847166220294397 -1.3422683042338868 1.361671272908346 -2.0764080486693324 -0.9269745985614222 -0.8488228956805628 0.0 0.0 -0.0 -0.0 0.0 0.0 -1.3510812520980835 -4.420547962188721 -2.0003397464752197 -0.2538185715675354 -0.0033841768745332956 0.060305576771497726 -1.4661958856202975 -4.171958697168225 -1.7175637272295408 -0.3603347137898274 4.3764768867016446e-06 0.0 0.41580423851350734 0.5957364813507091 0.43662452663869894 -2.362415463849387 -0.014720548883817696 -0.00015742554535883436 0.0 0.0 0.0 0.0 0.0 0.0 4.013801889175117 -4.658543981357843 -0.37752081003456794 0.12795836683229395 -0.04589009372413303 0.09319960774896131 0.415797601814085 0.5957450246880538 0.43663590913558453 -2.3623976153453077 -0.014774556886481166 -0.00017089876894282188 0.0 0.0 0.0 0.0 0.0 0.0 0 30.9375 32.25 30.6875 34.75 36.9375 37.1875 0.579696 7 253 253 253 253 253 253 2 -0.13407529890537262 0.1149216815829277 -10.017339706420898 0.0 0.7 0.0 47.76032257080078 47.7639045715332 0.5852327942848206 47.670928955078125 47.599266052246094 47.61359786987305 47.584930419921875 47.5275993347168 47.498931884765625 3840 1
7705.299 -2.5847040000000003 -1.3422660000000004 1.3616509999999997 -2.0764069999999997 -0.9269629999999998 -0.8488470000000001 0.0 0.0 0.0 0.0 0.0 0.0 0.0 0.0 0.0 0.0 0.0 0.0 -1.4663544192072333 -4.171839092836567 -1.717508861696038 -0.36032455819231113 3.733861988900867e-07 0.0 -16.84717236880941 -44.443213767659074 -19.52376280295699 -2.620062343060483 2.881856317825769e-06 0.0 -2.5847166220294397 -1.3422203820994874 1.361671272908346 -2.0764194927611292 -0.9269388357745569 -0.848846737538473 0.0 0.0 -0.0 -0.0 0.0 0.0 -1.3368505239486694 -4.371044635772705 -2.0154972076416016 -0.2371266484260559 0.009473223239183426 0.0502450056374073 -1.4663544192072333 -4.171839092836567 -1.717508861696038 -0.36032455819231113 3.733861988900867e-07 0.0 0.41581066287342744 0.5957489447413161 0.4365992785506739 -2.3624076519881667 -0.014745158910437418 -0.0001040701653245533 0.0 0.0 0.0 0.0 0.0 0.0 4.439653817932791 -4.495625573590333 -0.25179400135535257 0.1251499454362811 -0.04078488152938479 0.10349944456893934 0.415797601814085 0.5957450246880538 0.43663590913558453 -2.3623976153453077 -0.014774556886481166 -0.00017089876894282188 0.0 0.0 0.0 0.0 0.0 0.0 0 30.9375 32.25 30.6875 34.75 36.9375 37.1875 0.585169 7 253 253 253 253 253 253 2 -0.13407529890537262 0.17238251864910126 -9.940725326538086 0.0 0.7 0.0 47.76301193237305 47.77017593383789 0.6098535060882568 47.670928955078125 47.61359786987305 47.61359786987305 47.599266052246094 47.5562629699707 47.48460006713867 3840 1
7705.398999999999 -2.5847040000000003 -1.3422660000000004 1.3616509999999997 -2.0764069999999997 -0.9269629999999998 -0.8488470000000001 0.0 0.0 0.0 0.0 0.0 0.0 0.0 0.0 0.0 0.0 0.0 0.0 -1.466250565743301 -4.171916003831072 -1.7175227500747272 -0.3603321771873087 -2.239121124157486e-06 0.0 -16.845979180324385 -44.44403311176458 -19.523920678946627 -2.6201177437858325 -1.7281906447565034e-05 0.0 -2.58474046388735 -1.3422203820994874 1.361671272908346 -2.0764194927611292 -0.9270108381854456 -0.848846737538473 0.0 0.0 -0.0 -0.0 0.0 0.0 -1.3056851625442505 -4.391885280609131 -2.012805700302124 -0.2339726686477661 -0.0014109425246715546 0.043789464980363846 -1.466250565743301 -4.171916003831072 -1.7175227500747272 -0.3603321771873087 -2.239121124157486e-06 0.0 0.4158369123988465 0.5957295392266743 0.4365898352254232 -2.362461709936343 -0.014694149195616919 -0.00017226103333256357 0.0 0.0 0.0 0.0 0.0 0.0 4.030472815053928 -4.669196423101033 -0.2904154185283936 0.1264221422042086 -0.045317755969977114 0.09620590477417915 0.415797601814085 0.5957450246880538 0.43663590913558453 -2.3623976153453077 -0.014774556886481166 -0.00017089876894282188 0.0 0.0 0.0 0.0 0.0 0.0 0 30.9375 32.25 30.6875 34.75 36.9375 37.1875 0.579288 7 253 253 253 253 253 253 2 -0.1149216815829277 0.2298433631658554 -9.979032516479492 0.0 0.7 0.0 47.77107238769531 47.788089752197266 0.6076123714447021 47.68526077270508 47.61359786987305 47.61359786987305 47.584930419921875 47.54193115234375 47.48460006713867 3840 1
7705.499 -2.5847040000000003 -1.3422660000000004 1.3616509999999997 -2.0764069999999997 -0.9269629999999998 -0.8488470000000001 0.0 0.0 0.0 0.0 0.0 0.0 0.0 0.0 0.0 0.0 0.0 0.0 -1.4663549469311097 -4.171798786658048 -1.7175306472649248 -0.36032793014409464 -1.0750713388115678e-05 0.0 -16.84717843191052 -44.44278438002733 -19.524010450167996 -2.620086861855247 -8.297578054778449e-05 0.0 -2.58474046388735 -1.342244343166687 1.3616226355182093 -2.076395650903219 -0.9269745985614222 -0.848846737538473 0.0 0.0 -0.0 -0.0 0.0 0.0 -1.3638997077941895 -4.3946452140808105 -1.9898531436920166 -0.23476770520210266 -0.00897299312055111 0.04477855563163757 -1.4663549469311097 -4.171798786658048 -1.7175306472649248 -0.36032793014409464 -1.0750713388115678e-05 0.0 0.4158284122529864 0.5957327759235643 0.4366340865579024 -2.3624090554914137 -0.014725561441095806 -0.00019295853328896268 0.0 0.0 0.0 0.0 0.0 0.0 4.381868442594484 -4.661315645411979 -0.38596915338314775 0.12799646465599224 -0.03986761917030997 0.10048072710400377 0.415797601814085 0.5957450246880538 0.43663590913558453 -2.3623976153453077 -0.014774556886481166 -0.00017089876894282188 0.0 0.0 0.0 0.0 0.0 0.0 0 30.9375 32.25 30.6875 34.75 36.9375 37.1875 0.586044 7 253 253 253 253 253 253 2 -0.13407528400421143 0.1149216815829277 -9.979032516479492 0.0 0.7 0.0 47.80420684814453 47.795249938964844 0.491242915391922 47.6995964050293 47.6279296875 47.64226531982422 47.61359786987305 47.584930419921875 47.51326370239258 3840 1
7705.598999999999 -2.5847040000000003 -1.3422660000000004 1.3616509999999997 -2.0764069999999997 -0.9269629999999998 -0.8488470000000001 0.0 0.0 0.0 0.0 0.0 0.0 0.0 0.0 0.0 0.0 0.0 0.0 -1.4662718897271374 -4.171804056582063 -1.7175074063541615 -0.3603238188622343 -2.0285210193364845e-06 0.0 -16.846224174867707 -44.44284052130084 -19.523746259374466 -2.620056967099147 -1.5656460074835465e-05 0.0 -2.5846923033343714 -1.3422562640956421 1.361671272908346 -2.076371809045309 -0.9269626776324671 -0.848846737538473 0.0 0.0 -0.0 -0.0 0.0 0.0 -1.30363929271698 -4.37979793548584 -1.9885038137435913 -0.24036449193954468 0.00014965988520998508 0.05686156079173088 -1.4662718897271374 -4.171804056582063 -1.7175074063541615 -0.3603238188622343 -2.0285210193364845e-06 0.0 0.4157865580586965 0.5957473462215126 0.4366114949139279 -2.362431756748452 -0.014761261641900444 -9.944103504214113e-05 0.0 0.0 0.0 0.0 0.0 0.0 3.9427846047472155 -4.5932638303214315 -0.2395543230831083 0.12682077832592895 -0.045976632140194304 0.09074855189961437 0.415797601814085 0.5957450246880538 0.43663590913558453 -2.3623976153453077 -0.014774556886481166 -0.00017089876894282188 0.0 0.0 0.0 0.0 0.0 0.0 0 30.9375 32.25 30.6875 34.75 36.9375 37.1875 0.581161 7 253 253 253 253 253 253 2 -0.09576806426048279 0.05746084079146385 -9.90241813659668 0.0 0.7 0.0 47.78181838989258 47.808685302734375 0.6031407117843628 47.68526077270508 47.61359786987305 47.65659713745117 47.64226531982422 47.584930419921875 47.498931884765625 3840 1
7705.699 -2.5847040000000003 -1.3422660000000004 1.3616509999999997 -2.0764069999999997 -0.9269629999999998 -0.8488470000000001 0.0 0.0 0.0 0.0 0.0 0.0 0.0 0.0 0.0 0.0 0.0 0.0 -1.466353739313342 -4.171782490113085 -1.7174558159332927 -0.3603030044169309 -8.64495669552384e-06 0.0 -16.8471645574035 -44.44261077054351 -19.523159805841438 -2.6199056170368453 -6.672320279748564e-05 0.0 -2.584728542958395 -1.342244343166687 1.3616836706744593 -2.0764194927611292 -0.9269745985614222 -0.8488352934466761 0.0 0.0 -0.0 -0.0 0.0 0.0 -1.2964037656784058 -4.402517318725586 -1.9664934873580933 -0.24104011058807373 0.006218115333467722 0.054650094360113144 -1.466353739313342 -4.171782490113085 -1.7174558159332927 -0.3603030044169309 -8.64495669552384e-06 0.0 0.4158167056991829 0.5957348821955295 0.4366035044480595 -2.3624285097770743 -0.014710942651319137 -0.00014407549171987374 0.0 0.0 0.0 0.0 0.0 0.0 4.02198776446289 -4.482508695389653 -0.3144282456437555 0.12557207719679872 -0.041619505585957776 0.0930058169195249 0.415797601814085 0.5957450246880538 0.43663590913558453 -2.3623976153453077 -0.014774556886481166 -0.00017089876894282188 0.0 0.0 0.0 0.0 0.0 0.0 0 30.9375 32.25 30.75 34.75 36.9375 37.25 0.586056 7 253 253 253 253 253 253 2 -0.09576806426048279 0.19153612852096558 -9.959878921508789 0.0 0.7 0.0 47.80509948730469 47.8122673034668 0.5539045929908752 47.71392822265625 47.64226531982422 47.65659713745117 47.6279296875 47.570594787597656 47.5275993347168 3840 1
7705.799 -2.5847040000000003 -1.3422660000000004 1.3616509999999997 -2.0764069999999997 -0.9269629999999998 -0.8488470000000001 0.0 0.0 0.0 0.0 0.0 0.0 0.0 0.0 0.0 0.0 0.0 0.0 -1.4662225913369513 -4.171915206214822 -1.717552114447483 -0.3603320547309094 -2.2391220695305922e-06 0.0 -16.845657778049794 -44.444024614641684 -19.524254478125965 -2.6201168533569312 -1.728191374411072e-05 0.0 -2.5847047011004847 -1.3422203820994874 1.361671272908346 -2.0764080486693324 -0.9269745985614222 -0.8488710562335413 0.0 0.0 -0.0 -0.0 0.0 0.0 -1.3069030046463013 -4.434438228607178 -1.9945039749145508 -0.24024510383605957 0.010725880041718483 0.052488651126623154 -1.4662225913369513 -4.171915206214822 -1.717552114447483 -0.3603320547309094 -2.2391220695305922e-06 0.0 0.41580828146087834 0.5957483784418482 0.43659251855306763 -2.3624402224252563 -0.014771874242397048 -0.0001267594326062356 0.0 0.0 0.0 0.0 0.0 0.0 4.291649201459548 -4.696354308906015 -0.23303408511787094 0.12671224110494672 -0.03792553230009678 0.09917478625773839 0.415797601814085 0.5957450246880538 0.43663590913558453 -2.3623976153453077 -0.014774556886481166 -0.00017089876894282188 0.0 0.0 0.0 0.0 0.0 0.0 0 30.9375 32.25 30.75 34.75 36.9375 37.25 0.579696 7 253 253 253 253 253 253 2 -0.13407529890537262 0.09576806426048279 -9.959878921508789 0.0 0.7 0.0 47.80509948730469 47.8176383972168 0.5740430355072021 47.7282600402832 47.64226531982422 47.65659713745117 47.64226531982422 47.584930419921875 47.5275993347168 3840 1
7705.898999999999 -2.5847040000000003 -1.3422660000000004 1.3616509999999997 -2.0764069999999997 -0.9269629999999998 -0.8488470000000001 0.0 0.0 0.0 0.0 0.0 0.0 0.0 0.0 0.0 0.0 0.0 0.0 -1.466354506930794 -4.171821765412987 -1.7174926231417125 -0.3603151288057338 -4.135566486205743e-06 0.0 -16.847173376678946 -44.443029176074134 -19.52357821137206 -2.6199937782620877 -3.1918984797745184e-05 0.0 -2.5846923033343714 -1.3422562640956421 1.3616836706744593 -2.076395650903219 -0.9269388357745569 -0.8488591353045862 0.0 0.0 -0.0 -0.0 0.0 0.0 -1.3518346548080444 -4.404294490814209 -1.9966756105422974 -0.24407613277435303 -0.0003867505001835525 0.06664124131202698 -1.466354506930794 -4.171821765412987 -1.7174926231417125 -0.3603151288057338 -4.135566486205743e-06 0.0 0.4157837300650675 0.5957512528599356 0.4366118456556131 -2.3624076909730842 -0.014788262617141154 -9.808252814690387e-05 0.0 0.0 0.0 0.0 0.0 0.0 4.225906132323378 -4.67471194501662 -0.3788430226969717 0.12652599824352723 -0.04073609107559349 0.0973860039346402 0.415797601814085 0.5957450246880538 0.43663590913558453 -2.3623976153453077 -0.014774556886481166 -0.00017089876894282188 0.0 0.0 0.0 0.0 0.0 0.0 0 30.875 32.25 30.6875 34.75 36.9375 37.25 0.586597 7 253 253 253 253 253 253 2 -0.1149216815829277 0.15322890877723694 -9.825803756713867 0.0 0.7 0.0 47.78450393676758 47.78718948364258 0.5404736995697021 47.71392822265625 47.61359786987305 47.64226531982422 47.6279296875 47.570594787597656 47.54193115234375 3840 1
7705.999 -2.5847040000000003 -1.3422660000000004 1.3616509999999997 -2.0764069999999997 -0.9269629999999998 -0.8488470000000001 0.0 0.0 0.0 0.0 0.0 0.0 0.0 0.0 0.0 0.0 0.0 0.0 -1.466216144392364 -4.1718661263382755 -1.7175061187899114 -0.3603227481315429 1.1286725815390122e-05 0.0 -16.845583708107842 -44.44350175951796 -19.523731623002234 -2.6200491813928988 8.711281294096273e-05 0.0 -2.5847166220294397 -1.3422562640956421 1.3616836706744593 -2.0764318905272425 -0.9269388357745569 -0.8488591353045862 0.0 0.0 -0.0 -0.0 0.0 0.0 -1.334936261177063 -4.416298866271973 -2.00868558883667 -0.24397116899490356 -0.008672451600432396 0.07036155462265015 -1.466216144392364 -4.1718661263382755 -1.7175061187899114 -0.3603227481315429 1.1286725815390122e-05 0.0 0.41580221621604535 0.5957437031062173 0.43661839905630895 -2.3623886345691765 -0.014774559975694703 -0.00014613356777440917 0.0 0.0 0.0 0.0 0.0 0.0 3.8462579166057647 -4.544392225497953 -0.4589506611019081 0.12782963022716162 -0.04803569151917768 0.09102804257619163 0.415797601814085 0.5957450246880538 0.43663590913558453 -2.3623976153453077 -0.014774556886481166 -0.00017089876894282188 0.0 0.0 0.0 0.0 0.0 0.0 0 30.875 32.25 30.6875 34.75 36.9375 37.25 0.581364 7 253 253 253 253 253 253 2 -0.038307227194309235 0.17238251864910126 -9.90241813659668 0.0 0.7 0.0 47.754947662353516 47.77823257446289 0.5919508934020996 47.6995964050293 47.6279296875 47.6279296875 47.599266052246094 47.5562629699707 47.498931884765625 3840 1
7706.098999999999 -2.5847040000000003 -1.3422660000000004 1.3616509999999997 -2.0764069999999997 -0.9269629999999998 -0.8488470000000001 0.0 0.0 0.0 0.0 0.0 0.0 0.0 0.0 0.0 0.0 0.0 0.0 -1.4662707630469942 -4.1718238329384825 -1.7175259399484137 -0.3603208799506538 2.4800823109203997e-06 0.0 -16.84621123026555 -44.443051201726504 -19.523956939800133 -2.6200355971109333 1.9141684662420568e-05 0.0 -2.5847166220294397 -1.3422562640956421 1.361671272908346 -2.0764080486693324 -0.9269388357745569 -0.8488228956805628 0.0 0.0 -0.0 -0.0 0.0 0.0 -1.3712512254714966 -4.407377243041992 -1.9893308877944946 -0.25249621272087097 -0.016736488789319992 0.06275574117898941 -1.4662707630469942 -4.1718238329384825 -1.7175259399484137 -0.3603208799506538 2.4800823109203997e-06 0.0 0.41580105543292906 0.5957429391935557 0.43662117531043504 -2.362395033381676 -0.014726961954985117 -0.00011717817764717449 0.0 0.0 0.0 0.0 0.0 0.0 4.375932519633353 -4.79177612174904 -0.399465853347003 0.1300071096843923 -0.04090487806990263 0.10200914448547599 0.415797601814085 0.5957450246880538 0.43663590913558453 -2.3623976153453077 -0.014774556886481166 -0.00017089876894282188 0.0 0.0 0.0 0.0 0.0 0.0 0 30.875 32.25 30.6875 34.75 36.9375 37.25 0.585228 7 253 253 253 253 253 253 2 -0.07661445438861847 0.13407529890537262 -9.883264541625977 0.0 0.7 0.0 47.76569747924805 47.777339935302734 0.6008995771408081 47.68526077270508 47.6279296875 47.6279296875 47.61359786987305 47.570594787597656 47.5275993347168 3840 1
7706.199 -2.5847040000000003 -1.3422660000000004 1.3616509999999997 -2.0764069999999997 -0.9269629999999998 -0.8488470000000001 0.0 0.0 0.0 0.0 0.0 0.0 0.0 0.0 0.0 0.0 0.0 0.0 -1.4661650988228148 -4.171826792061986 -1.7175297821045952 -0.3603289013965675 -6.747840813916533e-06 0.0 -16.844997237676413 -44.44308272570322 -19.524000615467614 -2.620093924216032 -5.20809492666662e-05 0.0 -2.5847047011004847 -1.342244343166687 1.3616588751422327 -2.0764194927611292 -0.9269745985614222 -0.848846737538473 0.0 0.0 -0.0 -0.0 0.0 0.0 -1.324758529663086 -4.381340026855469 -2.023844003677368 -0.24508917331695557 -0.008009175769984722 0.0420820377767086 -1.4661650988228148 -4.171826792061986 -1.7175297821045952 -0.3603289013965675 -6.747840813916533e-06 0.0 0.41580544167257383 0.5957466388384209 0.43661767997212236 -2.3624152026832395 -0.014762805422693773 -0.00016300929455380456 0.0 0.0 0.0 0.0 0.0 0.0 3.9151196362223684 -4.397100491093391 -0.4326149088400688 0.12488524025161005 -0.04507888678298648 0.09176101427631606 0.415797601814085 0.5957450246880538 0.43663590913558453 -2.3623976153453077 -0.014774556886481166 -0.00017089876894282188 0.0 0.0 0.0 0.0 0.0 0.0 0 30.875 32.25 30.6875 34.75 36.9375 37.25 0.583356 7 253 253 253 253 253 253 2 -0.07661445438861847 0.17238251864910126 -10.055646896362305 0.0 0.7 0.0 47.75315856933594 47.767486572265625 0.5718072056770325 47.670928955078125 47.61359786987305 47.61359786987305 47.599266052246094 47.5562629699707 47.498931884765625 3840 1
7706.299 -2.5847040000000003 -1.3422660000000004 1.3616509999999997 -2.0764069999999997 -0.9269629999999998 -0.8488470000000001 0.0 0.0 0.0 0.0 0.0 0.0 0.0 0.0 0.0 0.0 0.0 0.0 -1.4662155440113638 -4.17182903307075 -1.7175913394249092 -0.3603456454084322 6.9886659044441024e-06 0.0 -16.845576810237812 -44.44310659949829 -19.524700367618767 -2.62021567654726 5.3939677068311965e-05 0.0 -2.5847166220294397 -1.342244343166687 1.3616474310504358 -2.076383729974264 -0.9269269148456019 -0.8488710562335413 0.0 0.0 -0.0 -0.0 0.0 0.0 -1.308118224143982 -4.38712739944458 -2.001830577850342 -0.2539472281932831 -0.0103421900421381 0.04367309436202049 -1.4662155440113638 -4.17182903307075 -1.7175913394249092 -0.3603456454084322 6.9886659044441024e-06 0.0 0.4158019766427557 0.5957462898785829 0.436624009249738 -2.3623923913227585 -0.014782455240535607 -0.00011881445748910796 0.0 0.0 0.0 0.0 0.0 0.0 3.7992097953371164 -4.715146110469263 -0.48538603536215197 0.13177798553721437 -0.04976965142886937 0.09233109805116957 0.415797601814085 0.5957450246880538 0.43663590913558453 -2.3623976153453077 -0.014774556886481166 -0.00017089876894282188 0.0 0.0 0.0 0.0 0.0 0.0 0 30.875 32.25 30.6875 34.75 36.9375 37.25 0.585817 7 253 253 253 253 253 253 2 0.0 0.1149216815829277 -9.959878921508789 0.0 0.7 0.0 47.742408752441406 47.75763702392578 0.5628532767295837 47.65659713745117 47.599266052246094 47.599266052246094 47.64226531982422 47.5275993347168 47.498931884765625 3840 1
7706.398999999999 -2.5847040000000003 -1.3422660000000004 1.3616509999999997 -2.0764069999999997 -0.9269629999999998 -0.8488470000000001 0.0 0.0 0.0 0.0 0.0 0.0 0.0 0.0 0.0 0.0 0.0 0.0 -1.4662741993496426 -4.17177572942068 -1.7175404186660153 -0.3603275582069466 -1.7661299152359462e-05 0.0 -16.84625071047734 -44.44253874789568 -19.524121526460757 -2.6200841573531712 -0.00013631282220535583 0.0 -2.5847166220294397 -1.3423041862300416 1.361671272908346 -2.0764194927611292 -0.9269745985614222 -0.8488352934466761 0.0 0.0 -0.0 -0.0 0.0 0.0 -1.3209797143936157 -4.39673376083374 -1.9667829275131226 -0.2608954608440399 -0.011441564187407494 0.047073595225811005 -1.4662741993496426 -4.17177572942068 -1.7175404186660153 -0.3603275582069466 -1.7661299152359462e-05 0.0 0.4157971555149998 0.5957320932147183 0.4366505620944711 -2.3623904284386734 -0.014754645430412999 -0.00021100729978663205 0.0 0.0 0.0 0.0 0.0 0.0 3.8092331494029454 -4.593726257218968 -0.28703501002136367 0.1253521682789226 -0.05146070149346629 0.09338957218080218 0.415797601814085 0.5957450246880538 0.43663590913558453 -2.3623976153453077 -0.014774556886481166 -0.00017089876894282188 0.0 0.0 0.0 0.0 0.0 0.0 0 30.875 32.1875 30.6875 34.75 36.9375 37.25 0.57996 7 253 253 253 253 253 253 2 -0.07661445438861847 0.13407529890537262 -9.84495735168457 0.0 0.7 0.0 47.77644348144531 47.79435729980469 0.5829969644546509 47.6995964050293 47.6279296875 47.599266052246094 47.584930419921875 47.5562629699707 47.51326370239258 3840 1
7706.499 -2.5847040000000003 -1.3422660000000004 1.3616509999999997 -2.0764069999999997 -0.9269629999999998 -0.8488470000000001 0.0 0.0 0.0 0.0 0.0 0.0 0.0 0.0 0.0 0.0 0.0 0.0 -1.466303415719055 -4.17186181394566 -1.717531422167479 -0.3603300640852063 -6.537116855366659e-06 0.0 -16.846586381857353 -44.443455818966896 -19.524019258864126 -2.620102378584878 -5.0454546970412676e-05 0.0 -2.5847047011004847 -1.3422683042338868 1.3616588751422327 -2.0764080486693324 -0.9269865194903772 -0.8488352934466761 0.0 0.0 -0.0 -0.0 0.0 0.0 -1.3890682458877563 -4.388296127319336 -2.0081799030303955 -0.2709835469722748 -0.009443443268537521 0.0428171306848526 -1.466303415719055 -4.17186181394566 -1.717531422167479 -0.3603300640852063 -6.537116855366659e-06 0.0 0.41580060082342213 0.5957407881012745 0.4366300510244638 -2.3624176817439753 -0.014750582684221965 -0.0001795056247222259 0.0 0.0 0.0 0.0 0.0 0.0 4.185358039112422 -4.542688357716606 -0.4885960179273052 0.1271910761916482 -0.04909402305967829 0.10128017815979633 0.415797601814085 0.5957450246880538 0.43663590913558453 -2.3623976153453077 -0.014774556886481166 -0.00017089876894282188 0.0 0.0 0.0 0.0 0.0 0.0 0 30.875 32.1875 30.6875 34.75 36.9375 37.25 0.587232 7 253 253 253 253 253 253 2 -0.1149216815829277 0.13407529890537262 -9.959878921508789 0.0 0.7 0.0 47.79166793823242 47.80509948730469 0.5740430355072021 47.7282600402832 47.65659713745117 47.65659713745117 47.64226531982422 47.570594787597656 47.51326370239258 3840 1
7706.598999999999 -2.5847040000000003 -1.3422660000000004 1.3616509999999997 -2.0764069999999997 -0.9269629999999998 -0.8488470000000001 0.0 0.0 0.0 0.0 0.0 0.0 0.0 0.0 0.0 0.0 0.0 0.0 -1.4662987811019976 -4.171797585040586 -1.717530487311992 -0.36032752766818094 -4.135258847032678e-06 0.0 -16.846533134026263 -44.44277157902026 -19.52400863190482 -2.62008393529373 -3.191661038782553e-05 0.0 -2.5846803824054163 -1.342244343166687 1.3616474310504358 -2.0764194927611292 -0.9269388357745569 -0.8488710562335413 0.0 0.0 -0.0 -0.0 0.0 0.0 -1.3307440280914307 -4.387649059295654 -2.0347583293914795 -0.2803325951099396 -0.009154072031378746 0.04478076100349426 -1.4662987811019976 -4.171797585040586 -1.717530487311992 -0.36032752766818094 -4.135258847032678e-06 0.0 0.4157863268212081 0.59576231488164 0.4366289129357943 -2.3623820589889 -0.01483630350729146 -0.00014639544709506394 0.0 0.0 0.0 0.0 0.0 0.0 3.9584700479924435 -4.812546270561429 -0.627223716748373 0.13485873445888266 -0.04654272102681826 0.09556680977802898 0.415797601814085 0.5957450246880538 0.43663590913558453 -2.3623976153453077 -0.014774556886481166 -0.00017089876894282188 0.0 0.0 0.0 0.0 0.0 0.0 0 30.875 32.1875 30.6875 34.75 36.9375 37.25 0.572689 7 253 253 253 253 253 253 2 -0.13407529890537262 0.13407529890537262 -9.979032516479492 0.0 0.7 0.0 47.798831939697266 47.798831939697266 0.5583816170692444 47.6995964050293 47.65659713745117 47.65659713745117 47.65659713745117 47.5562629699707 47.5275993347168 3840 1
7706.699 -2.5847040000000003 -1.3422660000000004 1.3616509999999997 -2.0764069999999997 -0.9269629999999998 -0.8488470000000001 0.0 0.0 0.0 0.0 0.0 0.0 0.0 0.0 0.0 0.0 0.0 0.0 -1.4662504787762836 -4.171931619767336 -1.7174778270220263 -0.360309822863449 -1.3317343527405787e-07 0.0 -16.84597818114689 -44.4441994706241 -19.523410016646782 -2.6199551966576458 -1.0278545563599679e-06 0.0 -2.5847047011004847 -1.342244343166687 1.3616474310504358 -2.0764080486693324 -0.9269745985614222 -0.8488228956805628 0.0 0.0 -0.0 -0.0 0.0 0.0 -1.3060688972473145 -4.359622478485107 -2.032590866088867 -0.27732765674591064 -0.012897444888949394 0.04649313911795616 -1.4662504787762836 -4.171931619767336 -1.7174778270220263 -0.360309822863449 -1.3317343527405787e-07 0.0 0.415805535632663 0.5957466803889966 0.4366221529901462 -2.3624154310417094 -0.014734599044514452 -0.00015151098385322916 0.0 0.0 0.0 0.0 0.0 0.0 3.6411018560650636 -4.564953405001914 -0.2659701238529979 0.12613281436408075 -0.04382053370895976 0.08847976411361502 0.415797601814085 0.5957450246880538 0.43663590913558453 -2.3623976153453077 -0.014774556886481166 -0.00017089876894282188 0.0 0.0 0.0 0.0 0.0 0.0 0 30.875 32.1875 30.6875 34.75 36.9375 37.25 0.580488 7 253 253 253 253 253 253 2 -0.09576806426048279 0.1149216815829277 -10.017339706420898 0.0 0.7 0.0 47.790771484375 47.80420684814453 0.6434228420257568 47.71392822265625 47.64226531982422 47.65659713745117 47.6279296875 47.570594787597656 47.5275993347168 3840 1
7706.799 -2.5847040000000003 -1.3422660000000004 1.3616509999999997 -2.0764069999999997 -0.9269629999999998 -0.8488470000000001 0.0 0.0 0.0 0.0 0.0 0.0 0.0 0.0 0.0 0.0 0.0 0.0 -1.4662176583400042 -4.171842852582608 -1.7175450321625974 -0.36033569248164427 4.587087540321157e-06 0.0 -16.845601102086075 -44.44325382078511 -19.524173970331628 -2.620143304880973 3.5403898825906403e-05 0.0 -2.5847047011004847 -1.3422203820994874 1.361671272908346 -2.0764080486693324 -0.926950756703512 -0.8488591353045862 0.0 0.0 -0.0 -0.0 0.0 0.0 -1.3223670721054077 -4.34128475189209 -2.0416934490203857 -0.26585012674331665 -0.017331618815660477 0.05356403440237045 -1.4662176583400042 -4.171842852582608 -1.7175450321625974 -0.36033569248164427 4.587087540321157e-06 0.0 0.4158042926766481 0.5957515211969214 0.4365956455530046 -2.362422468207919 -0.014765357847005502 -0.00010222721515283455 0.0 0.0 0.0 0.0 0.0 0.0 3.916342420610523 -4.3392136732639965 -0.23136481375626072 0.12120110631757965 -0.043364019138972656 0.09370358163493284 0.415797601814085 0.5957450246880538 0.43663590913558453 -2.3623976153453077 -0.014774556886481166 -0.00017089876894282188 0.0 0.0 0.0 0.0 0.0 0.0 0 30.9375 32.1875 30.6875 34.75 36.9375 37.25 0.574284 7 253 253 253 253 253 253 2 -0.05746084079146385 0.13407529890537262 -9.921571731567383 0.0 0.7 0.0 47.808685302734375 47.81853485107422 0.6299919486045837 47.71392822265625 47.65659713745117 47.65659713745117 47.6279296875 47.570594787597656 47.5275993347168 3840 1
7706.898999999999 -2.5847040000000003 -1.3422660000000004 1.3616509999999997 -2.0764069999999997 -0.9269629999999998 -0.8488470000000001 0.0 0.0 0.0 0.0 0.0 0.0 0.0 0.0 0.0 0.0 0.0 0.0 -1.4662247430747781 -4.171920299388764 -1.7174976306121292 -0.3603252843060028 -4.6410503316817834e-06 0.0 -16.845682499697975 -44.444078872970735 -19.523635133736096 -2.620067622920257 -3.5820392557255886e-05 0.0 -2.584728542958395 -1.3422323030284424 1.361706558858053 -2.0764194927611292 -0.9269865194903772 -0.8488710562335413 0.0 0.0 -0.0 -0.0 0.0 0.0 -1.3222543001174927 -4.430074214935303 -2.0272068977355957 -0.2744579017162323 -0.016189314424991608 0.04981184005737305 -1.4662247430747781 -4.171920299388764 -1.7174976306121292 -0.3603252843060028 -4.6410503316817834e-06 0.0 0.41581878618600027 0.5957333529353908 0.43658081414194205 -2.362455542549694 -0.014735069066893536 -0.000135646185698334 0.0 0.0 0.0 0.0 0.0 0.0 3.9571940198619293 -4.765400108078882 -0.19950584891340073 0.12630444281408668 -0.04417065817762882 0.0909115262892216 0.415797601814085 0.5957450246880538 0.43663590913558453 -2.3623976153453077 -0.014774556886481166 -0.00017089876894282188 0.0 0.0 0.0 0.0 0.0 0.0 0 30.9375 32.25 30.6875 34.75 36.875 37.25 0.578041 7 253 253 253 253 253 253 2 -0.1149216815829277 0.05746084079146385 -9.959878921508789 0.0 0.7 0.0 47.780025482177734 47.79704284667969 0.5583816170692444 47.6995964050293 47.64226531982422 47.6279296875 47.61359786987305 47.570594787597656 47.51326370239258 3840 1
7706.999 -2.5847040000000003 -1.3422660000000004 1.3616509999999997 -2.0764069999999997 -0.9269629999999998 -0.8488470000000001 0.0 0.0 0.0 0.0 0.0 0.0 0.0 0.0 0.0 0.0 0.0 0.0 -1.4663824515292965 -4.17175212136408 -1.7175160606298558 -0.36031939334973573 -2.1874911864309217e-05 0.0 -16.847494436486578 -44.44228724780598 -19.523844636756763 -2.6200247874478224 -0.00016883418065646963 0.0 -2.5846923033343714 -1.3422683042338868 1.3616474310504358 -2.076395650903219 -0.9269745985614222 -0.8488352934466761 0.0 0.0 -0.0 -0.0 0.0 0.0 -1.324950098991394 -4.375519752502441 -2.044219970703125 -0.27388864755630493 -0.029571089893579483 0.032682664692401886 -1.4663824515292965 -4.17175212136408 -1.7175160606298558 -0.36031939334973573 -2.1874911864309217e-05 0.0 0.4157912090949438 0.5957474884730688 0.4366359149907483 -2.3624092288738785 -0.014768570371190233 -0.00016322705726231476 0.0 0.0 0.0 0.0 0.0 0.0 4.00532323398264 -4.699346657822339 -0.34203857714835584 0.12916994232843987 -0.04170411104183144 0.09363083286721054 0.415797601814085 0.5957450246880538 0.43663590913558453 -2.3623976153453077 -0.014774556886481166 -0.00017089876894282188 0.0 0.0 0.0 0.0 0.0 0.0 0 30.9375 32.25 30.6875 34.75 36.875 37.25 0.586368 7 253 253 253 253 253 253 2 -0.17238251864910126 0.07661445438861847 -9.940725326538086 0.0 0.7 0.0 47.78181838989258 47.79435729980469 0.5941867828369141 47.68526077270508 47.64226531982422 47.6279296875 47.61359786987305 47.584930419921875 47.5275993347168 3840 1
7707.098999999999 -2.5847040000000003 -1.3422660000000004 1.3616509999999997 -2.0764069999999997 -0.9269629999999998 -0.8488470000000001 0.0 0.0 0.0 0.0 0.0 0.0 0.0 0.0 0.0 0.0 0.0 0.0 -1.466297271543766 -4.171823625642008 -1.7174956336475893 -0.36032075759120297 6.988758772266081e-06 0.0 -16.846515790478623 -44.44304899336676 -19.52361243326399 -2.6200347073869823 5.394039383749167e-05 0.0 -2.5847166220294397 -1.3422683042338868 1.3616588751422327 -2.0764194927611292 -0.9269984404193323 -0.8488591353045862 0.0 0.0 -0.0 -0.0 0.0 0.0 -1.3293269872665405 -4.3998308181762695 -2.01706862449646 -0.2887052893638611 -0.02809205837547779 0.04193822667002678 -1.466297271543766 -4.171823625642008 -1.7174956336475893 -0.36032075759120297 6.988758772266081e-06 0.0 0.4158109596893766 0.5957350688943274 0.4366305572385259 -2.362420440715311 -0.014765624582342714 -0.00021767433613760232 0.0 0.0 0.0 0.0 0.0 0.0 3.881859360670638 -4.42375712766719 -0.17288086972134575 0.1225380681997079 -0.044956445514503465 0.09158198352234116 0.415797601814085 0.5957450246880538 0.43663590913558453 -2.3623976153453077 -0.014774556886481166 -0.00017089876894282188 0.0 0.0 0.0 0.0 0.0 0.0 0 30.9375 32.25 30.6875 34.75 36.875 37.25 0.580164 7 253 253 253 253 253 253 2 0.019153613597154617 0.17238251864910126 -9.979032516479492 0.0 0.7 0.0 47.790771484375 47.79793930053711 0.6098535060882568 47.6995964050293 47.65659713745117 47.65659713745117 47.6279296875 47.61359786987305 47.54193115234375 3840 1
7707.199 -2.5847040000000003 -1.3422660000000004 1.3616509999999997 -2.0764069999999997 -0.9269629999999998 -0.8488470000000001 0.0 0.0 0.0 0.0 0.0 0.0 0.0 0.0 0.0 0.0 0.0 0.0 -1.4662221856100266 -4.171921558373634 -1.7175580674315176 -0.3603413611261191 2.269512297397903e-06 0.0 -16.8456531165905 -44.444092285121215 -19.524322148605492 -2.620184523836459 1.7516470539300025e-05 0.0 -2.5846803824054163 -1.342244343166687 1.3616474310504358 -2.076395650903219 -0.926950756703512 -0.8488829771624964 0.0 0.0 -0.0 -0.0 0.0 0.0 -1.3893283605575562 -4.40045690536499 -2.0091869831085205 -0.2786310017108917 -0.037559136748313904 0.036849264055490494 -1.4662221856100266 -4.171921558373634 -1.7175580674315176 -0.3603413611261191 2.269512297397903e-06 0.0 0.4157856909119721 0.5957590582096615 0.43662303792413026 -2.362403547991296 -0.014836719084892622 -0.0001376988653384218 0.0 0.0 0.0 0.0 0.0 0.0 4.1198412878652375 -4.601636971231189 -0.2634439143219849 0.12473127748235595 -0.037425716314417004 0.09687903273675535 0.415797601814085 0.5957450246880538 0.43663590913558453 -2.3623976153453077 -0.014774556886481166 -0.00017089876894282188 0.0 0.0 0.0 0.0 0.0 0.0 0 30.9375 32.25 30.6875 34.75 36.9375 37.1875 0.584196 7 253 253 253 253 253 253 2 -0.17238251864910126 0.17238251864910126 -9.90241813659668 0.0 0.7 0.0 47.774654388427734 47.80152130126953 0.6031407117843628 47.6995964050293 47.64226531982422 47.6279296875 47.65659713745117 47.61359786987305 47.5275993347168 3840 1
7707.299 -2.5847040000000003 -1.3422660000000004 1.3616509999999997 -2.0764069999999997 -0.9269629999999998 -0.8488470000000001 0.0 0.0 0.0 0.0 0.0 0.0 0.0 0.0 0.0 0.0 0.0 0.0 -1.4661394902604645 -4.172007703178507 -1.7175501981972792 -0.36033045945743275 1.7691926014682168e-05 0.0 -16.844703016948884 -44.44500999836297 -19.524232695173176 -2.6201052534926754 0.00013654920538433307 0.0 -2.584728542958395 -1.3422323030284424 1.3616588751422327 -2.076383729974264 -0.9269269148456019 -0.848846737538473 0.0 0.0 -0.0 -0.0 0.0 0.0 -1.335210919380188 -4.41435432434082 -2.0109341144561768 -0.2970190644264221 -0.03975726664066315 0.038184814155101776 -1.4661394902604645 -4.172007703178507 -1.7175501981972792 -0.36033045945743275 1.7691926014682168e-05 0.0 0.4158105219708642 0.5957422262699951 0.43660942497092814 -2.3624050107404746 -0.0147300134397857 -8.916831493810055e-05 0.0 0.0 0.0 0.0 0.0 0.0 3.9664798228634313 -4.600690548162037 -0.248692090568289 0.12242886838135046 -0.043307996533918855 0.09755305369337311 0.415797601814085 0.5957450246880538 0.43663590913558453 -2.3623976153453077 -0.014774556886481166 -0.00017089876894282188 0.0 0.0 0.0 0.0 0.0 0.0 0 30.9375 32.25 30.6875 34.75 36.9375 37.1875 0.584449 7 253 253 253 253 253 253 2 -0.1149216815829277 0.1149216815829277 -10.036493301391602 0.0 0.7 0.0 47.743309020996094 47.75763702392578 0.6210432648658752 47.670928955078125 47.61359786987305 47.599266052246094 47.599266052246094 47.54193115234375 47.48460006713867 3840 1
7707.398999999999 -2.58470390182523 -1.3422660424164343 1.3616510306552094 -2.0764070199605555 -0.9269630616146962 -0.8488469164981272 3.926990816987241e-05 -1.6966573681725893e-05 1.2262083922727214e-05 -7.984222204716146e-06 -2.4645878419503564e-05 3.340074907289548e-05 0.008726646259971643 -0.0037703497070501984 0.0027249075383838253 -0.001774271601048032 -0.005476861871000792 0.007422388682865662 -1.4419174597300248 -4.324721174447617 -1.691074054677004 -0.3606003239096742 -0.0004498709225399823 0.0008853383096005267 -16.80969610245927 -44.46346380826691 -19.521157374221833 -2.620715412672283 0.0003238951721285092 0.0015723015916052415 -2.5847166220294397 -1.3422562640956421 1.3616588751422327 -2.0764194927611292 -0.9269626776324671 -0.8488591353045862 0.0 0.0 -0.0 -0.0 0.0 0.0 -1.301111102104187 -4.587950229644775 -2.004910469055176 -0.2985803186893463 -0.0346272736787796 0.0303904190659523 -1.4419174597300248 -4.324721174447617 -1.691074054677004 -0.3606003239096742 -0.0004498709225399823 0.0008853383096005267 0.4158077765743274 0.5957415268655397 0.4366272056375377 -2.3624000105424705 -0.014772037945314651 -0.0001774270106365085 0.0 0.0 0.0 0.0 0.0 0.0 3.961608200488557 -4.504952083187025 -0.28089839819402673 0.1283995515346983 -0.050661624936298194 0.09522781347988822 0.41579754233900934 0.5957450503766659 0.4366359154694136 -2.3623976445658146 -0.014774567738046272 -0.0001708909498537538 -2.3790038807399064e-05 1.0275402602310623e-05 2.5335316066684636e-06 -1.1721190924273292e-05 9.239072611918578e-07 4.021294116069594e-06 0 30.9375 32.25 30.6875 34.75 36.9375 37.1875 0.742608 7 253 253 253 253 253 253 2 -0.1149216815829277 0.13407529890537262 -10.074800491333008 1.0 0.7 0.00015709957633103217 47.77375411987305 47.780025482177734 0.5628532767295837 47.6995964050293 47.599266052246094 47.599266052246094 47.599266052246094 47.570594787597656 47.498931884765625 768 2
7707.499 -2.583669194286493 -1.3427130880682627 1.3619741195359012 -2.076617393126452 -0.927612446280663 -0.8479668531499858 0.037629298672997726 -0.016257747936800446 0.01174980130551105 -0.007650659143719113 -0.023616228387755404 0.03200534000051671 0.9959285044192634 -0.4302911603171035 0.31098007281805345 -0.20248874646960596 -0.6250468610279648 0.8470801084320394 -0.35961251772080755 -5.238844792165 -0.9720371698070781 -0.5467986519890168 -0.19903049219124191 0.23448080152900247 -12.68091077804905 -46.77118622849359 -19.150680587765326 -2.6803463206717524 0.041745370921052294 0.1794388961971409 -2.583754364644186 -1.34270694971595 1.3618558088885706 -2.0766025982298792 -0.9276889006244105 -0.8479011694537562 0.03842062130570412 -0.019597070291638374 0.01163966953754425 -0.009658848866820335 -0.021044733002781868 0.028189172968268394 -0.1335785686969757 -5.201761245727539 -1.059248685836792 -0.5093640685081482 -0.1419602930545807 0.24595379829406738 -0.35961251772080755 -5.238844792165 -0.9720371698070781 -0.5467986519890168 -0.19903049219124191 0.23448080152900247 0.415248027171442 0.5959786400182951 0.4367535478705282 -2.362712331546175 -0.01472623621342281 -0.0002564903815150354 -0.024243369690462268 0.010155473975568995 0.005423176835901102 -0.006379575746616328 -0.005202131898605293 0.008557453435047886 5.1254045788178795 -4.956751061133907 -0.5431911765565793 0.11767801530600451 -0.10529577349175623 0.0901082646156178 0.4151706555947925 0.5960154294559759 0.43670268965285314 -2.3627053015149944 -0.014888828245585812 -8.884073381438072e-05 -0.022799940285201815 0.009819680216078635 0.002429078795177786 -0.011208942323996446 0.0008687463144318036 0.0038393843896472393 0 30.9375 32.25 30.6875 34.75 36.9375 37.1875 0.754656 7 253 253 253 253 253 253 2 -0.7661445140838623 0.038307227194309235 -9.921571731567383 1.0 0.7 0.20905287543645878 47.780921936035156 47.81316375732422 0.6143304705619812 47.6995964050293 47.61359786987305 47.65659713745117 47.599266052246094 47.584930419921875 47.51326370239258 768 2
7707.598999999999 -2.576485419085284 -1.3458168399471067 1.3642172634214988 -2.078077973508435 -0.9321209989728709 -0.8418567427862511 0.10604620535117538 -0.04581728964007398 0.03311307640644022 -0.021560948495935678 -0.06655482545640157 0.09019686727418345 0.6841690667817798 -0.2955954170327374 0.2136327510092878 -0.1391028935221663 -0.4293859706864592 0.5819152727366689 -0.3757036675346908 -5.193821702800278 -0.9561570900809875 -0.6023950658290149 -0.21574074734248305 0.24371654440611812 -13.732610594292266 -46.17811450087208 -19.27756473972339 -2.6638328616402154 0.024669396960830037 0.12326830669599492 -2.576426092778341 -1.3459750723889847 1.3639982382403772 -2.078078409234518 -0.9321444670306605 -0.841809097920553 0.10724198818206787 -0.04272303730249405 0.03390217199921608 -0.021544450893998146 -0.06616277247667313 0.08745904266834259 -0.3442775309085846 -5.128583908081055 -0.8126449584960938 -0.5661440491676331 -0.145356222987175 0.23594211041927338 -0.3757036675346908 -5.193821702800278 -0.9561570900809875 -0.6023950658290149 -0.21574074734248305 0.24371654440611812 0.41077308860179246 0.5978870844160319 0.4373953241105667 -2.3646402849521877 -0.01583624111497642 0.00011565265968644693 -0.06448600440884479 0.028088499820466767 0.004405604283126529 -0.03289975949781464 0.003707515053333922 0.013870528776787308 5.28347621632915 -4.861602400938191 -0.2843533602204351 0.11721942807527312 -0.0856065035448658 0.11842524281112218 0.410815478494697 0.5978725801524045 0.43716734635014975 -2.364824105809902 -0.015676095383902734 0.0004611475613575047 -0.06432637790807721 0.027156594914594545 0.006872857551334935 -0.031145094924695988 0.0021275472052308675 0.010549288605297899 0 30.9375 32.1875 30.6875 34.75 36.9375 37.1875 0.750121 7 253 253 253 253 253 253 2 -0.40222588181495667 0.019153613597154617 -9.940725326538086 1.0 0.7 0.6058622945995084 47.78361129760742 47.798831939697266 0.6546126008033752 47.68526077270508 47.6279296875 47.6279296875 47.599266052246094 47.5562629699707 47.47026824951172 768 2
7707.699 -2.5624599532162575 -1.3518765459962774 1.3685967348171895 -2.0809295828256396 -0.9409234113719434 -0.829927479695149 0.17446311202935352 -0.07537683134334772 0.05447635150736955 -0.03547123784815234 -0.10949342252504805 0.14838839454785063 0.6841690667817729 -0.2955954170327374 0.21363275100929474 -0.13910289352216804 -0.4293859706864592 0.5819152727366828 -0.26299340071003563 -5.2341747100104445 -0.9300897836970037 -0.6063992675621231 -0.23123427812595868 0.2600539403965048 -13.274431884677481 -46.431142005575715 -19.28517860502536 -2.6665706287160114 0.016984302515492655 0.12326807806583173 -2.562375609074728 -1.3518705529025574 1.3685067335711878 -2.0808946094908656 -0.940894905720846 -0.8301475683795374 0.17169417440891266 -0.07405475527048111 0.057623811066150665 -0.03478139266371727 -0.10605477541685104 0.15160106122493744 -0.14993232488632202 -5.218048572540283 -0.8325584530830383 -0.6178105473518372 -0.20664474368095398 0.31307610869407654 -0.26299340071003563 -5.2341747100104445 -0.9300897836970037 -0.6063992675621231 -0.23123427812595868 0.2600539403965048 0.4022515278925502 0.6014404406860501 0.4381247655929958 -2.368823286794267 -0.0175719445446522 0.001345817702585179 -0.10510496394211093 0.0422509149301902 0.009023573281424235 -0.05013071874752511 0.010753664105197028 0.013050599443549596 4.930890479142479 -5.048769697440061 -0.09986500407909782 0.115173447758893 -0.09392767897672788 0.11522125237939368 0.4022990911994991 0.6013975731084324 0.4380798645250614 -2.3688734574318815 -0.01718262076111507 0.001437267102180421 -0.10603968553843969 0.04301848412613268 0.011394753704195458 -0.04979497077452944 0.002497681744996455 0.016496700256358104 0 30.9375 32.1875 30.6875 34.75 36.9375 37.1875 0.817032 7 253 253 253 253 253 253 2 -0.4213795065879822 -0.019153613597154617 -9.998186111450195 1.0 0.7 0.9961626958921035 47.76659393310547 47.78718948364258 0.6926589012145996 47.670928955078125 47.584930419921875 47.6279296875 47.570594787597656 47.51326370239258 47.48460006713867 768 2
7707.799 -2.541592796679413 -1.3608922062157758 1.3751125337229728 -2.085172221078065 -0.9540196834778811 -0.8121790638766804 0.24288001870753187 -0.10493637304662153 0.07583962660829893 -0.04938152720036904 -0.15243201959369465 0.20657992182151794 0.6841690667817868 -0.2955954170327374 0.21363275100929474 -0.13910289352216457 -0.4293859706864661 0.5819152727366828 -0.130683922510133 -5.285201709347072 -0.9051848140126558 -0.6108461970863229 -0.24724398399424133 0.2763913437069225 -12.587029928584645 -46.78980567185725 -19.30640290181259 -2.6725276446253727 0.005315283560688222 0.12326790733328327 -2.541767422352926 -1.3609416645816346 1.3751118818866175 -2.085182329217428 -0.9539545218097132 -0.8121197859393519 0.24538204073905945 -0.10505412518978119 0.07614016532897949 -0.049011118710041046 -0.15167808532714844 0.20141318440437317 -0.04951664060354233 -5.087121486663818 -0.9017720222473145 -0.5845491290092468 -0.2000637799501419 0.32143521308898926 -0.130683922510133 -5.285201709347072 -0.9051848140126558 -0.6108461970863229 -0.24724398399424133 0.2763913437069225 0.38968359521590173 0.6063290426931501 0.43949384517198636 -2.3746023169935264 -0.01911569607114591 0.0025964050540310197 -0.14974147168767943 0.05748486896805491 0.01597400032123794 -0.0660048620383549 -0.0012253251061750126 0.02781123442450481 5.1397502835556255 -4.948559333750486 0.1184442462757862 0.11896501105223231 -0.10779071053609633 0.11447420856576909 0.38959921055607144 0.606395643346602 0.43945059807907827 -2.374681064290916 -0.019348502836441867 0.0026572776722779395 -0.14800000729812665 0.05646183927258124 0.016045694978532865 -0.06627151187855865 0.0014966203142914025 0.021225937900048564 0 30.9375 32.1875 30.6875 34.75 36.9375 37.1875 0.80394 7 253 253 253 253 253 253 2 -0.5171475410461426 0.19153612852096558 -9.749189376831055 1.0 0.7 1.3818956621859684 47.764801025390625 47.76927947998047 0.7351769208908081 47.670928955078125 47.584930419921875 47.584930419921875 47.599266052246094 47.5275993347168 47.4559326171875 768 2
7707.898999999999 -2.513883949474751 -1.3728638206056019 1.3837646601388494 -2.090805888265713 -0.9714098152906825 -0.7886114953308452 0.3112969253857102 -0.13449591474989536 0.09720290170922831 -0.06329181655258574 -0.19537061666234123 0.2647714490951852 0.6841690667817868 -0.2955954170327513 0.21363275100929474 -0.13910289352216804 -0.42938597068648 0.581915272736655 0.021445548382949074 -5.348457095986081 -0.8807059273903529 -0.6154995154634705 -0.2635585564362219 0.2927287676687138 -11.668543360686737 -47.269320072661934 -19.332617343000344 -2.6799853954953154 -0.00870674593418698 0.12326789994229698 -2.514085356389181 -1.3728035998395463 1.3839009443866175 -2.090762277642721 -0.9713099638568323 -0.7886975447284144 0.3113343119621277 -0.13436035811901093 0.09365011006593704 -0.06371138244867325 -0.19622953236103058 0.2646525800228119 0.09263570606708527 -4.948082447052002 -0.9218127727508545 -0.5806468725204468 -0.1870976686477661 0.33797115087509155 0.021445548382949074 -5.348457095986081 -0.8807059273903529 -0.6154995154634705 -0.2635585564362219 0.2927287676687138 0.3727908839551657 0.6125111116356403 0.44118040065427433 -2.3820533807083577 -0.021885827906753846 0.004047829539485814 -0.18956642477466285 0.06684339219450827 0.022807176049842993 -0.07803038965439249 -0.0048673313804083185 0.024072960821525824 5.141361458829934 -5.157978004383913 -0.06416757187155353 0.11043603525588438 -0.11861700064719183 0.0931245300988239 0.37269162225422486 0.6125783347007826 0.44129501613532496 -2.381983083107307 -0.022082621196709097 0.0038671110878475494 -0.1901803900211509 0.0665578475969454 0.020877011856593065 -0.07961187179614614 -0.001220890082108017 0.024334679694528266 0 30.9375 32.1875 30.6875 34.75 36.9375 37.25 0.81756 7 253 253 253 253 253 253 2 -0.5363011360168457 0.13407529890537262 -9.864110946655273 1.0 0.7 1.7612961695687568 47.74151611328125 47.74151611328125 0.7597975730895996 47.6279296875 47.5562629699707 47.570594787597656 47.54193115234375 47.498931884765625 47.41293716430664 768 2
7707.999 -2.4793334116022705 -1.3877913891657556 1.3945531140648186 -2.097830584388582 -0.9930938068103492 -0.7592247740576425 0.3797138320638885 -0.16405545645316916 0.11856617681015769 -0.07720210590480243 -0.23830921373098782 0.3229629763688525 0.6841690667817868 -0.2955954170327374 0.21363275100929474 -0.13910289352216804 -0.42938597068648 0.5819152727366828 0.19314871360542124 -5.4221908186681835 -0.8580830650606298 -0.6208132410508682 -0.28022717334483926 0.3090662479115922 -10.522815836668372 -47.852118525749965 -19.38056828244467 -2.6922452283308713 -0.025461349064621067 0.12326833770526598 -2.479605499898092 -1.3877979975989838 1.3943465391742151 -2.097800394097799 -0.9930575529681605 -0.7594073454486292 0.3775392770767212 -0.1614031344652176 0.1179419755935669 -0.07856953144073486 -0.23910735547542572 0.32444241642951965 0.39280176162719727 -5.416629314422607 -0.6819014549255371 -0.5940532088279724 -0.1708252727985382 0.38883328437805176 0.19314871360542124 -5.4221908186681835 -0.8580830650606298 -0.6208132410508682 -0.28022717334483926 0.3090662479115922 0.3517400011922405 0.6194880377063914 0.44375658943056656 -2.3902807274762705 -0.025233210013263306 0.0044056342168131354 -0.2301340108967906 0.0722323881108009 0.024726862728711205 -0.08967741978898551 -0.004629942477454269 0.021842397536017882 6.196531742842605 -5.204783143423445 0.29336479156687556 0.11708461368627315 -0.12675870101344466 0.1019682272250388 0.35156048396203265 0.6195654892743948 0.44363371979036126 -2.390416203239363 -0.025260373527822934 0.004762272043668107 -0.23243530823313377 0.07240352137841698 0.02593986366182914 -0.08876361610286267 -0.005801270795614155 0.025495405201369503 0 30.9375 32.1875 30.6875 34.75 36.9375 37.25 0.814417 7 253 253 253 253 253 253 2 -0.8236054182052612 0.17238251864910126 -9.710882186889648 1.0 0.7 2.1326361835276604 47.73883056640625 47.75405502319336 0.8627467155456543 47.61359786987305 47.5562629699707 47.5562629699707 47.5275993347168 47.47026824951172 47.39860534667969 768 2
7708.098999999999 -2.4379411830619726 -1.4056749118962362 1.407477895500881 -2.1062463094466732 -1.0190716580368804 -0.7240189000570743 0.44813073874206677 -0.19361499815644295 0.13992945191108708 -0.09111239525701913 -0.2812478107996344 0.38115450364251985 0.6841690667817868 -0.2955954170327374 0.21363275100930168 -0.1391028935221611 -0.42938597068648 0.5819152727367105 0.38395434094956554 -5.504217521297058 -0.8358237703557566 -0.6264541355818416 -0.2970837373889925 0.3254038056568689 -9.15652232846352 -48.516341400293356 -19.432780858986227 -2.706884035925133 -0.043666559211520614 0.12326938847165889 -2.4382014910327356 -1.4055297088674088 1.4074938933001917 -2.1062632999815882 -1.0190532843219202 -0.7240899244891565 0.44414186477661133 -0.19433172047138214 0.14326046407222748 -0.09087264537811279 -0.28066152334213257 0.37930381298065186 0.6145043969154358 -5.283960819244385 -0.9223898649215698 -0.5983743071556091 -0.18998174369335175 0.3790620267391205 0.38395434094956554 -5.504217521297058 -0.8358237703557566 -0.6264541355818416 -0.2970837373889925 0.3254038056568689 0.32640280277678196 0.6268325598042916 0.44639332159116657 -2.399591260523658 -0.028449156369327377 0.005013769768572605 -0.27259603132389354 0.07154735568113414 0.029829561070563212 -0.09408888982862082 -0.010879777490318265 0.022161585353873414 6.152804189847914 -5.110130418347132 0.06885046141485374 0.10174357419414264 -0.12652469818976214 0.09738721273431192 0.3262116420441283 0.6268885882832366 0.4464923670059311 -2.399508804006981 -0.028720854381816506 0.005018228320186574 -0.27447203198594133 0.0731377778706855 0.03128394093417959 -0.09258734921604121 -0.012125049069861893 0.024477126107768088 0 30.9375 32.25 30.6875 34.75 36.9375 37.25 0.815796 7 253 253 253 253 253 253 2 -1.015141487121582 0.13407529890537262 -9.730035781860352 1.0 0.7 2.494240987080302 47.711063385009766 47.72002029418945 0.9007930159568787 47.61359786987305 47.54193115234375 47.5562629699707 47.5275993347168 47.47026824951172 47.38426971435547 768 2
7708.199 -2.3897072638538575 -1.4265143887970435 1.422539004447036 -2.1160530634399866 -1.049343368970276 -0.6829938733291394 0.516547645420244 -0.2231745398597163 0.16129272701201608 -0.10502268460923561 -0.32418640786828024 0.4393460309161861 0.684169066781759 -0.2955954170327374 0.2136327510092878 -0.1391028935221611 -0.4293859706864245 0.581915272736655 0.5871816580873824 -5.593303636049363 -0.8156814908525616 -0.6328705253056033 -0.31398081960891716 0.3417414882814758 -7.570747117109078 -49.24957281463443 -19.50979444743516 -2.7271617757144204 -0.062184495327353755 0.12327142696822606 -2.3899603525744837 -1.426474244599678 1.422417465840475 -2.115992685357565 -1.0491731802569788 -0.6830795446978968 0.5186285376548767 -0.2229432463645935 0.15718531608581543 -0.10510512441396713 -0.323212206363678 0.4356878697872162 0.4312780797481537 -5.440329551696777 -0.7024164199829102 -0.5918849110603333 -0.2737891376018524 0.43747395277023315 0.5871816580873824 -5.593303636049363 -0.8156814908525616 -0.6328705253056033 -0.31398081960891716 0.3417414882814758 0.2968298715910674 0.6339534272071602 0.4499527366045577 -2.408554552953913 -0.032128792623465664 0.004316044469297678 -0.31688539271880967 0.0691950090139883 0.039333750103744715 -0.08659110066444965 -0.02443312692531685 0.02650854229345645 4.18437910934695 -3.3211799157160913 0.3471582098552004 0.12202657904619597 -0.06251451315111607 0.18439880918104942 0.29668862588314676 0.6339959895516393 0.4499014230107598 -2.408672903990845 -0.03226370462081865 0.004331029631875634 -0.31582589517961673 0.06796343033870475 0.03695523955165401 -0.0898811525541541 -0.019735747156906625 0.021167177503045476 0 30.9375 32.25 30.6875 34.75 36.9375 37.25 0.8061 7 253 253 253 253 253 253 2 -0.13407528400421143 0.8619126081466675 -10.113107681274414 1.0 0.7 2.844509658078642 47.744205474853516 47.73883056640625 0.9433110356330872 47.61359786987305 47.54193115234375 47.54193115234375 47.51326370239258 47.4559326171875 47.39860534667969 768 2
7708.299 -2.334631653977926 -1.4503098198681785 1.4397364409032836 -2.1272508463685202 -1.0839089396105352 -0.6361496938738389 0.5849645520984196 -0.25273408156298893 0.1826560021129446 -0.11893297396145175 -0.3671250049369252 0.4975375581898511 0.684169066781759 -0.2955954170327235 0.21363275100927392 -0.1391028935221611 -0.42938597068648 0.5819152727366272 0.7869248997057929 -5.686695322140677 -0.797331674371357 -0.6401058148215705 -0.33096207366398706 0.35807933749735993 -5.7855263430576365 -50.02444207444213 -19.607815813543734 -2.753394059704253 -0.08135208356106984 0.12327478311464557 -2.3349016348468226 -1.4501805168441315 1.4396770636187952 -2.1271287403502406 -1.083820645009176 -0.636538330708639 0.5827287435531616 -0.25318443775177 0.18335776031017303 -0.11981320381164551 -0.3647162914276123 0.5017898082733154 0.9631918668746948 -5.592219352722168 -0.7862606644630432 -0.6417059302330017 -0.21655629575252533 0.46356573700904846 0.7869248997057929 -5.686695322140677 -0.797331674371357 -0.6401058148215705 -0.33096207366398706 0.35807933749735993 0.2632659061830161 0.6402198708500226 0.45383139181543597 -2.4172827909235117 -0.035760962476889015 0.0024165662823566222 -0.3549772238735138 0.05587185298263291 0.043275106729112736 -0.07776048986000683 -0.023933410389655574 0.01150013527237087 5.374750360682259 -4.055018150937976 0.32715150666826887 0.12595894279997316 -0.09467553469085996 0.14063385143333756 0.26309087084877925 0.6402606894753485 0.45389563344300665 -2.417199353835858 -0.03564599720594452 0.002469061159438134 -0.35584066707876666 0.056175777355417136 0.04299270974251691 -0.07943222188784342 -0.027768477420476112 0.015592611458227212 0 30.9375 32.25 30.6875 34.75 36.9375 37.25 0.824641 7 253 253 253 253 253 253 2 -0.6703764796257019 0.4213795065879822 -10.170568466186523 1.0 0.7 3.1819403562312063 47.6976318359375 47.700321197509766 1.0619269609451294 47.54193115234375 47.47026824951172 47.47026824951172 47.44160079956055 47.35560607910156 47.31260681152344 768 2
7708.398999999999 -2.2727143534341767 -1.4770612051096403 1.4590702048696238 -2.139839658232276 -1.122768369957659 -0.5834863616911719 0.6533814587765951 -0.28229362326626156 0.20401927721387314 -0.1328432633136679 -0.41006360200557007 0.5557290854635161 0.684169066781759 -0.2955954170327235 0.2136327510092878 -0.1391028935221611 -0.42938597068648 0.5819152727365995 1.0026191358871899 -5.781045763303722 -0.7814062283945019 -0.6484605463061219 -0.3477888839443779 0.3686463624934259 -3.8207625914120884 -50.80785473259465 -19.734258865886563 -2.7877662489002244 -0.09932764924780685 0.12327986790167977 -2.273029152547018 -1.4768452209285279 1.4588215986834925 -2.139801164666647 -1.1225650946246546 -0.5837753454791468 0.649901807308197 -0.2803167700767517 0.2039460837841034 -0.1301320642232895 -0.4067402780056 0.5487622022628784 1.298399806022644 -5.6986188888549805 -0.6920289993286133 -0.669908881187439 -0.2615041434764862 0.5407911539077759 1.0026191358871899 -5.781045763303722 -0.7814062283945019 -0.6484605463061219 -0.3477888839443779 0.3686463624934259 0.2258117885493452 0.6450092306681666 0.45853399297898817 -2.4241541946713996 -0.03862272364438928 -0.0007259587088394144 -0.3920108203463027 0.037058985580701656 0.04794386815710657 -0.06192026755409737 -0.034292442265084544 0.011578049961415204 5.153511719884251 -4.193470801892649 -0.3072700351017865 0.06596268536149591 -0.0808391139948291 0.16134650058879618 0.2255935932005033 0.6449912919198292 0.458513098587481 -2.424259519597921 -0.03857969162099034 -0.0006640567549195893 -0.3936553811116523 0.03719819724688698 0.04942360150521779 -0.060100485832421585 -0.03488475762166854 0.007940456945273788 0 30.9375 32.25 30.6875 34.75 36.9375 37.25 0.805884 7 253 253 253 253 253 253 2 -0.9576807022094727 0.47884035110473633 -9.84495735168457 1.0 0.7 3.505160918295792 47.694053649902344 47.70390319824219 1.1805428266525269 47.5275993347168 47.47026824951172 47.48460006713867 47.4559326171875 47.369937896728516 47.298274993896484 768 2
7708.499 -2.2040517499089525 -1.506726900197351 1.4805101991557623 -2.153799901819509 -1.165861166893393 -0.5250858586618019 0.7109993913502927 -0.3071874654971009 0.22201055749944176 -0.1445579425193017 -0.4462247398124557 0.6047356199241576 0.13919571585824242 -0.060139543975351595 0.04346405757188476 -0.028300792569976863 -0.08735952920282952 0.11839195440160877 1.0521988264538529 -5.739906030696934 -0.7899377909495148 -0.6523285446105445 -0.36419731178944464 0.36491587562895894 -3.6946719220593827 -50.27968246047146 -20.097976535285053 -2.7936772075534666 -0.13173590015534514 0.025095193997989883 -2.204432789479391 -1.5065328490785141 1.480616871510641 -2.153639932672018 -1.1655872503863733 -0.5252359549151819 0.712501049041748 -0.3066132664680481 0.2202056497335434 -0.14772167801856995 -0.4460678994655609 0.600066065788269 1.1337695121765137 -5.705953598022461 -0.8434244394302368 -0.6564622521400452 -0.28624701499938965 0.48345378041267395 1.0521988264538529 -5.739906030696934 -0.7899377909495148 -0.6523285446105445 -0.36419731178944464 0.36491587562895894 0.1847267426154242 0.6474187028413547 0.46358693312478516 -2.4291538665726655 -0.04043387990660458 -0.004562764033242921 -0.4223535538570169 0.011616677749445834 0.05679940808106359 -0.02721614641377023 -0.04436611729820822 0.0038296983041161137 3.9608844401664878 -2.7428919956483853 -0.5126106460545317 0.11052434070988268 -0.0412856630519076 0.1899190083707003 0.18452577812602963 0.6474454721780303 0.463786298413347 -2.4289132165959786 -0.04072817182873148 -0.004950676990867843 -0.4218034101305419 0.01050731475411049 0.05541344801795341 -0.030523578148104694 -0.03863828776796502 -0.00138985564916283 0 30.9375 32.25 30.6875 34.75 36.9375 37.25 0.811596 7 253 253 253 253 253 253 2 0.038307227194309235 0.6703764796257019 -10.553641319274902 0.9851635003801446 0.7 3.761605002908174 47.654640197753906 47.66986846923828 1.2364916801452637 47.498931884765625 47.427268981933594 47.427268981933594 47.38426971435547 47.32693862915039 47.26960754394531 768 2
7708.598999999999 -2.132244370586047 -1.5377512964578042 1.5029321540969276 -2.1683995303689922 -1.2109276318507334 -0.4640105883053849 0.725352056502134 -0.3133885380785407 0.22649219733026021 -0.14747607686549055 -0.45523250318174996 0.6169431801045945 0.14790121640712028 -0.06390075767259695 0.046182362332322646 -0.030070764897999203 -0.09282311998029535 0.12579635774601083 1.2600903370718488 -5.800735243368511 -0.8007291347193889 -0.6604631147569036 -0.36767038244009176 0.3672777603009268 -1.4081018865029147 -50.84815778810611 -20.29023555053623 -2.8472931656517697 -0.13506770564432255 0.026668612675399793 -2.132663075123922 -1.5376406845501442 1.5028556028949183 -2.168370863000387 -1.210721794758932 -0.4641488234149378 0.7272084951400757 -0.3121018707752228 0.22742576897144318 -0.14745472371578217 -0.45569708943367004 0.6121044158935547 1.2903865575790405 -5.66798210144043 -0.8521597385406494 -0.6338343620300293 -0.24322786927223206 0.503677248954773 1.2600903370718488 -5.800735243368511 -0.8007291347193889 -0.6604631147569036 -0.36767038244009176 0.3672777603009268 0.14260702980384019 0.6469587345326276 0.46945089888490643 -2.4301619793167317 -0.04143015335197655 -0.009739836339972049 -0.4221332957834864 -0.019505774499264085 0.05676425444245612 0.003726678495647955 -0.03785492965631515 -0.005233145566130859 3.697146182604074 -2.9645556225944025 0.2722732393467211 0.13410144874686447 -0.07517396893654356 0.2009323657955929 0.14236200883452174 0.6469690156117047 0.46946527736116206 -2.430191406944181 -0.04170281744236364 -0.009755751528161636 -0.4211438109273877 -0.020144712564454555 0.058181306308170276 0.005953144792274575 -0.03556875857467412 -0.010517019704140151 0 30.9375 32.25 30.6875 34.75 36.9375 37.25 0.802597 7 253 253 253 253 253 253 2 0.0 1.2066776752471924 -10.036493301391602 0.9895145594930264 0.7 3.77242271941292 47.67255783081055 47.67882537841797 1.2745380401611328 47.51326370239258 47.427268981933594 47.44160079956055 47.39860534667969 47.31260681152344 47.28394317626953 768 2
7708.699 -2.0591457579663324 -1.569333570388249 1.5257572984466545 -2.1832616880162057 -1.256804477588866 -0.4018370683896695 0.7330382858376183 -0.3167093753922166 0.22889223322424132 -0.14903881448803472 -0.46005639716406643 0.6234806493607156 0.0 0.0 0.0 0.0 0.0 0.0 1.4100655149656465 -5.807611000871969 -0.8206180320215424 -0.6674796128878894 -0.36948542504645093 0.3650674205067743 0.25715831069638456 -50.89944915580109 -20.558741343810233 -2.895349446629327 -0.13650559930411785 2.4276183450085326e-05 -2.059444252644674 -1.5691800929237907 1.5254152456866663 -2.183193346063131 -1.256550137196676 -0.4019892851458948 0.7306634783744812 -0.31648024916648865 0.23093867301940918 -0.14516626298427582 -0.4640161395072937 0.6213288903236389 1.4242901802062988 -5.5603928565979 -0.6483611464500427 -0.6723203659057617 -0.2759331166744232 0.4889441132545471 1.4100655149656465 -5.807611000871969 -0.8206180320215424 -0.6674796128878894 -0.36948542504645093 0.3650674205067743 0.10065140309137052 0.6434655807423598 0.47552386699715266 -2.4275632913448844 -0.04128696549385145 -0.01431925470040903 -0.41191323631704646 -0.051769784688292284 0.057875875592580756 0.036520761582839796 -0.02843295968479914 -0.0214552286536972 3.642520280344915 -3.6740233905326525 0.3891592869169911 0.12160133027515357 -0.055216612331421805 0.21214620265089357 0.10048230427898727 0.6434097681455426 0.4754082963043499 -2.4277603164344974 -0.04133520351342192 -0.014331149595194272 -0.41398141056677634 -0.050794133310669995 0.06037398627460709 0.04349647283568649 -0.02720636549345934 -0.018305441736276462 0 30.9375 32.25 30.6875 34.75 36.9375 37.25 0.807924 7 253 253 253 253 253 253 2 0.07661445438861847 1.0534486770629883 -9.84495735168457 1.0 0.7 3.7520515405230617 47.66360092163086 47.66718673706055 1.2834866046905518 47.48460006713867 47.41293716430664 47.41293716430664 47.38426971435547 47.298274993896484 47.240943908691406 768 2
7708.799 -1.989202406968836 -1.599552612742829 1.5475972079279314 -2.1974823287595147 -1.3007010743794707 -0.34234723444661164 0.6652277436758773 -0.28741181363046997 0.2077182962943144 -0.13525180907667544 -0.41749835576377975 0.5658048612370515 -0.684169066781759 0.2955954170327235 -0.21363275100927392 0.1391028935221611 0.4293859706864245 -0.581915272736655 1.3404346611897604 -5.645472592895042 -0.8885538925949086 -0.6653998860268785 -0.3545060542093798 0.3392621498942201 -0.019957301804461203 -49.446422826163214 -21.04529783261668 -2.9063715114629534 -0.1317971609794206 -0.12325422089397488 -1.9895785490619105 -1.5992981396117152 1.547626797352926 -2.1973773441710414 -1.3005135695086878 -0.34242421785463506 0.6648202538490295 -0.28937822580337524 0.2058226466178894 -0.13662640750408173 -0.41576075553894043 0.5622926354408264 1.3768486976623535 -5.473939418792725 -0.9258102178573608 -0.7035181522369385 -0.25763994455337524 0.4396997392177582 1.3404346611897604 -5.645472592895042 -0.8885538925949086 -0.6653998860268785 -0.3545060542093798 0.3392621498942201 0.0618125598163348 0.6372745301622234 0.481047960690725 -2.422298858216151 -0.03933702586082115 -0.017596886698554314 -0.3641462673510087 -0.07128509541555234 0.05880140287841319 0.07606685017754132 -0.01655883965411198 -0.018506162485935673 2.534980848478367 -3.6934403324545486 -1.2526979081075045 0.08105102099717192 -0.06985501951945448 0.2613166356281812 0.06159104506068593 0.6372279076598905 0.48123553488643944 -2.4219953229333444 -0.03968522728029232 -0.017802264854423943 -0.36382007809228645 -0.07128465864004582 0.056034454580046925 0.07097242461727729 -0.01312182117229127 -0.02185513993769178 0 30.875 32.25 30.6875 34.75 36.9375 37.1875 0.803208 7 253 253 253 253 253 253 2 0.17238251864910126 0.5171475410461426 -10.304643630981445 1.0 0.7 3.3558538381300984 47.654640197753906 47.649269104003906 1.2118710279464722 47.48460006713867 47.41293716430664 47.427268981933594 47.41293716430664 47.31260681152344 47.25527572631836 768 2
7708.898999999999 -1.926100477935158 -1.626815817020712 1.5673008738023162 -2.2103119951995716 -1.3403039801024157 -0.2886763246865902 0.5968108369977002 -0.25785227192719673 0.18635502119338543 -0.12134151972445899 -0.3745597586951339 0.5076133339633853 -0.6841690667818701 0.2955954170327235 -0.21363275100931556 0.13910289352218191 0.42938597068650775 -0.5819152727367105 1.4509490566810526 -5.625800718679727 -0.9330307283503625 -0.6696928592700229 -0.3370621480345268 0.3289510738507034 1.7749116103622238 -49.398611366024504 -21.253850898048793 -2.9639657845293126 -0.10905874731531874 -0.1232589803823509 -1.92641526857485 -1.6266409359373988 1.5672853628741663 -2.2101952038206996 -1.3400676886187952 -0.2889922300921839 0.5953354835510254 -0.2565121650695801 0.18716154992580414 -0.12375189363956451 -0.3724905252456665 0.512011706829071 1.641895055770874 -5.48281192779541 -0.913593590259552 -0.6366326212882996 -0.2843111753463745 0.4108778238296509 1.4509490566810526 -5.625800718679727 -0.9330307283503625 -0.6696928592700229 -0.3370621480345268 0.3289510738507034 0.027800323440455434 0.6294764396577638 0.48648681529620186 -2.414215771031573 -0.03716821943759388 -0.01959922809724766 -0.3149464311873337 -0.08256620802520064 0.050503516295295134 0.08868245241539334 0.0046389854861448865 -0.026204352002886844 3.6495326188429447 -3.9419622514156805 0.5009062923911933 0.11567784675937022 -0.018090448783984137 0.27156136908540585 0.027643879115584163 0.6294327662332818 0.4865994298963319 -2.414016975947899 -0.0371028288220879 -0.01970322893097814 -0.315542321338218 -0.0833327008195185 0.051172821120112406 0.08806327248277739 0.0004656641494620306 -0.022798536734990715 0 30.875 32.25 30.6875 34.75 36.9375 37.1875 0.812724 7 253 253 253 253 253 253 2 0.363918662071228 0.5554547905921936 -10.017339706420898 1.0 0.7 2.9694740509537283 47.651954650878906 47.6707649230957 1.164876103401184 47.498931884765625 47.427268981933594 47.41293716430664 47.369937896728516 47.32693862915039 47.26960754394531 768 2
7708.999 -1.8698402395692941 -1.6511230671282693 1.5848682121666093 -2.2217506327044063 -1.375613026118499 -0.24082456765393268 0.5283939303195193 -0.2282927302239217 0.1649917460924552 -0.10743123037224175 -0.3316211616264857 0.44942180668971565 -0.6841690667818145 0.29559541703276515 -0.2136327510092878 0.13910289352218191 0.42938597068648 -0.581915272736655 1.5347524876486336 -5.594827572563914 -0.9760353142262937 -0.6734584484198839 -0.31969665763294736 0.313400617335131 3.2596562749258213 -49.239278923211984 -21.44517464840075 -3.0177252393138656 -0.08692555953342733 -0.12326436880687107 -1.8701031843768519 -1.6510774097838343 1.5846450964557093 -2.221682210961813 -1.3754504362689417 -0.2410219351397913 0.5274600982666016 -0.22922560572624207 0.16586539149284363 -0.10854692757129669 -0.3328627347946167 0.4464744031429291 1.672367811203003 -5.401664733886719 -0.8429223895072937 -0.6445912718772888 -0.230403333902359 0.4373207986354828 1.5347524876486336 -5.594827572563914 -0.9760353142262937 -0.6734584484198839 -0.31969665763294736 0.313400617335131 -0.001475822325447304 0.6208302844762327 0.4915597412489063 -2.404649542626732 -0.03393406034657676 -0.02015159752657001 -0.2691968282878864 -0.08855272772632115 0.04615677844008935 0.09704138688070145 0.008832685904943571 -0.021520128889560786 4.653275812551347 -4.253805862640092 0.41827135871664356 0.08847233071083409 -0.05999709346260046 0.2523329484555687 -0.0016075570985129243 0.6207967330227804 0.4914575239008867 -2.404786531187908 -0.033926669314673245 -0.020088281357672547 -0.26995987208976646 -0.08831584980692102 0.045933652578884 0.09624235884037596 0.012009404074962815 -0.02197310975086486 0 30.875 32.25 30.6875 34.75 36.9375 37.1875 0.795925 7 253 253 253 253 253 253 2 0.0 0.4405331015586853 -9.672574996948242 1.0 0.7 2.597354044244839 47.67255783081055 47.6976318359375 1.0954962968826294 47.51326370239258 47.4559326171875 47.47026824951172 47.39860534667969 47.35560607910156 47.28394317626953 768 2
7709.098999999999 -1.8204216918712488 -1.6724743630654988 1.6002992230208088 -2.2317982412740207 -1.4066282124277159 -0.19879196334864258 0.45997702364133825 -0.19873318852064678 0.14362847099152495 -0.09352094102002452 -0.2886825645578373 0.3912302794160461 -0.6841690667817868 0.2955954170327374 -0.21363275100932944 0.1391028935221611 0.42938597068650775 -0.581915272736655 1.5783231830403632 -5.555599868311969 -1.0161611334047886 -0.676204359150503 -0.30245725285666714 0.2970624931663997 4.467103400616567 -48.998423808101165 -21.602724499722225 -3.0640702091082996 -0.06576552142052643 -0.12326989968645923 -1.8207581678973597 -1.672372957269186 1.6003859678851526 -2.231758256951803 -1.4063661734210413 -0.1991332213031214 0.4628992974758148 -0.19769823551177979 0.14434218406677246 -0.09370450675487518 -0.2911389172077179 0.3968087434768677 1.4821603298187256 -5.475522041320801 -1.0685077905654907 -0.6751340627670288 -0.23208406567573547 0.35695236921310425 1.5783231830403632 -5.555599868311969 -1.0161611334047886 -0.676204359150503 -0.30245725285666714 0.2970624931663997 -0.02629824410765247 0.612002244229122 0.4956601518481955 -2.3952948038241044 -0.03056364561821638 -0.019136943847373317 -0.22842525692231452 -0.08724657383673241 0.03930987753987896 0.09495393980789493 0.022835622509154052 -0.022825806124622705 2.82829839117601 -4.001848975648672 0.2836976695555826 0.11051479442907279 -0.03358391292756607 0.3134656762889568 -0.026444960795857512 0.6119643102062046 0.49577647187034035 -2.3951183377066054 -0.030460593238034604 -0.01919751532673394 -0.22727627271162 -0.08745335566049296 0.0404034446214947 0.09698169152646607 0.020563223267414804 -0.0200106375760134 0 30.875 32.25 30.6875 34.75 36.9375 37.1875 0.816192 7 253 253 253 253 253 253 2 0.49799394607543945 0.3064578175544739 -10.055646896362305 1.0 0.7 2.2374556913446826 47.654640197753906 47.6734504699707 1.0238806009292603 47.5275993347168 47.47026824951172 47.47026824951172 47.427268981933594 47.38426971435547 47.298274993896484 768 2
7709.199 -1.777844834841022 -1.6908697048323997 1.6135939063649154 -2.240454820908413 -1.4333495390300692 -0.1625785117707199 0.3915601169631572 -0.16917364681737176 0.12226519589059473 -0.07961065166780724 -0.2457439674891891 0.33303875214237655 -0.6841690667818701 0.2955954170327374 -0.21363275100932944 0.13910289352218191 0.42938597068650775 -0.581915272736655 1.58964972480009 -5.51327591892936 -1.0551641358556596 -0.6783131039400656 -0.28552602395498944 0.2807243845758687 5.4360824401068 -48.72690375449414 -21.74711512038105 -3.105782093395553 -0.046984035578342534 -0.12327530735063282 -1.7781193892108362 -1.6907602749266566 1.6133955160724085 -2.240409036675924 -1.4331954161273401 -0.16281539598573858 0.3940083384513855 -0.17184242606163025 0.12148334085941315 -0.08058017492294312 -0.2462778389453888 0.33713409304618835 1.6397716999053955 -5.0419487953186035 -0.8869703412055969 -0.646058201789856 -0.2509177327156067 0.3262864053249359 1.58964972480009 -5.51327591892936 -1.0551641358556596 -0.6783131039400656 -0.28552602395498944 0.2807243845758687 -0.047021793740569764 0.6035287054224836 0.49958526883387216 -2.3856198551720524 -0.027001384940921167 -0.017451566838958522 -0.18902027872295035 -0.08263072318636383 0.03692509270470757 0.09591995524036315 0.027183436246173226 -0.0182602803334595 3.48862117176705 -3.8834406905917573 0.5030703113107384 0.10390451507621759 -0.05447806348649069 0.29644162719217704 -0.047159270486082615 0.6034643227595664 0.4995310324422166 -2.3856823420120232 -0.02697077088216496 -0.017379961783865475 -0.18748081296207278 -0.081838823365847 0.034657391945038224 0.09168713134615131 0.0256667002963753 -0.017378419477184714 0 30.875 32.25 30.6875 34.75 36.9375 37.1875 0.812244 7 253 253 253 253 253 253 2 0.1149216815829277 0.363918662071228 -9.768342971801758 1.0 0.7 1.887870059965598 47.68240737915039 47.6976318359375 0.9142186641693115 47.5562629699707 47.498931884765625 47.51326370239258 47.47026824951172 47.427268981933594 47.35560607910156 768 2
7709.299 -1.742109668478613 -1.7063090924289739 1.6247522621989292 -2.247720371607583 -1.4557770059255564 -0.1321842129201647 0.3231432102849763 -0.13961410511409675 0.1009019207896645 -0.06570036231559001 -0.20280537042054073 0.27484722486870683 -0.6841690667817868 0.29559541703276515 -0.21363275100932944 0.1391028935221611 0.4293859706865216 -0.5819152727367383 1.5829561026155683 -5.469584243381211 -1.0917458797743766 -0.6794197256890159 -0.26886948557617474 0.2643863355019484 6.19856757670754 -48.44175987540422 -21.863072350403627 -3.140207144792497 -0.030322656534731818 -0.12328024426955145 -1.7422121206866663 -1.7062550983824671 1.6246569792376917 -2.247646471063131 -1.4556854406939905 -0.13236982027162725 0.3222335875034332 -0.1376279890537262 0.10681437700986862 -0.06726102530956268 -0.20261281728744507 0.2783648371696472 1.5676305294036865 -5.4335103034973145 -1.073641061782837 -0.6576587557792664 -0.23090538382530212 0.305331826210022 1.5829561026155683 -5.469584243381211 -1.0917458797743766 -0.6794197256890159 -0.26886948557617474 0.2643863355019484 -0.06399012971223018 0.5957485066747773 0.502715820522705 -2.3770360296367286 -0.0238243681444479 -0.01505442589106881 -0.149849863985498 -0.07200046990736518 0.024249624780760405 0.07540616650877845 0.03089647113781757 -0.01771585039270626 2.563027406008249 -4.36298081783284 -0.1329717698094246 0.106209667686456 -0.04104135813260612 0.32418107010925246 -0.06403153146210723 0.5957225443562763 0.5027028486416921 -2.377014775140807 -0.023684697261875266 -0.015031166283645822 -0.15039324458468997 -0.07244037351463672 0.02875785222936842 0.08163869535419728 0.027252301928998468 -0.014404996798678571 0 30.875 32.25 30.6875 34.75 36.9375 37.1875 0.828613 7 253 253 253 253 253 253 2 0.38307225704193115 0.2298433631658554 -9.883264541625977 1.0 0.7 1.5468129916341582 47.700321197509766 47.71464920043945 0.9164597988128662 47.584930419921875 47.5275993347168 47.5275993347168 47.48460006713867 47.44160079956055 47.32693862915039 768 2
7709.398999999999 -1.7132161927840235 -1.7187925258552212 1.6337742905228494 -2.253594893371531 -1.473910613114179 -0.10760906679697602 0.2547263036067952 -0.1100545634108218 0.07953864568873428 -0.051790072963372735 -0.1598667733518925 0.21665569759503725 -0.6841690667817868 0.2955954170327374 -0.21363275100932944 0.13910289352217844 0.4293859706865216 -0.5819152727366689 1.559867901862106 -5.427336893216347 -1.125976951678427 -0.6795192532121486 -0.25262632349531106 0.24804837500149873 6.773748279088479 -48.170770509005074 -21.951410668246748 -3.1673092158457856 -0.01685178399465609 -0.1232844806186554 -1.7133100668536585 -1.7187038860716761 1.6339667479144495 -2.2535559139647425 -1.4737890402423304 -0.10785085359682256 0.25607386231422424 -0.11072318255901337 0.07697023451328278 -0.051948800683021545 -0.16228456795215607 0.2226359248161316 1.4269933700561523 -5.168217658996582 -1.1216702461242676 -0.7006456255912781 -0.19951584935188293 0.2788025736808777 1.559867901862106 -5.427336893216347 -1.125976951678427 -0.6795192532121486 -0.25262632349531106 0.24804837500149873 -0.07729115785630747 0.5890941256853565 0.5050985196723303 -2.369837355351273 -0.021005920035296825 -0.012507105993048991 -0.11590443988905884 -0.060247984172830726 0.02476682363300102 0.0710915745594688 0.027432379872044083 -0.01592877498497966 3.3991536117601244 -4.758992781849676 -0.3884444681088288 0.09659810675480761 -0.045750270027074325 0.2937465396052564 -0.0773179089029567 0.5890739212746938 0.5052791445945095 -2.3695328153260355 -0.020791328935117072 -0.012544808143195186 -0.11570208768063797 -0.06010822542406118 0.02275415575507897 0.06796354972348305 0.025559163841921362 -0.011304759196631348 0 30.875 32.1875 30.6875 34.75 36.9375 37.1875 0.81642 7 253 253 253 253 253 253 2 0.24899697303771973 0.0 -9.921571731567383 1.0 0.7 1.2126152501517393 47.69673538208008 47.71733474731445 0.8448441624641418 47.61359786987305 47.5275993347168 47.5562629699707 47.54193115234375 47.4559326171875 47.39860534667969 768 2
7709.499 -1.6911644077572516 -1.72832000511114 1.640659991336677 -2.258078386200258 -1.4877503605959372 -0.08885307340115478 0.18630939692861428 -0.0804950217075468 0.05817537058780406 -0.037879783611155494 -0.1169281762832443 0.1584641703213677 -0.6841690667817035 0.29559541703273046 -0.21363275100932944 0.13910289352218191 0.4293859706864314 -0.5819152727366689 1.522984962053616 -5.390208754842268 -1.158925156612781 -0.6789127893107205 -0.2367917541071611 0.2317105155593779 7.191655724273023 -47.95028965091607 -22.02467525711462 -3.189277744086188 -0.006534497303266273 -0.12328791764924696 -1.69127065340151 -1.7282473049559535 1.6405342260943812 -2.258099218408102 -1.4876955191241663 -0.08887178102602178 0.18937011063098907 -0.08243003487586975 0.05789942666888237 -0.038655150681734085 -0.1160123273730278 0.15384134650230408 1.5353633165359497 -5.090848445892334 -1.0449955463409424 -0.6596735119819641 -0.2018910050392151 0.3151690363883972 1.522984962053616 -5.390208754842268 -1.158925156612781 -0.6789127893107205 -0.2367917541071611 0.2317105155593779 -0.08718557319057425 0.5838202441363292 0.5072958430874915 -2.3634734648365323 -0.018368612587588335 -0.010283381953734743 -0.08509356421344078 -0.0463940638126264 0.01816392816514293 0.05465144053101857 0.018117617702846228 -0.0011997917283674553 3.182520433367556 -4.320845187274999 -0.013641924392158167 0.12505227340739747 -0.06483621442308332 0.2970952006343882 -0.08723823141044372 0.5837737361147074 0.5072514592448137 -2.3635501297819856 -0.01844180306068434 -0.010276716110817206 -0.08299703236250304 -0.04558806727167893 0.016683493178676994 0.051633916220944424 0.021057212586395285 -0.0082010498548679 0 30.8125 32.1875 30.6875 34.75 36.9375 37.1875 0.82302 7 253 253 253 253 253 253 2 0.17238251864910126 0.15322890877723694 -9.672574996948242 1.0 0.7 0.8837083125492436 47.70927429199219 47.72629165649414 0.7642692923545837 47.61359786987305 47.54193115234375 47.54193115234375 47.54193115234375 47.4559326171875 47.427268981933594 768 2
7709.598999999999 -1.6759543133982984 -1.7348915301967311 1.6454093646404109 -2.2611708500937624 -1.4972962483708292 -0.07591623273270098 0.11789249025043307 -0.05093548000427178 0.036812095486873836 -0.02396949425893826 -0.07398957921459592 0.10027264304769798 -0.6841690667818562 0.2955954170327721 -0.21363275100929127 0.1391028935221611 0.42938597068650775 -0.5819152727367451 1.4738553215629604 -5.358649853680658 -1.1900298428752507 -0.6773595426210267 -0.22131691809089094 0.21537278138585778 7.4701710300664415 -47.78481816678952 -22.07626742662242 -3.204361840293874 0.001006307842832177 -0.12329036387074183 -1.6760700384723108 -1.7348858318724574 1.6452425161944788 -2.261200567285055 -1.497190300618307 -0.07608491579164678 0.11695665121078491 -0.0516253337264061 0.039164673537015915 -0.023636771366000175 -0.0751039981842041 0.10339848697185516 1.506935715675354 -5.140707492828369 -1.126162052154541 -0.6807774901390076 -0.19713464379310608 0.2552332878112793 1.4738553215629604 -5.358649853680658 -1.1900298428752507 -0.6773595426210267 -0.22131691809089094 0.21537278138585778 -0.09392514773320118 0.5800365657003359 0.5087259163071697 -2.3590942409514266 -0.016872663547222513 -0.008557378494056907 -0.0510260887091712 -0.02990594113970556 0.009372266486023904 0.03142741723278684 0.0160249658732676 -0.009083920971917334 3.1752241212496783 -4.719260725243295 -0.06995206484163718 0.10201483013315653 -0.06272239820851364 0.29601576604960256 -0.09396750742637487 0.5800072039564909 0.5086145125201725 -2.3592912001288777 -0.016750350671049685 -0.008519186227709608 -0.05179612505046662 -0.029538823605494 0.010572638466135827 0.033483149956912706 0.014382660709766112 -0.005147665428312881 0 30.8125 32.1875 30.6875 34.8125 36.9375 37.1875 0.747997 7 253 253 253 253 253 253 2 0.3064578175544739 0.05746084079146385 -9.672574996948242 1.0 0.7 0.5586067260617117 47.73255920410156 47.7585334777832 0.7105615139007568 47.64226531982422 47.5562629699707 47.570594787597656 47.5562629699707 47.48460006713867 47.427268981933594 768 2
7709.699 -1.6675859097071646 -1.7385071011119946 1.6480224104340517 -2.2628722850520457 -1.5025482764388567 -0.06879854479161462 0.049475583572252145 -0.021375938300996843 0.015448820385943618 -0.010059204906720985 -0.0310509821459477 0.04208111577402842 -0.6841690667818596 0.2955954170327339 -0.2136327510092904 0.13910289352218105 0.42938597068643664 -0.5819152727366654 1.4133384543351961 -5.333914257361814 -1.2187449300636204 -0.6747655382331237 -0.20630843329611684 0.19903518575816245 7.619229934936264 -47.68680171551658 -22.099759550950864 -3.2118781757388515 0.004947737280912856 -0.1232917142672431 -1.6676471869098108 -1.7384606800475062 1.6480062643634241 -2.2628637752928675 -1.5025108496295374 -0.06879216829408819 0.050984520465135574 -0.02162341959774494 0.01561944093555212 -0.010987026616930962 -0.03251199796795845 0.04142802953720093 1.362710952758789 -5.161633491516113 -1.0798168182373047 -0.6993621587753296 -0.16559822857379913 0.21979181468486786 1.4133384543351961 -5.333914257361814 -1.2187449300636204 -0.6747655382331237 -0.20630843329611684 0.19903518575816245 -0.0976022813412393 0.57791974875271 0.5093475522916289 -2.356940038435377 -0.015732033235772474 -0.007461691087328786 -0.02207895352471816 -0.012712755143958096 0.00468661879106517 0.015152470946178226 0.004694245915260263 -0.001202786477801726 2.9056149489658907 -4.512399997006344 -0.46035266512260486 0.1106840628140091 -0.066154598753038 0.29886789316424 -0.09762993505425951 0.5778971220319851 0.5093652764492822 -2.3569031138247625 -0.01579515575746587 -0.007483553364268588 -0.02156860946480194 -0.012553635485588771 0.004440291326478954 0.014234453202496685 0.006284046815781732 -0.00214886615527898 0 30.8125 32.1875 30.6875 34.8125 36.9375 37.1875 0.7602 7 253 253 253 253 253 253 2 0.15322890877723694 -0.019153613597154617 -9.90241813659668 1.0 0.7 0.23588785159296588 47.72987747192383 47.756744384765625 0.6456586718559265 47.65659713745117 47.584930419921875 47.599266052246094 47.5562629699707 47.5275993347168 47.427268981933594 768 2
7709.799 -1.6657969999999995 -1.73928 1.6485809999999999 -2.263236 -1.5036709999999998 -0.06727699999999981 0.0 0.0 0.0 0.0 0.0 0.0 0.0 0.0 0.0 0.0 0.0 0.0 0.8523011277286904 -4.616156135835878 -1.9196005431819172 -0.4494954319063124 8.733973093127845e-06 0.0 9.792219275841129 -49.176588397696875 -21.821037735142657 -3.2684590260064255 6.741024604811395e-05 0.0 -1.6659134070025843 -1.739147802392477 1.6484201590167444 -2.2631122074522914 -1.5036023298846644 -0.06735641161073858 -0.000317210826324299 0.0013870333787053823 -0.0003825572784990072 -0.000861791311763227 -8.327418618137017e-05 -0.0001887683174572885 1.0617167949676514 -4.674088001251221 -1.5156056880950928 -0.6836758255958557 -0.10073892772197723 0.09042682498693466 0.8523011277286904 -4.616156135835878 -1.9196005431819172 -0.4494954319063124 8.733973093127845e-06 0.0 -0.09835471779134805 0.5774987336106109 0.5095236038197466 -2.356479781957059 -0.015574347293413955 -0.007260284961875906 0.0002591554219390495 0.0006287522239008412 -0.0003290393100954252 -0.0001462521186722994 -0.0001744409959067687 -0.00023707982157023753 3.664288461202652 -4.030489003388941 -0.7510739838980331 0.09747795284480099 -0.07452886122157931 0.25907067554833085 -0.09840914659740613 0.5774426115021309 0.5095258382166512 -2.3563885441095627 -0.015588705836319246 -0.0072557728748750445 0.0 0.0 0.0 0.0 0.0 0.0 0 30.8125 32.1875 30.6875 34.75 36.9375 37.25 0.571848 7 253 253 253 253 253 253 2 -0.15322890877723694 0.13407529890537262 -10.055646896362305 0.0 0.7 0.0 47.74778747558594 47.7639045715332 0.5941867828369141 47.670928955078125 47.61359786987305 47.6279296875 47.584930419921875 47.5562629699707 47.498931884765625 768 1
