sagilar/Flex-cell_RoboSim/tests/outputs_UR3e_CoppeliaSim.csv
time,{dmodel}.dmodel.state,{dmodel}.dmodel.d_model_event,{dmodel}.dmodel.d_model_event_args_0,{dmodel}.dmodel.d_model_event_args_1,{dmodel}.dmodel.d_model_event_args_2,{dmodel}.dmodel.d_model_event_args_3,{mapping}.mapping.controller_event,{mapping}.mapping.j0,{mapping}.mapping.j1,{mapping}.mapping.j2,{mapping}.mapping.j3,{mapping}.mapping.j4,{mapping}.mapping.j5,{mapping}.mapping.qd0,{mapping}.mapping.qd1,{mapping}.mapping.qd2,{mapping}.mapping.qd3,{mapping}.mapping.qd4,{mapping}.mapping.qd5,{mapping}.mapping.qdd0,{mapping}.mapping.qdd1,{mapping}.mapping.qdd2,{mapping}.mapping.qdd3,{mapping}.mapping.qdd4,{mapping}.mapping.qdd5,{mapping}.mapping.t0,{mapping}.mapping.t1,{mapping}.mapping.t2,{mapping}.mapping.t3,{mapping}.mapping.t4,{mapping}.mapping.t5,{mapping}.mapping.d_model_event,{mapping}.mapping.output_event,{mapping}.mapping.output_event_args_0,{mapping}.mapping.output_event_args_1,{mapping}.mapping.output_event_args_2,{mapping}.mapping.platform_event_0,{mapping}.mapping.platform_event_1,{mapping}.mapping.platform_event_2,{mapping}.mapping.platform_event_3,{mapping}.mapping.platform_event_4,{mapping}.mapping.platform_event_5,{mapping}.mapping.platform_event_6,{mapping}.mapping.platform_event_7,{mapping}.mapping.platform_event_8,{mapping}.mapping.platform_event_9,{controller}.controller.controller_event,{controller}.controller.controller_event_args_0,{controller}.controller.controller_event_args_1,{controller}.controller.controller_event_args_2
0.0,Idle,,0.0,0.0,0.0,0.0,,0.0,0.0,0.0,0.0,0.0,0.0,0.0,0.0,0.0,0.0,0.0,0.0,0.0,0.0,0.0,0.0,0.0,0.0,0.0,0.0,0.0,0.0,0.0,0.0,,,0.0,0.0,0.0,false,false,false,false,false,false,false,false,false,false,,0.0,0.0,0.0
0.5,Idle,,0.0,0.0,0.0,0.0,,-0.07674651199062632,-0.07810856946430045,0.07853737173991249,-0.07853649586631706,-0.0785376085714864,0.07853749349677885,-1.5707483472551695,-1.570746394825929,1.570754634118111,-1.5707424319630912,-1.5707549499546234,1.570749922074378,0.0,0.0,0.0,0.0,0.0,0.0,151.68278259514275,124.8221424661245,71.4564055554666,62.78970402190765,0.028999574229039836,-0.24347335304436188,,,0.0,0.0,0.0,false,false,false,false,false,true,false,false,false,false,,0.0,0.0,0.0
1.0,Idle,,0.0,0.0,0.0,0.0,,-0.6265081311709739,-0.706408894971136,0.7068405311693557,-0.7068354186693249,-0.706841236160499,0.7068389949619664,-1.570746656112386,-1.5707522320928633,1.5707580703433686,-1.5707497486616249,-1.5707615643299797,1.570761254894658,0.0,0.0,0.0,0.0,0.0,0.0,6.027875079266328,13.86589711627767,2.002339790476252,-2.801179598663087,0.4373968120174328,-4.124382777456715,,,0.0,0.0,0.0,false,false,false,false,false,true,false,false,false,false,,0.0,0.0,0.0
1.5,Idle,,0.0,0.0,0.0,0.0,,-1.176269491355292,-1.177634871818391,1.1780679522724649,-1.1780606305816193,-1.1780700644379474,1.1780680676030348,-1.570747017719397,-1.5707541834940373,1.5707580703466548,-1.5707520427357111,-1.5707648195897748,1.570766282609347,0.0,0.0,0.0,0.0,0.0,0.0,5.049085074235299,10.423143958106639,1.753880024530329,-2.9696652628299693,1.501397317011427,-3.9280678098876,,,0.0,0.0,0.0,false,false,false,false,false,true,false,false,false,false,moveDiscreteCommand,0.0,1.0,2.0
2.0,Idle,,0.0,0.0,0.0,0.0,moveDiscreteCommand,-1.5923920220363774,-1.6153386772954077,1.6492951543622079,-1.649289282574875,-1.561243644070755,1.6492972428413593,-0.3615451056488161,-0.5372782701995263,1.5707514618354403,-1.5707814305314096,-0.0740180248786986,1.5707302828913308,0.0,0.0,0.0,0.0,0.0,0.0,-21.012079040636753,-28.214369757208054,-23.66689677576148,-20.68981735364846,-6.4020347779455165,-0.12449428295137147,,moveDiscreteCommand,0.0,1.0,2.0,true,false,false,false,false,true,false,false,false,false,,0.0,0.0,0.0
2.5,ArmMove,movediscrete,0.0,1.0,2.0,0.0,,-1.6085756731304306,-1.6393901787077505,1.8720009679566738,-1.8050376962409018,-1.5707791278563832,2.120494781271737,-6.73068096901389E-4,-9.386928104149406E-4,0.022584988110275133,-0.008909767855769435,-3.697132516578073E-4,1.5705646215110727,0.0,0.0,0.0,0.0,0.0,0.0,-0.19028275751888596,10.906491922634853,7.386341931339518,1.6066848237250404,0.004008395501860676,-8.748028228491197,,,0.0,0.0,0.0,false,false,false,false,false,true,false,true,false,false,,0.0,0.0,0.0
3.0,ArmMove,movediscrete,0.0,1.0,2.0,0.0,,-1.6086607394395687,-1.6395150249274932,1.8749157580558684,-1.806196623971024,-1.5707963416130282,3.1037273461928274,0.03703475234626631,0.6896813014558281,-0.24990109742600275,7.298927087617969E-4,-1.2002683291712203E-7,1.9405711384479633E-4,0.0,0.0,0.0,0.0,0.0,0.0,-0.531252875804053,10.675278063270499,5.027243610562495,0.18102956698502334,6.2785508541696E-5,-0.4135253555621605,movediscrete,,0.0,0.0,0.0,false,false,false,true,true,true,false,false,false,false,,0.0,0.0,0.0
3.5,ArmStop,stop,0.0,1.0,2.0,0.0,,-1.603873148366385,-1.4731674203420022,1.705747697999314,-1.8033752301581645,-1.5707963401082568,3.1085158404118642,1.8412723790107003E-6,1.4099165390746593E-5,1.7763568394002883E-13,2.3203376287029227E-5,2.3266721882464977E-9,2.600729409607594E-6,0.0,0.0,0.0,0.0,0.0,0.0,1.4353340579664575,10.54526302910087,5.0266394140364685,0.1602573789475764,8.724805884016107E-5,-0.41019049192760876,movediscrete,,0.0,0.0,0.0,false,false,false,true,true,true,false,false,false,false,,0.0,0.0,0.0
4.0,ArmStop,stop,0.0,1.0,2.0,0.0,,-1.6038731687210435,-1.4731667382242923,1.705747697999314,-1.8033754893867018,-1.5707963406514338,3.1085158495560323,9.159785818724426E-7,3.920704241267087E-5,1.7763568394002883E-13,6.885071073270556E-5,-1.0124168170478003E-8,3.074308985162654E-6,0.0,0.0,0.0,0.0,0.0,0.0,0.36762050772200916,10.539863068107172,5.027165388120557,0.17103538029386686,1.1666536632696966E-4,-0.40952294118625865,stop,,0.0,0.0,0.0,false,false,false,true,true,true,false,false,false,false,,0.0,0.0,0.0
4.5,ArmStop,stop,0.0,1.0,2.0,0.0,,-1.6038731365235597,-1.4731660946992298,1.705747697999314,-1.8033762746553919,-1.5707963406336516,3.10851581407623,-7.291223624861387E-7,7.255208753775987E-5,0.0,1.0807107972965699E-4,1.7532109097829026E-8,-1.7402138396957533E-6,0.0,0.0,0.0,0.0,0.0,0.0,-0.48873783265027326,10.544770642784773,5.038460173013286,0.17693574879371254,6.18201540543721E-5,-0.4287585751920046,stop,,0.0,0.0,0.0,false,false,false,true,true,true,false,false,false,false,,0.0,0.0,0.0
5.0,ArmStop,stop,0.0,1.0,2.0,0.0,,-1.6038731248249514,-1.4731658655988404,1.705747697999315,-1.8033741594228685,-1.5707963433869496,3.108515928019229,-1.5093778671368824E-6,-3.588301638046126E-5,-1.7763568393999728E-13,-7.390529415117708E-5,4.068194670025424E-8,-3.3761484274913708E-6,0.0,0.0,0.0,0.0,0.0,0.0,0.6731356510133091,10.529486626714654,5.033642800467294,0.17830906187042483,9.60901247097876E-5,-0.3932195830631041,stop,,0.0,0.0,0.0,false,false,false,true,true,true,false,false,false,false,,0.0,0.0,0.0
5.5,ArmStop,stop,0.0,1.0,2.0,0.0,,-1.603873119814474,-1.4731673081434398,1.7057476979993131,-1.8033766937599474,-1.5707963393831754,3.1085158175215426,2.761877837542238E-7,4.575540142325702E-5,0.0,8.690714903279747E-5,-4.72978101129155E-8,3.7867671665020216E-6,0.0,0.0,0.0,0.0,0.0,0.0,0.22018669903076363,10.522318258146226,5.0242964886540795,0.16658956584944246,1.3253370003399556E-4,-0.38624164127521377,stop,,0.0,0.0,0.0,false,false,false,true,true,true,false,false,false,false,,0.0,0.0,0.0
6.0,ArmStop,stop,0.0,1.0,2.0,0.0,,-1.6038730790154698,-1.4731672074401256,1.705747697999314,-1.8033773753682318,-1.5707963379348477,3.108515878777551,-2.9625368824776985E-8,-8.512244598078758E-6,1.7763568393999728E-13,-1.440992491552381E-4,-2.7917224088009972E-8,2.4568038270441117E-6,0.0,0.0,0.0,0.0,0.0,0.0,-0.384699577401607,10.516308366130323,5.0244334278538885,0.1728014373977851,7.064616189676063E-5,-0.4126848648054384,stop,,0.0,0.0,0.0,false,false,false,true,true,true,false,false,false,false,moveDiscreteCommand,3.0,2.0,3.0
6.5,ArmStop,stop,0.0,1.0,2.0,0.0,moveDiscreteCommand,-1.603873124760983,-1.473166640390188,1.705747697999314,-1.8033731497947914,-1.5707963386239125,3.1085158210576926,-7.994204409554756E-7,-3.448617054146468E-5,0.0,9.93255664383086E-6,-7.50370432456176E-8,2.3175566354890196E-6,0.0,0.0,0.0,0.0,0.0,0.0,-0.5186438162907111,10.516037460122437,5.040994322078423,0.169740058785555,9.816867393975955E-5,-0.4248577838738104,stop,moveDiscreteCommand,3.0,2.0,3.0,true,false,false,true,true,true,false,false,false,false,,0.0,0.0,0.0
7.0,ArmMove,movediscrete,3.0,2.0,3.0,0.0,,-1.6038731545455907,-1.4731663885837563,1.7057476979993131,-1.8033751185960263,-1.570796340733068,3.1085158273939717,2.0461854433048286E-8,-2.0294338298750984E-5,0.0,1.8103486176809737E-5,2.8627056281034203E-8,-3.6714581597146835E-6,0.0,0.0,0.0,0.0,0.0,0.0,0.20874426665607793,10.521871285359506,5.023354335338767,0.1654219416314814,1.3609987393295472E-4,-0.42612398842303234,stop,,0.0,0.0,0.0,false,false,false,true,true,true,false,true,false,false,,0.0,0.0,0.0
7.5,ArmMove,movediscrete,3.0,2.0,3.0,0.0,,-1.9364050730204996,-1.4157314648871973,1.4517763646483735,-1.6060906925533844,-1.5707963470314237,2.7842133989921978,-0.00160162873150714,8.563927131889953E-5,-0.004201518383518402,0.0053996248018617,2.0264637967674783E-6,-0.2896411557986277,0.0,0.0,0.0,0.0,0.0,0.0,11.00757020267839,11.307507029350353,5.178734376659508,0.3450442594816469,-0.005703726512723008,-3.8564907497797485,movediscrete,,0.0,0.0,0.0,false,false,false,true,true,true,false,false,false,false,,0.0,0.0,0.0
8.0,ArmStop,stop,3.0,2.0,3.0,0.0,,-1.9412016075245493,-1.4156274821628942,1.450221227862511,-1.605389482516272,-1.570796342964183,2.7711793244925955,-6.021849685568047E-11,6.631601934260699E-8,-8.526512829122899E-12,-2.9540814239232043E-10,4.6185277824415705E-12,-7.140954494390427E-11,0.0,0.0,0.0,0.0,0.0,0.0,0.012761741305532278,11.286795780322326,5.16556325400481,0.17898276336616378,9.883394397234997E-5,-1.6095672747962104,movediscrete,,0.0,0.0,0.0,false,false,false,true,true,true,false,false,false,false,,0.0,0.0,0.0
8.5,ArmStop,stop,3.0,2.0,3.0,0.0,,-1.9412016075225917,-1.415627484139283,1.4502212278614142,-1.6053894825543287,-1.5707963429624723,2.7711793244661456,2.696509682210117E-10,-6.40746122826513E-8,0.0,-1.1013412404283744E-11,0.0,0.0,0.0,0.0,0.0,0.0,0.0,0.0,0.0108764845889865,11.2867913510959,5.165561730273749,0.17898158411320025,9.883404503545855E-5,-1.609567272283027,stop,,0.0,0.0,0.0,false,false,false,true,true,true,false,false,false,false,moveDiscreteCommand,5.0,5.0,2.0
9.0,ArmStop,stop,3.0,2.0,3.0,0.0,moveDiscreteCommand,-1.941201607510573,-1.4156274848158121,1.4502212278614142,-1.605389482554319,-1.5707963429624723,2.7711793244661456,-1.524114168205718E-10,8.222293956807151E-8,0.0,4.263256414561449E-12,0.0,0.0,0.0,0.0,0.0,0.0,0.0,0.0,0.018361205738266235,11.28679568891184,5.1655617735805475,0.1789816135091534,9.883394111813325E-5,-1.6095672742895206,stop,moveDiscreteCommand,5.0,5.0,2.0,true,false,false,true,true,true,false,false,false,false,,0.0,0.0,0.0
9.5,ArmMove,movediscrete,5.0,5.0,2.0,0.0,,-1.9412016075087601,-1.415627486296513,1.4502212278614133,-1.6053894825543775,-1.5707963429624723,2.7711793244661456,-4.9027448767456665E-11,-1.3302923207450395E-7,0.0,1.0302869668523503E-11,-1.776356839400604E-13,0.0,0.0,0.0,0.0,0.0,0.0,0.0,0.020215400003718055,11.286792675371359,5.165562736796742,0.1789823106115101,9.883397185348334E-5,-1.6095672739447409,stop,,0.0,0.0,0.0,false,false,false,true,true,true,false,true,false,false,,0.0,0.0,0.0
10.0,ArmMove,movediscrete,5.0,5.0,2.0,0.0,,-1.98340928142723,-1.2601730160620885,1.2146087280302256,-1.476664393011168,-1.5707963388032757,2.705506808528752,-9.823028896955269E-4,0.6143314338791638,-1.217540255803139,8.571874516856204E-5,-5.279776615904693E-8,-4.639992035035803E-6,0.0,0.0,0.0,0.0,0.0,0.0,0.00477710378659209,15.624045920914408,4.868198650175851,0.10235078321790621,1.0686441857394878E-4,-6.541465492473279,movediscrete,,0.0,0.0,0.0,false,false,false,true,true,true,false,false,false,false,,0.0,0.0,0.0
10.5,ArmStop,stop,5.0,5.0,2.0,0.0,,-2.0069920132721775,-0.7882695980026795,0.6917881715646952,-1.4743117971986575,-1.570796341366668,2.7053885614644555,-4.394642871827753E-7,-3.393065588495543E-5,-8.881784196996708E-14,-1.48880191197444E-4,1.9438139986495175E-8,-3.6227287836236084E-7,0.0,0.0,0.0,0.0,0.0,0.0,-0.009302563454705867,16.390267423768442,5.151756158007875,0.18625247930349167,1.1524304504478982E-4,-6.7978966575564765,movediscrete,,0.0,0.0,0.0,false,false,false,true,true,true,false,false,false,false,,0.0,0.0,0.0
11.0,ArmStop,stop,5.0,5.0,2.0,0.0,,-2.006991967148018,-0.7882692597490886,0.6917881715646965,-1.4743091266570243,-1.570796343379202,2.70538855881322,-2.2114754472102105E-7,-2.2259336596152916E-5,0.0,1.4100600846937432E-4,-1.2051035724874256E-7,-3.465242315312981E-7,0.0,0.0,0.0,0.0,0.0,0.0,0.09796260400301707,16.378466756818018,5.146142179695818,0.18667084157705358,1.1028922536804062E-4,-7.315315505705287,stop,,0.0,0.0,0.0,false,false,false,true,true,true,false,false,false,false,,0.0,0.0,0.0
11.5,ArmStop,stop,5.0,5.0,2.0,0.0,,-2.0069920184057617,-0.7882703182450426,0.6917881715646961,-1.4743104533321825,-1.5707963404676386,2.705388552047192,7.699897608400233E-7,-3.205016270156372E-5,0.0,1.5598921407892E-4,6.039613253957762E-12,-3.4097649148617E-7,0.0,0.0,0.0,0.0,0.0,0.0,-0.23597310139803232,16.385964317064616,5.144420950636053,0.18642632196720924,8.917746053012112E-5,-7.300584441899471,stop,,0.0,0.0,0.0,false,false,false,true,true,true,false,false,false,false,,0.0,0.0,0.0
12.0,ArmStop,stop,5.0,5.0,2.0,0.0,,-2.0069920416718405,-0.7882696977886887,0.6917881715646952,-1.4743108190770924,-1.5707963424718239,2.705388559054259,2.676969756974808E-7,-3.214956389994715E-5,0.0,1.514941171620101E-4,1.0550511575496844E-7,-4.4156660550220443E-7,0.0,0.0,0.0,0.0,0.0,0.0,0.9070218626585467,16.370500934435686,5.147030030630075,0.1820732228397616,1.1608182776962803E-4,-6.644877405717649,stop,,0.0,0.0,0.0,false,false,false,true,true,true,false,false,false,false,,0.0,0.0,0.0
12.5,ArmStop,stop,5.0,5.0,2.0,0.0,,-2.0069919247990464,-0.7882695060222638,0.6917881715646952,-1.474311104854868,-1.570796342759091,2.7053885662720676,3.0365043812692347E-9,3.326671862423044E-5,0.0,-1.2315025372793638E-4,4.1644554471510284E-8,-5.516760381848959E-7,0.0,0.0,0.0,0.0,0.0,0.0,0.05480809304261759,16.392880303688777,5.140233988491493,0.1671245114330308,7.428667125818788E-5,-7.633186417182751,stop,,0.0,0.0,0.0,false,false,false,true,true,true,false,false,false,false,,0.0,0.0,0.0
13.0,ArmStop,stop,5.0,5.0,2.0,0.0,,-2.006992009101846,-0.7882695231375596,0.6917881715646965,-1.4743109135291137,-1.5707963418253668,2.705388558378874,-6.397975482738185E-8,3.502237779782631E-5,0.0,9.250271055800382E-5,6.686278197772698E-8,4.505096740101604E-7,0.0,0.0,0.0,0.0,0.0,0.0,-0.0560819233413701,16.39365005343267,5.145513490630721,0.16860166522061915,7.63322721516462E-5,-7.157186599043929,stop,,0.0,0.0,0.0,false,false,false,true,true,true,false,false,false,false,moveDiscreteCommand,4.0,1.0,1.0
13.5,ArmStop,stop,5.0,5.0,2.0,0.0,moveDiscreteCommand,-2.006991936249027,-0.7882699148125738,0.6917881715646956,-1.474311811033691,-1.570796341304196,2.7053885534255695,-7.905928356417965E-7,-5.5297805356929206E-5,-8.881784196996708E-14,-1.3291224725257982E-4,1.0455956100935617E-7,-3.746382759571036E-7,0.0,0.0,0.0,0.0,0.0,0.0,0.27483235244470705,16.372996342921986,5.134465426558929,0.1690742124536253,7.86126116642361E-5,-6.393402615323998,stop,moveDiscreteCommand,4.0,1.0,1.0,true,false,false,true,true,true,false,false,false,false,,0.0,0.0,0.0
14.0,ArmMove,movediscrete,4.0,1.0,1.0,0.0,,-2.0069919414617923,-0.7882696833704212,0.6917881715646956,-1.4743110133810768,-1.570796343274866,2.7053885546059684,-1.354543321951258E-6,-4.4056321879515025E-5,-8.881784196996708E-14,1.698383034209014E-5,-7.028919668524437E-8,3.7744491976335454E-7,0.0,0.0,0.0,0.0,0.0,0.0,-0.4205844479841888,16.385359267228672,5.145701444478421,0.17908313467462217,1.0942268317646882E-4,-6.878678478486451,stop,,0.0,0.0,0.0,false,false,false,true,true,true,false,true,false,false,,0.0,0.0,0.0
14.5,ArmMove,movediscrete,4.0,1.0,1.0,0.0,,-2.0699937285653416,-0.9436055082876322,0.9274007188640736,-1.7884492471316813,-1.5707959629282309,2.602036158877614,-0.0016381195328199428,-1.570736913331401,1.5707499980924091,-0.019991811171838667,7.115737332693241E-7,-3.429669384045675E-5,0.0,0.0,0.0,0.0,0.0,0.0,0.253234049266309,11.157167178875003,12.782361208004781,60.77138159485912,0.008236571638276218,-6.602923948700003,movediscrete,,0.0,0.0,0.0,false,false,false,true,true,true,false,false,false,false,,0.0,0.0,0.0
