sagilar/Flex-cell_RoboSim/tests/ur5e_flexcell_rmq_20s.csv
timestamp target_q_0 target_q_1 target_q_2 target_q_3 target_q_4 target_q_5 target_qd_0 target_qd_1 target_qd_2 target_qd_3 target_qd_4 target_qd_5 target_qdd_0 target_qdd_1 target_qdd_2 target_qdd_3 target_qdd_4 target_qdd_5 target_current_0 target_current_1 target_current_2 target_current_3 target_current_4 target_current_5 target_moment_0 target_moment_1 target_moment_2 target_moment_3 target_moment_4 target_moment_5 actual_q_0 actual_q_1 actual_q_2 actual_q_3 actual_q_4 actual_q_5 actual_qd_0 actual_qd_1 actual_qd_2 actual_qd_3 actual_qd_4 actual_qd_5 actual_current_0 actual_current_1 actual_current_2 actual_current_3 actual_current_4 actual_current_5 joint_control_output_0 joint_control_output_1 joint_control_output_2 joint_control_output_3 joint_control_output_4 joint_control_output_5 actual_TCP_pose_0 actual_TCP_pose_1 actual_TCP_pose_2 actual_TCP_pose_3 actual_TCP_pose_4 actual_TCP_pose_5 actual_TCP_speed_0 actual_TCP_speed_1 actual_TCP_speed_2 actual_TCP_speed_3 actual_TCP_speed_4 actual_TCP_speed_5 actual_TCP_force_0 actual_TCP_force_1 actual_TCP_force_2 actual_TCP_force_3 actual_TCP_force_4 actual_TCP_force_5 target_TCP_pose_0 target_TCP_pose_1 target_TCP_pose_2 target_TCP_pose_3 target_TCP_pose_4 target_TCP_pose_5 target_TCP_speed_0 target_TCP_speed_1 target_TCP_speed_2 target_TCP_speed_3 target_TCP_speed_4 target_TCP_speed_5 actual_digital_input_bits joint_temperatures_0 joint_temperatures_1 joint_temperatures_2 joint_temperatures_3 joint_temperatures_4 joint_temperatures_5 actual_execution_time robot_mode joint_mode_0 joint_mode_1 joint_mode_2 joint_mode_3 joint_mode_4 joint_mode_5 safety_mode actual_tool_accelerometer_0 actual_tool_accelerometer_1 actual_tool_accelerometer_2 speed_scaling target_speed_fraction actual_momentum actual_main_voltage actual_robot_voltage actual_robot_current actual_joint_voltage_0 actual_joint_voltage_1 actual_joint_voltage_2 actual_joint_voltage_3 actual_joint_voltage_4 actual_joint_voltage_5 actual_digital_output_bits runtime_state
7482.362999999999 -2.5847040000000003 -1.3422660000000004 1.3616510000000004 -2.0764069999999997 -0.9269629999999998 -0.8488470000000001 0.0 0.0 0.0 0.0 0.0 0.0 0.0 0.0 0.0 0.0 0.0 0.0 -1.4661899082491576 -4.171799327354577 -1.7175343546713264 -0.36033557005120237 7.840812589890363e-08 0.0 -16.84528227700694 -44.44279014014676 -19.52405259406886 -2.620142414640818 6.05166858502849e-07 0.0 -2.584728542958395 -1.3422562640956421 1.3616836706744593 -2.0764433346190394 -0.9269269148456019 -0.848846737538473 0.0 0.0 -0.0 0.0 0.0 -0.0 -1.2518393993377686 -4.36862325668335 -2.0021281242370605 -0.2935246527194977 0.007628704886883497 0.05327989533543587 -1.4661899082491576 -4.171799327354577 -1.7175343546713264 -0.36033557005120237 7.840812589890363e-08 0.0 0.4158085861868871 0.5957411265581354 0.43662203210003386 -2.36237381856783 -0.014754361808598028 -0.00014797640772265552 0.0 0.0 0.0 0.0 0.0 0.0 4.133934894282256 -4.456514824428524 -0.49272761882184657 0.1208837397755791 -0.03614014166455971 0.09354521181093903 0.41579760181408487 0.5957450246880537 0.43663590913558437 -2.3623976153453077 -0.014774556886481075 -0.0001708987689424487 0.0 0.0 0.0 0.0 0.0 0.0 0 30.8125 32.0625 30.625 34.6875 36.8125 37.125 0.593725 7 253 253 253 253 253 253 2 -0.15322890877723694 0.17238251864910126 -9.90241813659668 0.0 0.7 0.0 47.780921936035156 47.78718948364258 0.5360020399093628 47.71392822265625 47.61359786987305 47.64226531982422 47.61359786987305 47.584930419921875 47.51326370239258 3840 1
7482.463 -2.5847040000000003 -1.3422660000000004 1.3616510000000004 -2.0764069999999997 -0.9269629999999998 -0.8488470000000001 0.0 0.0 0.0 0.0 0.0 0.0 0.0 0.0 0.0 0.0 0.0 0.0 -1.4663066222563448 -4.171863760655556 -1.7174736882657737 -0.36031713975070634 -1.3447987488242798e-05 0.0 -16.846623222259453 -44.443476557552955 -19.523362969381306 -2.620008400638156 -0.00010379378729111174 0.0 -2.5847166220294397 -1.3422562640956421 1.3616474310504358 -2.0764318905272425 -0.9269626776324671 -0.8488352934466761 0.0 0.0 -0.0 0.0 0.0 -0.0 -1.2875964641571045 -4.365887641906738 -2.034982681274414 -0.28421750664711 -9.994958236347884e-05 0.053184863179922104 -1.4663066222563448 -4.171863760655556 -1.7174736882657737 -0.36031713975070634 -1.3447987488242798e-05 0.0 0.4158105009115405 0.5957432536859485 0.436635990277489 -2.3623875827001113 -0.014753714880355052 -0.000189781896029665 0.0 0.0 0.0 0.0 0.0 0.0 3.8951883653224844 -4.620523304351029 -0.3861375529719435 0.13012742206121333 -0.0351350985694205 0.09076475751411084 0.41579760181408487 0.5957450246880537 0.43663590913558437 -2.3623976153453077 -0.014774556886481075 -0.0001708987689424487 0.0 0.0 0.0 0.0 0.0 0.0 0 30.8125 32.0625 30.625 34.6875 36.875 37.125 0.582624 7 253 253 253 253 253 253 2 -0.1149216815829277 0.2298433631658554 -9.959878921508789 0.0 0.7 0.0 47.775550842285156 47.79972839355469 0.6210432648658752 47.6995964050293 47.64226531982422 47.65659713745117 47.6279296875 47.584930419921875 47.51326370239258 3840 1
7482.563 -2.5847040000000003 -1.3422660000000004 1.3616510000000004 -2.0764069999999997 -0.9269629999999998 -0.8488470000000001 0.0 0.0 0.0 0.0 0.0 0.0 0.0 0.0 0.0 0.0 0.0 0.0 -1.4662160413557839 -4.171814718119414 -1.7175186656917323 -0.3603263860272148 4.5870282456961825e-06 0.0 -16.84558252430466 -44.44295410022203 -19.52387424976855 -2.6200756339708344 3.5403441180203094e-05 0.0 -2.584728542958395 -1.3422683042338868 1.361671272908346 -2.0764194927611292 -0.9269865194903772 -0.848846737538473 0.0 0.0 -0.0 0.0 0.0 -0.0 -1.2666748762130737 -4.378662109375 -2.0381481647491455 -0.2883528769016266 0.01436377502977848 0.04386955127120018 -1.4662160413557839 -4.171814718119414 -1.7175186656917323 -0.3603263860272148 4.5870282456961825e-06 0.0 0.4158145973088931 0.5957307620800416 0.43662503278847076 -2.362418223028152 -0.014735590897560725 -0.00019559425458976146 0.0 0.0 0.0 0.0 0.0 0.0 4.067423964233789 -4.336855155011981 -0.17637549211001335 0.12451123570952291 -0.04020617787777255 0.09075608004571221 0.41579760181408487 0.5957450246880537 0.43663590913558437 -2.3623976153453077 -0.014774556886481075 -0.0001708987689424487 0.0 0.0 0.0 0.0 0.0 0.0 0 30.8125 32.0625 30.625 34.6875 36.875 37.125 0.595632 7 253 253 253 253 253 253 2 -0.2298433631658554 0.2106897532939911 -10.017339706420898 0.0 0.7 0.0 47.79166793823242 47.79256820678711 0.6232790946960449 47.7282600402832 47.65659713745117 47.65659713745117 47.6279296875 47.584930419921875 47.51326370239258 3840 1
7482.663 -2.5847040000000003 -1.3422660000000004 1.3616510000000004 -2.0764069999999997 -0.9269629999999998 -0.8488470000000001 0.0 0.0 0.0 0.0 0.0 0.0 0.0 0.0 0.0 0.0 0.0 0.0 -1.4663521815301663 -4.171790906825317 -1.7175232626072288 -0.3603311138551524 -1.7333590565324107e-06 0.0 -16.847146659792028 -44.44270043501345 -19.523926505154115 -2.6201100118772582 -1.3378351323581998e-05 0.0 -2.5847166220294397 -1.3422562640956421 1.3616951147662562 -2.076383729974264 -0.9269626776324671 -0.848846737538473 0.0 0.0 -0.0 0.0 0.0 -0.0 -1.2869149446487427 -4.339743137359619 -2.022540807723999 -0.2802060544490814 0.011371205560863018 0.05264289304614067 -1.4663521815301663 -4.171790906825317 -1.7175232626072288 -0.3603311138551524 -1.7333590565324107e-06 0.0 0.4157995344855741 0.5957363052696552 0.43660002044187174 -2.3624381532485605 -0.014727686456238228 -9.917431964458211e-05 0.0 0.0 0.0 0.0 0.0 0.0 3.9732776393631695 -4.532004077579288 -0.3518728201895769 0.12864453764562025 -0.03544315701476487 0.08543094101759073 0.41579760181408487 0.5957450246880537 0.43663590913558437 -2.3623976153453077 -0.014774556886481075 -0.0001708987689424487 0.0 0.0 0.0 0.0 0.0 0.0 0 30.8125 32.0 30.625 34.6875 36.875 37.125 0.588348 7 253 253 253 253 253 253 2 -0.09576806426048279 0.07661445438861847 -10.055646896362305 0.0 0.7 0.0 47.777339935302734 47.77644348144531 0.48676595091819763 47.6995964050293 47.61359786987305 47.6279296875 47.599266052246094 47.570594787597656 47.51326370239258 3840 1
7482.763 -2.5847040000000003 -1.3422660000000004 1.3616510000000004 -2.0764069999999997 -0.9269629999999998 -0.8488470000000001 0.0 0.0 0.0 0.0 0.0 0.0 0.0 0.0 0.0 0.0 0.0 0.0 -1.4662798257755365 -4.171922702587589 -1.7174986152073919 -0.3603259011106656 -6.747902917704898e-06 0.0 -16.846315353353315 -44.444104474600316 -19.52364632611175 -2.6200721079508584 -5.208142859395626e-05 0.0 -2.5847047011004847 -1.3422683042338868 1.3616588751422327 -2.0764080486693324 -0.9269745985614222 -0.8488352934466761 0.0 0.0 -0.0 0.0 0.0 -0.0 -1.2773958444595337 -4.411500930786133 -2.018359422683716 -0.2721130847930908 0.022663980722427368 0.06570129841566086 -1.4662798257755365 -4.171922702587589 -1.7174986152073919 -0.3603259011106656 -6.747902917704898e-06 0.0 0.415798606350989 0.5957423594663911 0.4366316144344571 -2.3624087612149305 -0.014754365582505995 -0.0001701297159533751 0.0 0.0 0.0 0.0 0.0 0.0 4.0599704646019354 -4.6038027656351606 -0.47207860460743234 0.12686626007265606 -0.03434836265024921 0.08753128256680882 0.41579760181408487 0.5957450246880537 0.43663590913558437 -2.3623976153453077 -0.014774556886481075 -0.0001708987689424487 0.0 0.0 0.0 0.0 0.0 0.0 0 30.8125 32.0 30.625 34.6875 36.875 37.125 0.603937 7 253 253 253 253 253 253 2 -0.1149216815829277 0.09576806426048279 -9.959878921508789 0.0 0.7 0.0 47.77375411987305 47.78718948364258 0.5404736995697021 47.6995964050293 47.599266052246094 47.6279296875 47.61359786987305 47.5562629699707 47.51326370239258 3840 1
7482.862999999999 -2.5847040000000003 -1.3422660000000004 1.3616510000000004 -2.0764069999999997 -0.9269629999999998 -0.8488470000000001 0.0 0.0 0.0 0.0 0.0 0.0 0.0 0.0 0.0 0.0 0.0 0.0 -1.466244419195973 -4.171860612149253 -1.7175312623178445 -0.36032966174126485 9.095756493893746e-06 0.0 -16.845908561692934 -44.44344301605349 -19.524017441775193 -2.6200994529829837 7.020255005474546e-05 0.0 -2.5847166220294397 -1.3422323030284424 1.3616588751422327 -2.0764433346190394 -0.9269626776324671 -0.8487990538226526 0.0 0.0 -0.0 0.0 0.0 -0.0 -1.2776590585708618 -4.367823123931885 -2.041025161743164 -0.2759680449962616 0.022781845182180405 0.032403554767370224 -1.466244419195973 -4.171860612149253 -1.7175312623178445 -0.36032966174126485 9.095756493893746e-06 0.0 0.41581597969709566 0.5957466824681485 0.4366155130835202 -2.3624003953230406 -0.014701130804822278 -0.0001480235338113479 0.0 0.0 0.0 0.0 0.0 0.0 4.008977033877848 -4.520175366558275 -0.2296636292634826 0.1268447309828879 -0.034119245120031165 0.09070286545758485 0.41579760181408487 0.5957450246880537 0.43663590913558437 -2.3623976153453077 -0.014774556886481075 -0.0001708987689424487 0.0 0.0 0.0 0.0 0.0 0.0 0 30.8125 32.0 30.625 34.6875 36.875 37.125 0.589512 7 253 253 253 253 253 253 2 -0.13407529890537262 0.19153612852096558 -10.017339706420898 0.0 0.7 0.0 47.80152130126953 47.80062484741211 0.5941867828369141 47.71392822265625 47.65659713745117 47.65659713745117 47.64226531982422 47.584930419921875 47.54193115234375 3840 1
7482.963 -2.5847040000000003 -1.3422660000000004 1.3616510000000004 -2.0764069999999997 -0.9269629999999998 -0.8488470000000001 0.0 0.0 0.0 0.0 0.0 0.0 0.0 0.0 0.0 0.0 0.0 0.0 -1.466324415460798 -4.171756267114337 -1.717520911876256 -0.3603280526041033 -6.2420329225832986e-06 0.0 -16.84682765113319 -44.44233141309155 -19.523899783246037 -2.620087752310393 -4.817704046773948e-05 0.0 -2.58476430574526 -1.3422323030284424 1.3616474310504358 -2.0764080486693324 -0.926950756703512 -0.8488352934466761 0.0 0.0 -0.0 0.0 0.0 -0.0 -1.237208366394043 -4.3982086181640625 -2.0100629329681396 -0.2662663757801056 0.02251432090997696 0.048349492251873016 -1.466324415460798 -4.171756267114337 -1.717520911876256 -0.3603280526041033 -6.2420329225832986e-06 0.0 0.4158398557125082 0.5957267819398766 0.4366172380359469 -2.3624042706832853 -0.014681468375885786 -0.00015555735258801414 0.0 0.0 0.0 0.0 0.0 0.0 4.133639466686528 -4.133259905057333 -0.09835147726956484 0.12049821125775449 -0.036850583787606306 0.09033618397156029 0.41579760181408487 0.5957450246880537 0.43663590913558437 -2.3623976153453077 -0.014774556886481075 -0.0001708987689424487 0.0 0.0 0.0 0.0 0.0 0.0 0 30.8125 32.0 30.625 34.6875 36.875 37.125 0.602196 7 253 253 253 253 253 253 2 -0.09576806426048279 0.15322890877723694 -9.998186111450195 0.0 0.7 0.0 47.76569747924805 47.77017593383789 0.5740430355072021 47.65659713745117 47.6279296875 47.6279296875 47.599266052246094 47.54193115234375 47.498931884765625 3840 1
7483.063 -2.5847040000000003 -1.3422660000000004 1.3616510000000004 -2.0764069999999997 -0.9269629999999998 -0.8488470000000001 0.0 0.0 0.0 0.0 0.0 0.0 0.0 0.0 0.0 0.0 0.0 0.0 -1.4662199281301165 -4.171890082593483 -1.7175285696147444 -0.36032593188690154 2.2694582025986793e-06 0.0 -16.845627180055196 -44.4437569690185 -19.523986832502775 -2.62007233173704 1.7516053026710196e-05 0.0 -2.584728542958395 -1.3422922653010865 1.3616836706744593 -2.076371809045309 -0.9269626776324671 -0.8488591353045862 0.0 0.0 -0.0 0.0 0.0 -0.0 -1.268552541732788 -4.405640602111816 -2.0106585025787354 -0.27812978625297546 0.030041851103305817 0.0401742048561573 -1.4662199281301165 -4.171890082593483 -1.7175285696147444 -0.36032593188690154 2.2694582025986793e-06 0.0 0.4157983048652317 0.5957261425536101 0.43662845254581106 -2.3624195257672875 -0.014742765408412564 -0.00014679478767513156 0.0 0.0 0.0 0.0 0.0 0.0 4.011824276136224 -4.427753403330699 -0.2800402229608743 0.12262488696200918 -0.03216246228195643 0.08853929762027922 0.41579760181408487 0.5957450246880537 0.43663590913558437 -2.3623976153453077 -0.014774556886481075 -0.0001708987689424487 0.0 0.0 0.0 0.0 0.0 0.0 0 30.8125 32.0 30.6875 34.6875 36.875 37.125 0.581881 7 253 253 253 253 253 253 2 -0.13407528400421143 0.19153612852096558 -9.921571731567383 0.0 0.7 0.0 47.754947662353516 47.78181838989258 0.5762841701507568 47.6995964050293 47.599266052246094 47.6279296875 47.6279296875 47.54193115234375 47.498931884765625 3840 1
7483.163 -2.5847040000000003 -1.3422660000000004 1.3616510000000004 -2.0764069999999997 -0.9269629999999998 -0.8488470000000001 0.0 0.0 0.0 0.0 0.0 0.0 0.0 0.0 0.0 0.0 0.0 0.0 -1.4662494027421833 -4.171856349179845 -1.7175272672368678 -0.36032341616723956 -8.939081399990796e-06 0.0 -16.845965818424943 -44.44339760201511 -19.52397202773681 -2.6200540389446054 -6.89933058176732e-05 0.0 -2.5846923033343714 -1.3422683042338868 1.3616836706744593 -2.076371809045309 -0.9269388357745569 -0.8488352934466761 0.0 0.0 -0.0 0.0 0.0 -0.0 -1.2451378107070923 -4.393221855163574 -2.0434796810150146 -0.26537880301475525 0.02249939553439617 0.050001878291368484 -1.4662494027421833 -4.171856349179845 -1.7175272672368678 -0.36032341616723956 -8.939081399990796e-06 0.0 0.4157782994342135 0.5957478235954219 0.4366155759657017 -2.3624141910208447 -0.014755152687332457 -7.478678519737177e-05 0.0 0.0 0.0 0.0 0.0 0.0 4.014957418809286 -4.550699910297309 -0.20586408506174525 0.11801511810603775 -0.034101624276595806 0.09339509301930977 0.41579760181408487 0.5957450246880537 0.43663590913558437 -2.3623976153453077 -0.014774556886481075 -0.0001708987689424487 0.0 0.0 0.0 0.0 0.0 0.0 0 30.8125 32.0625 30.6875 34.6875 36.875 37.125 0.595932 7 253 253 253 253 253 253 2 -0.13407529890537262 0.13407529890537262 -10.074800491333008 0.0 0.7 0.0 47.75047302246094 47.762115478515625 0.5158582925796509 47.65659713745117 47.599266052246094 47.61359786987305 47.599266052246094 47.584930419921875 47.51326370239258 3840 1
7483.263 -2.5847040000000003 -1.3422660000000004 1.3616510000000004 -2.0764069999999997 -0.9269629999999998 -0.8488470000000001 0.0 0.0 0.0 0.0 0.0 0.0 0.0 0.0 0.0 0.0 0.0 0.0 -1.466300795491144 -4.171809643860403 -1.7175417883458581 -0.3603304665357887 -8.643928159823784e-06 0.0 -16.846556277654244 -44.44290004339651 -19.524137096281073 -2.6201053049622005 -6.671526438917241e-05 0.0 -2.5847047011004847 -1.3422562640956421 1.3616588751422327 -2.0764194927611292 -0.9269626776324671 -0.8488109747516077 0.0 0.0 -0.0 0.0 8.291476006917621e-39 -0.0 -1.2488678693771362 -4.355860233306885 -2.0227456092834473 -0.274347722530365 0.012149732559919357 0.03549202159047127 -1.466300795491144 -4.171809643860403 -1.7175417883458581 -0.3603304665357887 -8.643928159823784e-06 0.0 0.41580067475236626 0.595746483638254 0.4366272056375377 -2.3624002756880427 -0.014729231685504714 -0.00014828999281073823 -1.3872334993103265e-39 1.092920535293921e-39 1.0874401483121678e-39 6.163563982201529e-39 3.96862029369778e-39 3.8741587957966736e-39 3.852707384552206 -4.657650812069869 -0.34208892689312886 0.1289213700649155 -0.0370924256836031 0.09113771454063067 0.41579760181408487 0.5957450246880537 0.43663590913558437 -2.3623976153453077 -0.014774556886481075 -0.0001708987689424487 0.0 0.0 0.0 0.0 0.0 0.0 0 30.8125 32.0625 30.6875 34.6875 36.875 37.125 0.583344 7 253 253 253 253 253 253 2 -0.17238251864910126 0.19153612852096558 -9.979032516479492 0.0 0.7 0.0 47.733455657958984 47.733455657958984 0.5852327942848206 47.65659713745117 47.599266052246094 47.599266052246094 47.54193115234375 47.48460006713867 47.4559326171875 3840 1
7483.362999999999 -2.5847040000000003 -1.3422660000000004 1.3616510000000004 -2.0764069999999997 -0.9269629999999998 -0.8488470000000001 0.0 0.0 0.0 0.0 0.0 0.0 0.0 0.0 0.0 0.0 0.0 0.0 -1.4662681338557724 -4.171729745606973 -1.7174973245122012 -0.36032155795036297 -4.1353541366121176e-06 0.0 -16.84618102308158 -44.44204887558351 -19.523631654148584 -2.6200405271149148 -3.1917345848529075e-05 0.0 -2.58474046388735 -1.342244343166687 1.361671272908346 -2.0764318905272425 -0.926950756703512 -0.848846737538473 0.0 0.0 -0.0 0.0 0.0 -0.0 -1.238558292388916 -4.362082481384277 -2.010820150375366 -0.2851993441581726 0.02036617323756218 0.03871237114071846 -1.4662681338557724 -4.171729745606973 -1.7174973245122012 -0.36032155795036297 -4.1353541366121176e-06 0.0 0.41582265632708604 0.5957348658738577 0.4366159611220483 -2.3623975684507066 -0.014728175845874781 -0.00016153209753960482 0.0 0.0 0.0 0.0 0.0 0.0 4.1407666061680395 -4.47920068437478 -0.2923467615077753 0.13128755799463196 -0.03034591592349522 0.09043716829212814 0.41579760181408487 0.5957450246880537 0.43663590913558437 -2.3623976153453077 -0.014774556886481075 -0.0001708987689424487 0.0 0.0 0.0 0.0 0.0 0.0 0 30.8125 32.0625 30.6875 34.6875 36.875 37.125 0.600156 7 253 253 253 253 253 253 2 -0.15322890877723694 0.13407529890537262 -9.940725326538086 0.0 0.7 0.0 47.75315856933594 47.77107238769531 0.6098535060882568 47.65659713745117 47.599266052246094 47.61359786987305 47.570594787597656 47.54193115234375 47.48460006713867 3840 1
7483.463 -2.5847040000000003 -1.3422660000000004 1.3616510000000004 -2.0764069999999997 -0.9269629999999998 -0.8488470000000001 0.0 0.0 0.0 0.0 0.0 0.0 0.0 0.0 0.0 0.0 0.0 0.0 -1.4662933137551983 -4.171675444684126 -1.7175348412597544 -0.360334485661581 -8.348855221672187e-06 0.0 -16.846470318834573 -44.44147039988775 -19.52405812535738 -2.6201345296150893 -6.443784274488204e-05 0.0 -2.5846923033343714 -1.342244343166687 1.3616588751422327 -2.0764318905272425 -0.9269388357745569 -0.848846737538473 0.0 0.0 -0.0 0.0 0.0 -0.0 -1.248348355293274 -4.355515956878662 -2.058835506439209 -0.2854943871498108 0.02391343005001545 0.031592946499586105 -1.4662933137551983 -4.171675444684126 -1.7175348412597544 -0.360334485661581 -8.348855221672187e-06 0.0 0.41579344008669267 0.5957573841416286 0.43662461237994626 -2.362381767439419 -0.01479393709791444 -0.00014127324983892117 0.0 0.0 0.0 0.0 0.0 0.0 3.9069646972678065 -4.33991165228463 -0.33538498001322026 0.12027308923095939 -0.0390765693497708 0.09328640790892702 0.41579760181408487 0.5957450246880537 0.43663590913558437 -2.3623976153453077 -0.014774556886481075 -0.0001708987689424487 0.0 0.0 0.0 0.0 0.0 0.0 0 30.8125 32.0625 30.6875 34.6875 36.8125 37.125 0.582516 7 253 253 253 253 253 253 2 -0.15322890877723694 0.09576806426048279 -9.998186111450195 0.0 0.7 0.0 47.743309020996094 47.76569747924805 0.6098535060882568 47.65659713745117 47.584930419921875 47.61359786987305 47.570594787597656 47.5562629699707 47.4559326171875 3840 1
7483.563 -2.5847040000000003 -1.3422660000000004 1.3616510000000004 -2.0764069999999997 -0.9269629999999998 -0.8488470000000001 0.0 0.0 0.0 0.0 0.0 0.0 0.0 0.0 0.0 0.0 0.0 0.0 -1.4662226068920634 -4.171906321219974 -1.7175437877928676 -0.36033499366187793 -2.239110775065451e-06 0.0 -16.84565795676488 -44.443929961488344 -19.524159824972624 -2.6201382234861232 -1.7281826571564388e-05 0.0 -2.5847166220294397 -1.3422683042338868 1.3616836706744593 -2.0764080486693324 -0.9269149939166468 -0.848846737538473 0.0 0.0 -0.0 0.0 0.0 -0.0 -1.2533942461013794 -4.37247371673584 -2.002617120742798 -0.2894122004508972 0.010369319468736649 0.02382766827940941 -1.4662226068920634 -4.171906321219974 -1.7175437877928676 -0.36033499366187793 -2.239110775065451e-06 0.0 0.415792796727295 0.5957434166091449 0.4366252564008162 -2.3623772084972727 -0.014762533354544615 -0.00010963636097336469 0.0 0.0 0.0 0.0 0.0 0.0 3.875024991225425 -4.4408381879780485 -0.31107501571251284 0.11946912158780984 -0.03295988940731178 0.08927432075354415 0.41579760181408487 0.5957450246880537 0.43663590913558437 -2.3623976153453077 -0.014774556886481075 -0.0001708987689424487 0.0 0.0 0.0 0.0 0.0 0.0 0 30.8125 32.0625 30.6875 34.6875 36.8125 37.125 0.596928 7 253 253 253 253 253 253 2 -0.07661445438861847 0.1149216815829277 -10.036493301391602 0.0 0.7 0.0 47.756744384765625 47.774654388427734 0.5874739289283752 47.65659713745117 47.61359786987305 47.6279296875 47.599266052246094 47.584930419921875 47.498931884765625 3840 1
7483.663 -2.5847040000000003 -1.3422660000000004 1.3616510000000004 -2.0764069999999997 -0.9269629999999998 -0.8488470000000001 0.0 0.0 0.0 0.0 0.0 0.0 0.0 0.0 0.0 0.0 0.0 0.0 -1.4663584419572784 -4.17180296572049 -1.7175345637117163 -0.36033405278803987 -1.976811011596778e-05 0.0 -16.847218586805905 -44.44282890019249 -19.524054970333157 -2.620131382020404 -0.0001525735369933882 0.0 -2.58474046388735 -1.3422323030284424 1.361706558858053 -2.076383729974264 -0.9269388357745569 -0.8488591353045862 0.0 0.0 -0.0 0.0 0.0 -0.0 -1.3123775720596313 -4.339414596557617 -1.9739829301834106 -0.28558892011642456 0.020342513918876648 0.04860478267073631 -1.4663584419572784 -4.17180296572049 -1.7175345637117163 -0.36033405278803987 -1.976811011596778e-05 0.0 0.4158139644162954 0.5957321536403735 0.4365806012882354 -2.3624390163761113 -0.014707211007760344 -6.236308726111725e-05 0.0 0.0 0.0 0.0 0.0 0.0 4.097425166204243 -4.577439154574279 -0.27463812883321337 0.1289190778029774 -0.03426814478249812 0.09080087770495276 0.41579760181408487 0.5957450246880537 0.43663590913558437 -2.3623976153453077 -0.014774556886481075 -0.0001708987689424487 0.0 0.0 0.0 0.0 0.0 0.0 0 30.8125 32.0625 30.6875 34.6875 36.8125 37.125 0.58782 7 253 253 253 253 253 253 2 -0.1149216815829277 0.2106897532939911 -9.998186111450195 0.0 0.7 0.0 47.775550842285156 47.78181838989258 0.6031407117843628 47.6995964050293 47.6279296875 47.64226531982422 47.64226531982422 47.5562629699707 47.51326370239258 3840 1
7483.763 -2.5847040000000003 -1.3422660000000004 1.3616510000000004 -2.0764069999999997 -0.9269629999999998 -0.8488470000000001 0.0 0.0 0.0 0.0 0.0 0.0 0.0 0.0 0.0 0.0 0.0 0.0 -1.4663300185447161 -4.171835565953013 -1.7175359693614431 -0.3603367115262388 -8.643984021023034e-06 0.0 -16.8468920258296 -44.44317619525126 -19.524070949040727 -2.620150714757173 -6.671569553512922e-05 0.0 -2.5847166220294397 -1.3422683042338868 1.3616951147662562 -2.076383729974264 -0.9269745985614222 -0.8487871328936976 0.0 0.0 -0.0 0.0 0.0 -0.0 -1.2744625806808472 -4.370924949645996 -1.988165020942688 -0.2885160744190216 0.02149578556418419 0.04720604047179222 -1.4663300185447161 -4.171835565953013 -1.7175359693614431 -0.3603367115262388 -8.643984021023034e-06 0.0 0.41579872884474045 0.5957329901945972 0.4366064986390711 -2.3624411794211806 -0.014658433169458961 -9.176554998841973e-05 0.0 0.0 0.0 0.0 0.0 0.0 3.98916904562396 -4.284643808380533 -0.22246408143377439 0.1254195201883534 -0.03530512358271723 0.08789326235428271 0.41579760181408487 0.5957450246880537 0.43663590913558437 -2.3623976153453077 -0.014774556886481075 -0.0001708987689424487 0.0 0.0 0.0 0.0 0.0 0.0 0 30.8125 32.0625 30.625 34.6875 36.8125 37.125 0.608389 7 253 253 253 253 253 253 2 -0.13407529890537262 0.2106897532939911 -10.017339706420898 0.0 0.7 0.0 47.81047821044922 47.81495666503906 0.6411817073822021 47.7282600402832 47.64226531982422 47.670928955078125 47.64226531982422 47.570594787597656 47.5562629699707 3840 1
7483.862999999999 -2.5847040000000003 -1.3422660000000004 1.3616510000000004 -2.0764069999999997 -0.9269629999999998 -0.8488470000000001 0.0 0.0 0.0 0.0 0.0 0.0 0.0 0.0 0.0 0.0 0.0 0.0 -1.4662429323141988 -4.1718082463823 -1.7175417463315232 -0.3603300947302231 2.4802436585311805e-06 0.0 -16.845891478678613 -44.442885155857304 -19.524136618683592 -2.620102601416913 1.914292996991419e-05 0.0 -2.5847166220294397 -1.342244343166687 1.3616836706744593 -2.0764318905272425 -0.9269745985614222 -0.8488352934466761 0.0 0.0 -0.0 0.0 0.0 -0.0 -1.2388955354690552 -4.387343406677246 -2.055267333984375 -0.3137684166431427 0.01172615960240364 0.04911530017852783 -1.4662429323141988 -4.1718082463823 -1.7175417463315232 -0.3603300947302231 2.4802436585311805e-06 0.0 0.4158109718730463 0.5957407154907747 0.43660574643249395 -2.3624218405668236 -0.014730163027257787 -0.00015069839536340724 0.0 0.0 0.0 0.0 0.0 0.0 3.8798752338562066 -4.462699250992639 -0.4062342744475229 0.12313423042350667 -0.037771595705062076 0.09124716223712696 0.41579760181408487 0.5957450246880537 0.43663590913558437 -2.3623976153453077 -0.014774556886481075 -0.0001708987689424487 0.0 0.0 0.0 0.0 0.0 0.0 0 30.8125 32.0625 30.625 34.6875 36.8125 37.125 0.593316 7 253 253 253 253 253 253 2 -0.038307227194309235 0.15322890877723694 -9.979032516479492 0.0 0.7 0.0 47.80420684814453 47.830177307128906 0.6120893359184265 47.71392822265625 47.65659713745117 47.670928955078125 47.64226531982422 47.584930419921875 47.5562629699707 3840 1
7483.963 -2.5847040000000003 -1.3422660000000004 1.3616510000000004 -2.0764069999999997 -0.9269629999999998 -0.8488470000000001 0.0 0.0 0.0 0.0 0.0 0.0 0.0 0.0 0.0 0.0 0.0 0.0 -1.4663573721220997 -4.171805138732138 -1.7175366001695616 -0.36033723641517934 -1.525948964054383e-05 0.0 -16.847206295304325 -44.442852049604305 -19.524078119744967 -2.6201545314322128 -0.0001177752599269026 0.0 -2.5847166220294397 -1.3422562640956421 1.3616588751422327 -2.0764080486693324 -0.9269388357745569 -0.8488829771624964 0.0 0.0 -0.0 0.0 0.0 -0.0 -1.2447760105133057 -4.361519813537598 -1.9643741846084595 -0.32169559597969055 0.006345338188111782 0.05511244013905525 -1.4663573721220997 -4.171805138732138 -1.7175366001695616 -0.36033723641517934 -1.525948964054383e-05 0.0 0.4158025250662565 0.5957438605756209 0.43662826305325786 -2.3623880684457723 -0.014803021436850432 -0.00015878843450714398 0.0 0.0 0.0 0.0 0.0 0.0 3.964262703095623 -4.525043515204664 -0.4898314443262568 0.12284264629946565 -0.03324112480115704 0.0930013764216299 0.41579760181408487 0.5957450246880537 0.43663590913558437 -2.3623976153453077 -0.014774556886481075 -0.0001708987689424487 0.0 0.0 0.0 0.0 0.0 0.0 0 30.8125 32.0625 30.625 34.6875 36.8125 37.125 0.608016 7 253 253 253 253 253 253 2 -0.05746084079146385 0.15322890877723694 -9.959878921508789 0.0 0.7 0.0 47.77286148071289 47.796146392822266 0.5829969644546509 47.68526077270508 47.6279296875 47.64226531982422 47.61359786987305 47.5562629699707 47.5275993347168 3840 1
7484.063 -2.5847040000000003 -1.3422660000000004 1.3616510000000004 -2.0764069999999997 -0.9269629999999998 -0.8488470000000001 0.0 0.0 0.0 0.0 0.0 0.0 0.0 0.0 0.0 0.0 0.0 0.0 -1.4662251840437 -4.171896434953135 -1.7175345227870005 -0.3603352385763615 -1.1256471271004072e-05 0.0 -16.845687566058018 -44.443824641637626 -19.524054505121907 -2.6201400043561778 -8.687930337327905e-05 0.0 -2.5847166220294397 -1.3422802251628418 1.3616951147662562 -2.076395650903219 -0.9269626776324671 -0.8488228956805628 0.0 0.0 -0.0 0.0 0.0 -0.0 -1.2394381761550903 -4.370035648345947 -1.9927339553833008 -0.3114268481731415 0.009963741526007652 0.05069897696375847 -1.4662251840437 -4.171896434953135 -1.7175345227870005 -0.3603352385763615 -1.1256471271004072e-05 0.0 0.41579527740943034 0.5957336778731062 0.43661817987691465 -2.3624194004139882 -0.014714287907897873 -0.0001236593950988478 0.0 0.0 0.0 0.0 0.0 0.0 3.7815067452780418 -4.291914131619238 -0.3008792428540734 0.12188180158241013 -0.042857172736179824 0.08936606741753746 0.41579760181408487 0.5957450246880537 0.43663590913558437 -2.3623976153453077 -0.014774556886481075 -0.0001708987689424487 0.0 0.0 0.0 0.0 0.0 0.0 0 30.8125 32.0625 30.6875 34.6875 36.875 37.125 0.591901 7 253 253 253 253 253 253 2 -0.07661445438861847 0.15322890877723694 -9.979032516479492 0.0 0.7 0.0 47.78450393676758 47.78718948364258 0.5986637473106384 47.71392822265625 47.599266052246094 47.6279296875 47.6279296875 47.5562629699707 47.51326370239258 3840 1
7484.163 -2.5847040000000003 -1.3422660000000004 1.3616510000000004 -2.0764069999999997 -0.9269629999999998 -0.8488470000000001 0.0 0.0 0.0 0.0 0.0 0.0 0.0 0.0 0.0 0.0 0.0 0.0 -1.4662251162569528 -4.171983553685672 -1.71749735258508 -0.3603248514346352 6.483188392926823e-06 0.0 -16.84568678724561 -44.444752730273635 -19.52363197326672 -2.620064475341376 5.003831819534052e-05 0.0 -2.5847166220294397 -1.3422922653010865 1.3616836706744593 -2.0764080486693324 -0.9269626776324671 -0.8488591353045862 0.0 0.0 -0.0 0.0 0.0 -0.0 -1.2721720933914185 -4.391797065734863 -2.0476982593536377 -0.3181215226650238 -0.00025776034453883767 0.05077119544148445 -1.4662251162569528 -4.171983553685672 -1.71749735258508 -0.3603248514346352 6.483188392926823e-06 0.0 0.4157952016361038 0.5957336609728983 0.43663500606574723 -2.3624002003914026 -0.014771868765687248 -0.0001772713445257216 0.0 0.0 0.0 0.0 0.0 0.0 4.197418347847057 -4.513193968804908 -0.4068958684135362 0.12922210964221695 -0.03174367089603604 0.0933687204302109 0.41579760181408487 0.5957450246880537 0.43663590913558437 -2.3623976153453077 -0.014774556886481075 -0.0001708987689424487 0.0 0.0 0.0 0.0 0.0 0.0 0 30.8125 32.0625 30.6875 34.6875 36.875 37.125 0.607008 7 253 253 253 253 253 253 2 -0.15322890877723694 0.2298433631658554 -10.113107681274414 0.0 0.7 0.0 47.77107238769531 47.78718948364258 0.5203352570533752 47.6995964050293 47.61359786987305 47.6279296875 47.61359786987305 47.54193115234375 47.5275993347168 3840 1
7484.263 -2.5847040000000003 -1.3422660000000004 1.3616510000000004 -2.0764069999999997 -0.9269629999999998 -0.8488470000000001 0.0 0.0 0.0 0.0 0.0 0.0 0.0 0.0 0.0 0.0 0.0 0.0 -1.4662453516033367 -4.1718224230008465 -1.7174954730062857 -0.36032035483085345 7.818230210448669e-08 0.0 -16.845919274265125 -44.44303618145406 -19.52361060717577 -2.6200317787572205 6.034239131808462e-07 0.0 -2.5846923033343714 -1.3422683042338868 1.3616474310504358 -2.0764318905272425 -0.9269388357745569 -0.8488591353045862 0.0 0.0 -0.0 0.0 0.0 -0.0 -1.2164384126663208 -4.4062676429748535 -1.965553641319275 -0.3210328221321106 0.005113240331411362 0.03950095549225807 -1.4662453516033367 -4.1718224230008465 -1.7174954730062857 -0.36032035483085345 7.818230210448669e-08 0.0 0.41578922367403653 0.5957547640176099 0.43664715900446793 -2.3623630538907547 -0.01482310288478433 -0.0001829188525583595 0.0 0.0 0.0 0.0 0.0 0.0 4.094640129456582 -4.809774686834425 -0.2529294119506931 0.13009651274077166 -0.03353285768711073 0.09265388532485161 0.41579760181408487 0.5957450246880537 0.43663590913558437 -2.3623976153453077 -0.014774556886481075 -0.0001708987689424487 0.0 0.0 0.0 0.0 0.0 0.0 0 30.8125 32.0625 30.6875 34.6875 36.875 37.125 0.591636 7 253 253 253 253 253 253 2 -0.1149216815829277 0.19153612852096558 -9.979032516479492 0.0 0.7 0.0 47.805999755859375 47.819435119628906 0.5919508934020996 47.6995964050293 47.61359786987305 47.64226531982422 47.61359786987305 47.5562629699707 47.5275993347168 3840 1
7484.362999999999 -2.5847040000000003 -1.3422660000000004 1.3616510000000004 -2.0764069999999997 -0.9269629999999998 -0.8488470000000001 0.0 0.0 0.0 0.0 0.0 0.0 0.0 0.0 0.0 0.0 0.0 0.0 -1.4662449776036752 -4.1719075618766865 -1.717514838619555 -0.36031980908282724 1.1286615429944053e-05 0.0 -16.845914977325258 -44.44394317838628 -19.523830745568315 -2.620027810407521 8.711196096786867e-05 0.0 -2.58474046388735 -1.3422562640956421 1.3616588751422327 -2.0764318905272425 -0.9269626776324671 -0.8488228956805628 0.0 0.0 -0.0 0.0 0.0 -0.0 -1.2872148752212524 -4.376281261444092 -2.0150115489959717 -0.32306262850761414 0.012062737718224525 0.046726878732442856 -1.4662449776036752 -4.1719075618766865 -1.717514838619555 -0.36031980908282724 1.1286615429944053e-05 0.0 0.41582334789210296 0.5957324893958851 0.43662944767109324 -2.3623938716740143 -0.014706209043771127 -0.00018381841608686704 0.0 0.0 0.0 0.0 0.0 0.0 4.058666367687512 -4.621346471845035 -0.39074566749339823 0.12371103054173503 -0.03475318603722056 0.09289085217528018 0.41579760181408487 0.5957450246880537 0.43663590913558437 -2.3623976153453077 -0.014774556886481075 -0.0001708987689424487 0.0 0.0 0.0 0.0 0.0 0.0 0 30.8125 32.0625 30.6875 34.6875 36.875 37.125 0.610416 7 253 253 253 253 253 253 2 -0.1149216815829277 0.17238251864910126 -10.017339706420898 0.0 0.7 0.0 47.774654388427734 47.79435729980469 0.5740430355072021 47.71392822265625 47.64226531982422 47.6279296875 47.6279296875 47.584930419921875 47.5275993347168 3840 1
7484.463 -2.5847040000000003 -1.3422660000000004 1.3616510000000004 -2.0764069999999997 -0.9269629999999998 -0.8488470000000001 0.0 0.0 0.0 0.0 0.0 0.0 0.0 0.0 0.0 0.0 0.0 0.0 -1.4662435907311402 -4.171820249813677 -1.7174934363839474 -0.36031717094655785 4.586734581768912e-06 0.0 -16.84589904333253 -44.44301303017238 -19.523587455894084 -2.6200086274755274 3.540117463353737e-05 0.0 -2.5846923033343714 -1.3422323030284424 1.361706558858053 -2.0764080486693324 -0.926950756703512 -0.8488591353045862 0.0 0.0 -0.0 0.0 0.0 -0.0 -1.249740719795227 -4.4039106369018555 -1.9506980180740356 -0.33298736810684204 -0.007507793139666319 0.04651825502514839 -1.4662435907311402 -4.171820249813677 -1.7174934363839474 -0.36031717094655785 4.586734581768912e-06 0.0 0.4157899508481587 0.5957523267234256 0.4365834352007049 -2.3624346736369186 -0.014770397981064113 -7.271468461222636e-05 0.0 0.0 0.0 0.0 0.0 0.0 4.122499768577864 -4.5192177557029325 -0.3143464566984666 0.12737041661877008 -0.034673159156444554 0.09701097532554882 0.41579760181408487 0.5957450246880537 0.43663590913558437 -2.3623976153453077 -0.014774556886481075 -0.0001708987689424487 0.0 0.0 0.0 0.0 0.0 0.0 0 30.8125 32.0625 30.6875 34.6875 36.875 37.125 0.593413 7 253 253 253 253 253 253 2 -0.15322890877723694 0.2298433631658554 -9.959878921508789 0.0 0.7 0.0 47.733455657958984 47.754947662353516 0.6053765416145325 47.670928955078125 47.599266052246094 47.6279296875 47.599266052246094 47.54193115234375 47.5275993347168 3840 1
7484.563 -2.5847040000000003 -1.3422660000000004 1.3616510000000004 -2.0764069999999997 -0.9269629999999998 -0.8488470000000001 0.0 0.0 0.0 0.0 0.0 0.0 0.0 0.0 0.0 0.0 0.0 0.0 -1.4663280040179227 -4.171823506947039 -1.7175246681531167 -0.3603337727030401 -4.1352641752069575e-06 0.0 -16.84686888062017 -44.443047728891834 -19.523942482681296 -2.620129345411619 -3.1916651511554135e-05 0.0 -2.584728542958395 -1.3422562640956421 1.3616951147662562 -2.076395650903219 -0.9269865194903772 -0.8488352934466761 0.0 0.0 -0.0 0.0 0.0 -0.0 -1.2699707746505737 -4.403881072998047 -1.9935375452041626 -0.3203696310520172 -0.007232872303575277 0.033616188913583755 -1.4663280040179227 -4.171823506947039 -1.7175246681531167 -0.3603337727030401 -4.1352641752069575e-06 0.0 0.41581194025832263 0.5957290483320964 0.4365990491809698 -2.362449839082749 -0.014697463640252408 -0.00013008386055774794 0.0 0.0 0.0 0.0 0.0 0.0 3.815378417446441 -4.603500758017877 -0.42878032244931585 0.13381123349668894 -0.040313333932574094 0.08633107214854463 0.41579760181408487 0.5957450246880537 0.43663590913558437 -2.3623976153453077 -0.014774556886481075 -0.0001708987689424487 0.0 0.0 0.0 0.0 0.0 0.0 0 30.8125 32.0625 30.6875 34.6875 36.875 37.125 0.610896 7 253 253 253 253 253 253 2 -0.13407529890537262 0.09576806426048279 -9.959878921508789 0.0 0.7 0.0 47.72270965576172 47.75047302246094 0.5919508934020996 47.6279296875 47.5562629699707 47.599266052246094 47.54193115234375 47.584930419921875 47.47026824951172 3840 1
7484.663 -2.5847040000000003 -1.3422660000000004 1.3616510000000004 -2.0764069999999997 -0.9269629999999998 -0.8488470000000001 0.0 0.0 0.0 0.0 0.0 0.0 0.0 0.0 0.0 0.0 0.0 0.0 -1.4662472650564866 -4.171851726831867 -1.7175229353609602 -0.3603326005803731 7.841411117522204e-08 0.0 -16.845941258223856 -44.44334835946411 -19.52392278518581 -2.620120822444223 6.05213053853463e-07 0.0 -2.5847166220294397 -1.3422562640956421 1.3616474310504358 -2.0764318905272425 -0.926950756703512 -0.8488352934466761 0.0 0.0 -0.0 0.0 0.0 -0.0 -1.2796274423599243 -4.398140907287598 -2.0080480575561523 -0.3444082736968994 -0.00905065331608057 0.04939241334795952 -1.4662472650564866 -4.171851726831867 -1.7175229353609602 -0.3603326005803731 7.841411117522204e-08 0.0 0.4158085064272359 0.5957448250052543 0.43663755371838053 -2.3623786622166025 -0.01475749793403536 -0.00018040607176148804 0.0 0.0 0.0 0.0 0.0 0.0 3.725771922722127 -4.669503261645579 -0.6324707025396403 0.13152848882130538 -0.04037119937976873 0.08996086405238668 0.41579760181408487 0.5957450246880537 0.43663590913558437 -2.3623976153453077 -0.014774556886481075 -0.0001708987689424487 0.0 0.0 0.0 0.0 0.0 0.0 0 30.8125 32.0625 30.6875 34.6875 36.875 37.125 0.595008 7 253 253 253 253 253 253 2 -0.09576806426048279 0.2298433631658554 -9.998186111450195 0.0 0.7 0.0 47.737037658691406 47.762115478515625 0.5762841701507568 47.670928955078125 47.599266052246094 47.61359786987305 47.61359786987305 47.54193115234375 47.48460006713867 3840 1
7484.763 -2.5847040000000003 -1.3422660000000004 1.3616510000000004 -2.0764069999999997 -0.9269629999999998 -0.8488470000000001 0.0 0.0 0.0 0.0 0.0 0.0 0.0 0.0 0.0 0.0 0.0 0.0 -1.466267345347801 -4.171723641200037 -1.7175508626502887 -0.36032808321707127 -6.242032857998539e-06 0.0 -16.84617196379173 -44.44198384444105 -19.52424024833534 -2.620087974909388 -4.817703996926364e-05 0.0 -2.5847166220294397 -1.3422802251628418 1.3616226355182093 -2.076395650903219 -0.9269388357745569 -0.8488591353045862 0.0 0.0 -0.0 0.0 0.0 -0.0 -1.1946183443069458 -4.366605758666992 -2.0119903087615967 -0.339315265417099 -0.01246594451367855 0.03820211812853813 -1.466267345347801 -4.171723641200037 -1.7175508626502887 -0.36032808321707127 -6.242032857998539e-06 0.0 0.41579987938018953 0.5957422065539885 0.4366627431094058 -2.3623631566761656 -0.014794425021110029 -0.0001954014138175038 0.0 0.0 0.0 0.0 0.0 0.0 3.9035907807235777 -4.3355790037988875 -0.3645465951838829 0.12106176574566697 -0.036756007848507875 0.09052501826430291 0.41579760181408487 0.5957450246880537 0.43663590913558437 -2.3623976153453077 -0.014774556886481075 -0.0001708987689424487 0.0 0.0 0.0 0.0 0.0 0.0 0 30.8125 32.0625 30.625 34.6875 36.875 37.125 0.661801 7 253 253 253 253 253 253 2 -0.1149216815829277 0.19153612852096558 -9.959878921508789 0.0 0.7 0.0 47.75584411621094 47.774654388427734 0.5494276285171509 47.670928955078125 47.61359786987305 47.6279296875 47.584930419921875 47.5275993347168 47.5275993347168 3840 1
7484.862999999999 -2.5847040000000003 -1.3422660000000004 1.3616510000000004 -2.0764069999999997 -0.9269629999999998 -0.8488470000000001 0.0 0.0 0.0 0.0 0.0 0.0 0.0 0.0 0.0 0.0 0.0 0.0 -1.4663277599198334 -4.1718040904643665 -1.7175064718178548 -0.360321282339187 -8.644041083539866e-06 0.0 -16.846866076139527 -44.44284088225398 -19.523735636043437 -2.620038523037071 -6.671613595305342e-05 0.0 -2.584728542958395 -1.3422683042338868 1.3616588751422327 -2.0764318905272425 -0.9269984404193323 -0.8488591353045862 0.0 0.0 -0.0 0.0 0.0 -0.0 -1.2415306568145752 -4.424404144287109 -2.0338985919952393 -0.3300357460975647 -0.01417307648807764 0.03862953931093216 -1.4663277599198334 -4.1718040904643665 -1.7175064718178548 -0.360321282339187 -8.644041083539866e-06 0.0 0.4158194292425023 0.595730988362063 0.4366327993232043 -2.3624139478793897 -0.01475668243323386 -0.00023585928490997462 0.0 0.0 0.0 0.0 0.0 0.0 4.081198557920538 -4.524124259717075 -0.24198092596212684 0.1307447284636355 -0.036854102249351484 0.09030307523803555 0.41579760181408487 0.5957450246880537 0.43663590913558437 -2.3623976153453077 -0.014774556886481075 -0.0001708987689424487 0.0 0.0 0.0 0.0 0.0 0.0 0 30.8125 32.0625 30.625 34.6875 36.875 37.125 0.61524 7 253 253 253 253 253 253 2 -0.19153612852096558 0.13407529890537262 -9.921571731567383 0.0 0.7 0.0 47.7218132019043 47.749576568603516 0.4979557394981384 47.64226531982422 47.584930419921875 47.61359786987305 47.5562629699707 47.51326370239258 47.4559326171875 3840 1
7484.963 -2.5847040000000003 -1.3422660000000004 1.3616510000000004 -2.0764069999999997 -0.9269629999999998 -0.8488470000000001 0.0 0.0 0.0 0.0 0.0 0.0 0.0 0.0 0.0 0.0 0.0 0.0 -1.466224791722565 -4.1718428526546045 -1.717545032230069 -0.36033569258712334 -1.813666057262507e-05 0.0 -16.84568305861991 -44.4432538215521 -19.52417397109861 -2.6201433056479533 -0.00013998174011478916 0.0 -2.5847166220294397 -1.3422683042338868 1.3616951147662562 -2.076395650903219 -0.9269865194903772 -0.8488109747516077 0.0 0.0 -0.0 0.0 0.0 -0.0 -1.2572581768035889 -4.429962158203125 -2.000319480895996 -0.33785441517829895 -0.017623746767640114 0.02592909336090088 -1.466224791722565 -4.1718428526546045 -1.717545032230069 -0.36033569258712334 -1.813666057262507e-05 0.0 0.41580203858118153 0.5957322614999501 0.43660709090490807 -2.362443597777702 -0.014687754533254783 -0.00012463008263492606 0.0 0.0 0.0 0.0 0.0 0.0 4.426296355274455 -4.405429979061953 -0.29155772881803754 0.12816534988100112 -0.02358538191859022 0.0933424193426815 0.41579760181408487 0.5957450246880537 0.43663590913558437 -2.3623976153453077 -0.014774556886481075 -0.0001708987689424487 0.0 0.0 0.0 0.0 0.0 0.0 0 30.8125 32.0625 30.625 34.6875 36.875 37.125 0.612084 7 253 253 253 253 253 253 2 -0.07661445438861847 0.17238251864910126 -9.940725326538086 0.0 0.7 0.0 47.74061965942383 47.75584411621094 0.5718072056770325 47.64226531982422 47.599266052246094 47.61359786987305 47.570594787597656 47.54193115234375 47.498931884765625 3840 1
7485.063 -2.5847040000000003 -1.3422660000000004 1.3616510000000004 -2.0764069999999997 -0.9269629999999998 -0.8488470000000001 0.0 0.0 0.0 0.0 0.0 0.0 0.0 0.0 0.0 0.0 0.0 0.0 -1.4661893842420992 -4.17184836769591 -1.7175198894159762 -0.3603287791017052 6.778197681189743e-06 0.0 -16.845276256608926 -44.44331257409606 -19.523888160440226 -2.62009303496173 5.23152485792834e-05 0.0 -2.5847047011004847 -1.3422683042338868 1.3616588751422327 -2.076383729974264 -0.9269865194903772 -0.8488591353045862 0.0 0.0 -0.0 0.0 0.0 -0.0 -1.27322256565094 -4.389235496520996 -2.0056118965148926 -0.326107382774353 -0.017311854287981987 0.023263918235898018 -1.4661893842420992 -4.17184836769591 -1.7175198894159762 -0.3603287791017052 6.778197681189743e-06 0.0 0.4157979176613608 0.5957390689685823 0.436625653204736 -2.362430416203424 -0.014768664558542161 -0.00016673700253512215 0.0 0.0 0.0 0.0 0.0 0.0 4.086369579935014 -4.286791317181889 -0.2623145336803119 0.11902473292512199 -0.034172635314090975 0.09112151515241498 0.41579760181408487 0.5957450246880537 0.43663590913558437 -2.3623976153453077 -0.014774556886481075 -0.0001708987689424487 0.0 0.0 0.0 0.0 0.0 0.0 0 30.8125 32.0625 30.625 34.6875 36.875 37.125 0.601609 7 253 253 253 253 253 253 2 -0.07661445438861847 0.17238251864910126 -10.017339706420898 0.0 0.7 0.0 47.76659393310547 47.774654388427734 0.5785199999809265 47.670928955078125 47.599266052246094 47.6279296875 47.599266052246094 47.5562629699707 47.5275993347168 3840 1
7485.163 -2.5847040000000003 -1.3422660000000004 1.3616510000000004 -2.0764069999999997 -0.9269629999999998 -0.8488470000000001 0.0 0.0 0.0 0.0 0.0 0.0 0.0 0.0 0.0 0.0 0.0 0.0 -1.4662962180331705 -4.17175521782212 -1.7174907824836607 -0.36031209784494683 -4.135706061842405e-06 0.0 -16.8465036865327 -44.442320234827655 -19.523557287712215 -2.6199717389476955 -3.192006206554866e-05 0.0 -2.58474046388735 -1.3422802251628418 1.3616588751422327 -2.0764080486693324 -0.9269388357745569 -0.8488352934466761 0.0 0.0 -0.0 0.0 0.0 -0.0 -1.248865008354187 -4.394087791442871 -2.0016751289367676 -0.3304040729999542 -0.026899142190814018 0.016385631635785103 -1.4662962180331705 -4.17175521782212 -1.7174907824836607 -0.36031209784494683 -4.135706061842405e-06 0.0 0.4158111555454889 0.5957304765691661 0.436644266918723 -2.362375995646123 -0.014728358296475867 -0.0001713459448783988 0.0 0.0 0.0 0.0 0.0 0.0 4.097711467667969 -4.5966032251359605 -0.5314381136606428 0.12716675348564396 -0.03626769807852197 0.09714877850588341 0.41579760181408487 0.5957450246880537 0.43663590913558437 -2.3623976153453077 -0.014774556886481075 -0.0001708987689424487 0.0 0.0 0.0 0.0 0.0 0.0 0 30.875 32.0625 30.625 34.6875 36.875 37.125 0.713796 7 253 253 253 253 253 253 2 -0.1149216815829277 0.15322890877723694 -9.883264541625977 0.0 0.7 0.0 47.75763702392578 47.79166793823242 0.6053765416145325 47.670928955078125 47.599266052246094 47.6279296875 47.61359786987305 47.54193115234375 47.51326370239258 3840 1
7485.263 -2.5847040000000003 -1.3422660000000004 1.3616510000000004 -2.0764069999999997 -0.9269629999999998 -0.8488470000000001 0.0 0.0 0.0 0.0 0.0 0.0 0.0 0.0 0.0 0.0 0.0 0.0 -1.4663023039089083 -4.171872704767787 -1.7175416286015703 -0.36033006410115576 -2.0284366730767627e-06 0.0 -16.84657360809888 -44.44357184049244 -19.524135280389668 -2.620102378700853 -1.565580907647991e-05 0.0 -2.584728542958395 -1.3422683042338868 1.3616588751422327 -2.0764194927611292 -0.9270108381854456 -0.8488710562335413 0.0 0.0 -0.0 0.0 0.0 -0.0 -1.270307183265686 -4.398994445800781 -2.0247201919555664 -0.32520002126693726 -0.03137202560901642 0.006039587315171957 -1.4663023039089083 -4.171872704767787 -1.7175416286015703 -0.36033006410115576 -2.0284366730767627e-06 0.0 0.4158201356037766 0.5957284776874843 0.43662893135539427 -2.3624297192578125 -0.014761690331901193 -0.00023898718346496034 0.0 0.0 0.0 0.0 0.0 0.0 3.9236948003543706 -4.543428042611169 -0.458177095210194 0.13128179759643574 -0.03568624344073632 0.08670667462770508 0.41579760181408487 0.5957450246880537 0.43663590913558437 -2.3623976153453077 -0.014774556886481075 -0.0001708987689424487 0.0 0.0 0.0 0.0 0.0 0.0 0 30.875 32.0625 30.6875 34.6875 36.875 37.125 0.718272 7 253 253 253 253 253 253 2 -0.1149216815829277 0.17238251864910126 -10.093954086303711 0.0 0.7 0.0 47.74151611328125 47.76927947998047 0.5941867828369141 47.6995964050293 47.61359786987305 47.6279296875 47.584930419921875 47.54193115234375 47.48460006713867 3840 1
7485.362999999999 -2.5847040000000003 -1.3422660000000004 1.3616510000000004 -2.0764069999999997 -0.9269629999999998 -0.8488470000000001 0.0 0.0 0.0 0.0 0.0 0.0 0.0 0.0 0.0 0.0 0.0 0.0 -1.4661617112957879 -4.171876788001365 -1.7175173785201197 -0.3603253153195344 1.3393671323078653e-05 0.0 -16.84495831785527 -44.44361533977866 -19.52385961785962 -2.6200678484319084 0.00010337456616241535 0.0 -2.5846923033343714 -1.3422562640956421 1.3616836706744593 -2.0764080486693324 -0.9269626776324671 -0.848846737538473 0.0 0.0 -0.0 0.0 0.0 -0.0 -1.2198189496994019 -4.397274494171143 -2.027219533920288 -0.33217522501945496 -0.035200584679841995 0.0054078963585197926 -1.4661617112957879 -4.171876788001365 -1.7175173785201197 -0.3603253153195344 1.3393671323078653e-05 0.0 0.41578908681871146 0.5957489866752351 0.436610960579103 -2.3624190429629994 -0.014771192555891793 -0.00012322551704723635 0.0 0.0 0.0 0.0 0.0 0.0 3.9806636964875017 -4.600782463336323 -0.3709973498839605 0.13363849905512828 -0.038282568616708326 0.09267390506367568 0.41579760181408487 0.5957450246880537 0.43663590913558437 -2.3623976153453077 -0.014774556886481075 -0.0001708987689424487 0.0 0.0 0.0 0.0 0.0 0.0 0 30.875 32.0 30.6875 34.6875 36.875 37.125 0.715668 7 253 253 253 253 253 253 2 -0.17238251864910126 0.19153612852096558 -9.921571731567383 0.0 0.7 0.0 47.744205474853516 47.76838302612305 0.6299919486045837 47.670928955078125 47.6279296875 47.64226531982422 47.61359786987305 47.5562629699707 47.51326370239258 3840 1
7485.463 -2.5847040000000003 -1.3422660000000004 1.3616510000000004 -2.0764069999999997 -0.9269629999999998 -0.8488470000000001 0.0 0.0 0.0 0.0 0.0 0.0 0.0 0.0 0.0 0.0 0.0 0.0 -1.4663765320052182 -4.171793428846405 -1.7174952131440937 -0.36031871568151613 7.283867513499305e-06 0.0 -16.8474264261603 -44.442727302474026 -19.523607653195203 -2.6200198598542324 5.6218091815876045e-05 0.0 -2.584752384816305 -1.3422203820994874 1.3616951147662562 -2.0764318905272425 -0.9269388357745569 -0.848846737538473 0.0 0.0 -0.0 0.0 0.0 -0.0 -1.2669163942337036 -4.385618686676025 -2.018554449081421 -0.320024698972702 -0.03188781812787056 0.025538265705108643 -1.4663765320052182 -4.171793428846405 -1.7174952131440937 -0.36031871568151613 7.283867513499305e-06 0.0 0.41583050935164395 0.5957331780394294 0.4365878903157748 -2.3624138794349854 -0.01469826364772428 -0.00010983064790671128 0.0 0.0 0.0 0.0 0.0 0.0 3.7374923756781127 -4.344017272513529 -0.3549877676833266 0.11793469292154957 -0.039184954137864506 0.0877477577123184 0.41579760181408487 0.5957450246880537 0.43663590913558437 -2.3623976153453077 -0.014774556886481075 -0.0001708987689424487 0.0 0.0 0.0 0.0 0.0 0.0 0 30.875 32.0 30.6875 34.6875 36.875 37.125 0.707593 7 253 253 253 253 253 253 2 -0.13407529890537262 0.2298433631658554 -9.940725326538086 0.0 0.7 0.0 47.736141204833984 47.762115478515625 0.5360020399093628 47.65659713745117 47.599266052246094 47.599266052246094 47.584930419921875 47.54193115234375 47.48460006713867 3840 1
7485.563 -2.5847040000000003 -1.3422660000000004 1.3616510000000004 -2.0764069999999997 -0.9269629999999998 -0.8488470000000001 0.0 0.0 0.0 0.0 0.0 0.0 0.0 0.0 0.0 0.0 0.0 0.0 -1.4662408680179975 -4.171795182479614 -1.7175295033750047 -0.3603269109827357 6.988894526010634e-06 0.0 -16.84586776166077 -44.44274598418582 -19.523997447012103 -2.6200794511300067 5.394144160730097e-05 0.0 -2.5847166220294397 -1.342244343166687 1.3616951147662562 -2.0764194927611292 -0.926950756703512 -0.8488352934466761 0.0 0.0 -0.0 0.0 0.0 -0.0 -1.2557657957077026 -4.417724132537842 -2.024716854095459 -0.3162175118923187 -0.06341471523046494 0.016768980771303177 -1.4662408680179975 -4.171795182479614 -1.7175295033750047 -0.3603269109827357 6.988894526010634e-06 0.0 0.41580425836756235 0.595742131210035 0.43660008890777635 -2.362416601546261 -0.014727889409216325 -0.00010802945878620935 0.0 0.0 0.0 0.0 0.0 0.0 4.046884056126196 -4.543582183582391 -0.4052976596361746 0.12470412878486671 -0.037192483432729184 0.09638317991935055 0.41579760181408487 0.5957450246880537 0.43663590913558437 -2.3623976153453077 -0.014774556886481075 -0.0001708987689424487 0.0 0.0 0.0 0.0 0.0 0.0 0 30.875 32.0 30.6875 34.6875 36.875 37.125 0.72954 7 253 253 253 253 253 253 2 -0.13407529890537262 0.2106897532939911 -9.883264541625977 0.0 0.7 0.0 47.7244987487793 47.7639045715332 0.5673302412033081 47.670928955078125 47.61359786987305 47.61359786987305 47.61359786987305 47.5275993347168 47.47026824951172 3840 1
7485.663 -2.5847040000000003 -1.3422660000000004 1.3616510000000004 -2.0764069999999997 -0.9269629999999998 -0.8488470000000001 0.0 0.0 0.0 0.0 0.0 0.0 0.0 0.0 0.0 0.0 0.0 0.0 -1.4662741062508184 -4.1718442501520325 -1.7175450741278189 -0.3603360642280195 -2.028456785243073e-06 0.0 -16.846249640850573 -44.443268709297186 -19.524174447370815 -2.6201460079958645 -1.5655964305499406e-05 0.0 -2.5846923033343714 -1.342244343166687 1.3616836706744593 -2.0764080486693324 -0.926950756703512 -0.848846737538473 0.0 0.0 -0.0 0.0 0.0 -0.0 -1.241491436958313 -4.368368148803711 -2.01845645904541 -0.32343927025794983 -0.0510377436876297 0.01632874086499214 -1.4662741062508184 -4.1718442501520325 -1.7175450741278189 -0.3603360642280195 -2.028456785243073e-06 0.0 0.4157898646705273 0.5957522844885708 0.43660456192181185 -2.362416390878733 -0.014770088520007047 -0.0001018497362566494 0.0 0.0 0.0 0.0 0.0 0.0 4.352517058418526 -4.542795802289168 -0.10169410602710949 0.12583419973870413 -0.02924443241789989 0.09647573610020482 0.41579760181408487 0.5957450246880537 0.43663590913558437 -2.3623976153453077 -0.014774556886481075 -0.0001708987689424487 0.0 0.0 0.0 0.0 0.0 0.0 0 30.8125 32.0 30.6875 34.6875 36.875 37.125 0.71958 7 253 253 253 253 253 253 2 -0.1149216815829277 0.17238251864910126 -9.864110946655273 0.0 0.7 0.0 47.75047302246094 47.76838302612305 0.5852327942848206 47.6995964050293 47.6279296875 47.6279296875 47.61359786987305 47.54193115234375 47.498931884765625 3840 1
7485.763 -2.5847040000000003 -1.3422660000000004 1.3616510000000004 -2.0764069999999997 -0.9269629999999998 -0.8488470000000001 0.0 0.0 0.0 0.0 0.0 0.0 0.0 0.0 0.0 0.0 0.0 0.0 -1.4662942606981806 -4.171717084980527 -1.7175146056100898 -0.3603186541808553 -6.242174737956494e-06 0.0 -16.846481198408732 -44.44191400007296 -19.523828096835825 -2.6200194126586087 -4.817813502219924e-05 0.0 -2.5847166220294397 -1.342244343166687 1.3616836706744593 -2.0764433346190394 -0.9269626776324671 -0.848846737538473 0.0 0.0 -0.0 0.0 0.0 -0.0 -1.2631244659423828 -4.386061668395996 -2.025944232940674 -0.328328400850296 -0.05459650605916977 0.03067576140165329 -1.4662942606981806 -4.171717084980527 -1.7175146056100898 -0.3603186541808553 -6.242174737956494e-06 0.0 0.4158102401086633 0.5957430958516821 0.43660937942185046 -2.3624067610308535 -0.014752207558662063 -0.0001583221875086356 0.0 0.0 0.0 0.0 0.0 0.0 4.145573811108528 -4.580290856088036 -0.060589028272565404 0.12499753591185832 -0.0350450352004224 0.09211202393903309 0.41579760181408487 0.5957450246880537 0.43663590913558437 -2.3623976153453077 -0.014774556886481075 -0.0001708987689424487 0.0 0.0 0.0 0.0 0.0 0.0 0 30.8125 32.0 30.625 34.6875 36.875 37.125 0.672757 7 253 253 253 253 253 253 2 -0.07661445438861847 0.2298433631658554 -9.921571731567383 0.0 0.7 0.0 47.72808074951172 47.7639045715332 0.5583816170692444 47.670928955078125 47.584930419921875 47.599266052246094 47.64226531982422 47.5275993347168 47.498931884765625 3840 1
7485.862999999999 -2.584695929597539 -1.3422694868194096 1.361653519994492 -2.0764086408463758 -0.9269680650018577 -0.848840135774946 0.0010088003076527228 -0.00043585242613500307 0.00031499931143716956 -0.00020510579708115262 -0.0006331252322876918 0.0008580281317392708 0.08552113334772227 -0.03694942712909199 0.02670409387616146 -0.017387861690270734 -0.05367324633580783 0.07273940909208355 -1.3466112327349675 -4.371247648655296 -1.6678088561270683 -0.36582455123530133 -0.012182543484516008 0.019629685674760918 -16.49065922359292 -44.64215803160851 -19.491865822210833 -2.625230227552921 0.0037384596727727034 0.015408555446068908 -2.584776226674215 -1.342244417672493 1.361671272908346 -2.0764194927611292 -0.9269745985614222 -0.8488591353045862 0.0 -0.00019757699919864535 -0.0 0.0 0.0 -0.0 -1.1018707752227783 -4.567946434020996 -1.9729163646697998 -0.31434017419815063 -0.08112450689077377 0.04920591786503792 -1.3466112327349675 -4.371247648655296 -1.6678088561270683 -0.36582455123530133 -0.012182543484516008 0.019629685674760918 0.4158465646135363 0.5957159644461394 0.4366106419632632 -2.3624221253220608 -0.014687902321431407 -0.0001913097432067423 -4.5950651785820776e-05 -2.861117896295827e-05 0.00013196564788791205 0.00010441672485039458 -0.0001677313868336559 -7.397093123818017e-09 4.216822141801108 -4.847008297157331 -0.1785312181877261 0.12954997743551347 -0.030629691917080818 0.09181175349519612 0.4157927126937131 0.5957471363759251 0.4366364298056161 -2.3624000173821558 -0.014775448926845692 -0.00017025602663852464 -0.000611140450778723 0.0002639582142531335 6.508389953835212e-05 -0.0003010997136906446 2.373072557353324e-05 0.00010329970294931741 0 30.8125 32.0625 30.625 34.6875 36.875 37.125 0.804408 7 253 253 253 253 253 253 2 -0.15322890877723694 0.1149216815829277 -9.998186111450195 1.0 0.7 0.005147830760878017 47.67524337768555 47.71196365356445 0.5606174468994141 47.64226531982422 47.570594787597656 47.584930419921875 47.5562629699707 47.498931884765625 47.47026824951172 768 2
7485.963 -2.5826757808015257 -1.343142292613794 1.3622843142903673 -2.076819370527846 -0.9282359147100996 -0.8471219121739724 0.052681018142196834 -0.022760847111520634 0.016449721827715435 -0.01071092280120676 -0.03306271974285757 0.04480747600072341 0.6841690667817764 -0.2955954170327374 0.21363275100929127 -0.13910289352216457 -0.4293859706864626 0.5819152727366654 -0.45071432917444937 -5.173331658118234 -0.9763000510723121 -0.5999161078048554 -0.20451927952066506 0.2315208962619589 -13.938786993640244 -46.06657085327841 -19.26940669964414 -2.6619898299806244 0.028081872758283458 0.12326841086431196 -2.5827208201037806 -1.3432246160558243 1.362180534993307 -2.0768314800658167 -0.9282663504229944 -0.847140137349264 0.05076202005147934 -0.025544267147779465 0.015532471239566803 -0.012735857628285885 -0.03193250298500061 0.04269113019108772 -0.16847039759159088 -5.0481157302856445 -1.0232880115509033 -0.5209302306175232 -0.16849753260612488 0.27917248010635376 -0.45071432917444937 -5.173331658118234 -0.9763000510723121 -0.5999161078048554 -0.20451927952066506 0.2315208962619589 0.4145951227661602 0.5962482747882305 0.43687936483091255 -2.36291838525281 -0.015038203278237393 -0.000264601645754449 -0.03128507348555041 0.012873389734175296 0.006300604650705398 -0.011759372385348778 -0.004592904965741992 0.005480740302694104 4.565191825411089 -4.980772412461661 -0.38075737315854497 0.12028895005066002 -0.09539682913738233 0.10853183991352326 0.41456868936367663 0.5962743339819129 0.43676683498413554 -2.3630000946404155 -0.014998323592578251 -1.0739017206149779e-05 -0.031924980593415656 0.013712019326028575 0.0034025824714393115 -0.015662152681898203 0.0011940393294819773 0.005356465560260794 0 30.8125 32.0625 30.625 34.6875 36.875 37.125 0.801732 7 253 253 253 253 253 253 2 -0.40222588181495667 -0.07661445438861847 -9.921571731567383 1.0 0.7 0.2994075869889276 47.70658874511719 47.74151611328125 0.6501356363296509 47.64226531982422 47.570594787597656 47.599266052246094 47.584930419921875 47.498931884765625 47.4559326171875 768 2
7486.063 -2.573986833653397 -1.3468963544101094 1.3649974502281854 -2.078585977275578 -0.9336891165378178 -0.839731588210217 0.12109792482037446 -0.05232038881479415 0.037812996928644545 -0.024621212153423323 -0.07600131681150372 0.10299900327439014 0.6841690667817729 -0.2955954170327339 0.21363275100929127 -0.13910289352216457 -0.4293859706864592 0.5819152727366758 -0.35246617779010575 -5.204123978851983 -0.9503489338852242 -0.603853916320906 -0.219672865107666 0.24789983243145844 -13.650066075706066 -46.224372315892396 -19.2783809350477 -2.664176498967943 0.02330560391345618 0.12326825727426607 -2.5739110151873987 -1.347008765941002 1.3647578398333948 -2.07851042369985 -0.933690373097555 -0.8396919409381312 0.12088730186223984 -0.05022341012954712 0.039638690650463104 -0.025144577026367188 -0.07375457137823105 0.10047879815101624 -0.3175295889377594 -5.0057549476623535 -0.7952002882957458 -0.5878394246101379 -0.18273289501667023 0.2553822994232178 -0.35246617779010575 -5.204123978851983 -0.9503489338852242 -0.603853916320906 -0.219672865107666 0.24789983243145844 0.40924821690683116 0.5985371899964166 0.4375276836985258 -2.3654071665476977 -0.0161018641655964 0.0004220038816536825 -0.0734122414348706 0.031216582122792918 0.005802172151757143 -0.035520838226616544 0.00451037938359701 0.014578329942310689 4.702092605749883 -5.3739416894889835 -0.2536972801117434 0.12419996279643711 -0.08937642731567913 0.1229008119802458 0.40929958106051084 0.5985103071644073 0.43732939159677786 -2.365553970935666 -0.015947439901244618 0.0006444347403270939 -0.07348410487030796 0.03080584341343333 0.00785920330013472 -0.03538839385113568 0.0023036911622230927 0.01193968597636716 0 30.8125 32.0625 30.625 34.6875 36.875 37.125 0.762613 7 253 253 253 253 253 253 2 -0.40222588181495667 0.05746084079146385 -9.787496566772461 1.0 0.7 0.6920294681955703 47.6895751953125 47.7218132019043 0.6546126008033752 47.6279296875 47.54193115234375 47.570594787597656 47.5562629699707 47.48460006713867 47.427268981933594 768 2
7486.163 -2.5584561958374508 -1.3536063703767525 1.3698469136760965 -2.0817436129585314 -0.9434361780724005 -0.8265221115190942 0.18951483149855278 -0.08187993051806797 0.059176272029573866 -0.03853150150564002 -0.11893991388015031 0.16119053054805743 0.6841690667817868 -0.29559541703274433 0.21363275100929127 -0.13910289352216804 -0.4293859706864661 0.5819152727366689 -0.23572039661654698 -5.246651410177806 -0.9245100431191957 -0.6079643252561956 -0.2353422742457546 0.26427875927969346 -13.14464797833239 -46.49843147848947 -19.28866938362732 -2.66761821385364 0.014548123754434955 0.12326802995789331 -2.558495823537008 -1.3535753947547455 1.369803253804342 -2.081684728662008 -0.9434235731707972 -0.8266862074481409 0.1859973818063736 -0.0812707170844078 0.058091502636671066 -0.03813654184341431 -0.12016095966100693 0.1642252802848816 -0.1801634579896927 -5.139105796813965 -0.8333403468132019 -0.624305784702301 -0.15930865705013275 0.30593836307525635 -0.23572039661654698 -5.246651410177806 -0.9245100431191957 -0.6079643252561956 -0.2353422742457546 0.26427875927969346 0.3998924222079991 0.602368881765708 0.43833692255730217 -2.3700231183935188 -0.01773805356463447 0.0016503641269339827 -0.11269700535287455 0.044803610547188136 0.012394154312646616 -0.05451112288659017 0.0038505405810033144 0.011385839857358582 4.020691881328695 -5.512705534603632 -0.8432066888925549 0.10012213741843408 -0.08578519449670394 0.12833434647274 0.39986493701882914 0.6023793788412111 0.4383416509900512 -2.3700080078292283 -0.01760522311376433 0.0016926142724579293 -0.11524912621891845 0.04621623162937516 0.012405101942896856 -0.05363856223296249 0.0024096811657819683 0.017656664898787713 0 30.8125 32.0625 30.625 34.6875 36.875 37.125 0.834169 7 253 253 253 253 253 253 2 -0.4405331015586853 -0.1149216815829277 -10.074800491333008 1.0 0.7 1.081477872727498 47.6976318359375 47.72002029418945 0.6881819367408752 47.61359786987305 47.54193115234375 47.5562629699707 47.5275993347168 47.4559326171875 47.427268981933594 768 2
7486.263 -2.5360838673536863 -1.3632723405137233 1.3768327046341002 -2.086292277576706 -0.9574770993138477 -0.8074934821006048 0.2579317381767311 -0.11143947222134176 0.0805395471305032 -0.05244179085785671 -0.16187851094879688 0.21938205782172474 0.6841690667817868 -0.2955954170327374 0.2136327510092878 -0.13910289352216457 -0.42938597068645223 0.5819152727366828 -0.09892294431669398 -5.300639894838161 -0.8996524812544344 -0.6124429378452254 -0.2514428404364766 0.2806576956136531 -12.404841205331191 -46.885890772961034 -19.31044892526768 -2.673737283101699 0.0024629022921731636 0.12326787766863989 -2.5362167994128626 -1.3632572901299973 1.3768661657916468 -2.086271425286764 -0.9573910872088831 -0.8075416723834437 0.2601434588432312 -0.10915563255548477 0.08103921264410019 -0.05211341008543968 -0.16283337771892548 0.2160065472126007 -0.1618119180202484 -5.304719924926758 -0.911444365978241 -0.5798600316047668 -0.163099467754364 0.3386596143245697 -0.09892294431669398 -5.300639894838161 -0.8996524812544344 -0.6124429378452254 -0.2514428404364766 0.2806576956136531 0.38630440086955015 0.6076238132921422 0.4397926848034699 -2.376148359464136 -0.01980510426033107 0.0029869904201463558 -0.15800700106681215 0.06004857602542022 0.015104569071443667 -0.07196405673642281 0.0007966370333243322 0.026259580796571785 4.7561459740426635 -4.964279059071411 -0.20781815146322558 0.10794777076042072 -0.10199633947220113 0.10765616123978758 0.3862413278081477 0.60766605355612 0.43981508867434765 -2.376170360033215 -0.01990506403318692 0.0029343346042185335 -0.157263838951543 0.05900216494093976 0.01709131442507197 -0.06951076380814619 0.001054681005460495 0.022061638000975436 0 30.8125 32.0625 30.6875 34.6875 36.875 37.125 0.820764 7 253 253 253 253 253 253 2 -0.49799394607543945 0.13407529890537262 -9.979032516479492 1.0 0.7 1.465968068296173 47.69136428833008 47.71554183959961 0.7083203792572021 47.599266052246094 47.51326370239258 47.54193115234375 47.498931884765625 47.4559326171875 47.369937896728516 768 2
7486.362999999999 -2.506869848202104 -1.3758942648210217 1.3859548231021972 -2.0922319711301025 -0.9758118802621603 -0.7826456999547489 0.3263486448549094 -0.14099901392461558 0.10190282223143253 -0.06635208021007341 -0.2048171080174435 0.277573585095392 0.6841690667817868 -0.2955954170327374 0.21363275100930168 -0.13910289352216804 -0.42938597068648 0.581915272736655 0.05741412624413693 -5.366399848902003 -0.8755656815528632 -0.617254848446451 -0.26790449197429217 0.29703666023907793 -11.437423712407867 -47.38962433933661 -19.341254941653908 -2.6822798939899717 -0.012409235483249972 0.12326794915007491 -2.5070717970477503 -1.3758544486812134 1.3860142866717737 -2.0921741924681605 -0.9757383505450647 -0.7826493422137659 0.32573118805885315 -0.14117448031902313 0.09777729958295822 -0.06573662161827087 -0.20441965758800507 0.27272599935531616 0.1677406281232834 -5.173434734344482 -0.8556944727897644 -0.6054919958114624 -0.1926773488521576 0.3611011505126953 0.05741412624413693 -5.366399848902003 -0.8755656815528632 -0.617254848446451 -0.26790449197429217 0.29703666023907793 0.36851240871374263 0.6139933579718445 0.4417036165758952 -2.383798896861567 -0.022476590640890214 0.00421893230330207 -0.19880597722430499 0.06835930451636581 0.024399053304100207 -0.07957109662386753 -0.0081605250844424 0.027885266991099167 5.132986150799078 -5.418574670754753 -0.4134669801977191 0.09858033888885784 -0.0752228398934575 0.12009395572202136 0.36840538747484924 0.6140614905206683 0.4417663034690018 -2.383756034022227 -0.022748692453081126 0.004102303498165215 -0.1994778205579091 0.0682394016062207 0.021969204866196423 -0.08202313505579677 -0.0020682986280957105 0.024766888128590542 0 30.8125 32.0625 30.6875 34.6875 36.875 37.125 0.83178 7 253 253 253 253 253 253 2 -0.5554547905921936 0.0 -9.959878921508789 1.0 0.7 1.843741951905229 47.70748519897461 47.72897720336914 0.7239871025085449 47.599266052246094 47.54193115234375 47.570594787597656 47.5562629699707 47.47026824951172 47.427268981933594 768 2
7486.463 -2.470814138382704 -1.391472143298647 1.397213269080387 -2.0995626936187204 -0.9984405209173373 -0.7519787650815264 0.3947655515330877 -0.1705585556278894 0.12326609733236184 -0.08026236956229012 -0.24775570508609007 0.3357651123690593 0.6841690667817868 -0.2955954170327513 0.2136327510092878 -0.13910289352217498 -0.42938597068648 0.581915272736655 0.2336163052687912 -5.442349776301153 -0.8531662553209716 -0.6226957759885005 -0.2845996843944645 0.31341568704518846 -10.239602103903405 -47.99373288273123 -19.391823214847978 -2.6953963357824384 -0.02908388033925343 0.12326851244820418 -2.470975701008932 -1.39148464918647 1.3969300428973597 -2.0995356045165003 -0.9982875029193323 -0.7519353071795862 0.3939734101295471 -0.16723130643367767 0.12594527006149292 -0.08006694167852402 -0.2478388547897339 0.3307877480983734 0.22929008305072784 -5.328372001647949 -0.7867629528045654 -0.5980737805366516 -0.2230660617351532 0.39358267188072205 0.2336163052687912 -5.442349776301153 -0.8531662553209716 -0.6226957759885005 -0.2845996843944645 0.31341568704518846 0.3464414020724308 0.6211480167514571 0.4444025371980952 -2.3921118534616856 -0.02590864907754443 0.0047100074806514635 -0.24078793294555473 0.07312616287468902 0.023296613943884728 -0.09392258799448815 -0.005530054072639845 0.028275541482471217 5.368931033425448 -4.578585601773135 0.3980577183788543 0.12080427600517998 -0.08778196837107483 0.10658030885417642 0.34634480324943234 0.6211657487436731 0.4442170200893946 -2.3923786533713525 -0.026003777299396413 0.004884671561084718 -0.24171549853051016 0.07303260018632754 0.027089750033259353 -0.09010320870674887 -0.007053114422930412 0.025464260330474053 0 30.8125 32.0625 30.6875 34.6875 36.875 37.125 0.810361 7 253 253 253 253 253 253 2 -0.7086837291717529 0.2106897532939911 -9.653421401977539 1.0 0.7 2.213081684654466 47.67613983154297 47.70838165283203 0.8336543440818787 47.599266052246094 47.51326370239258 47.54193115234375 47.498931884765625 47.427268981933594 47.369937896728516 768 2
7486.563 -2.427916737895486 -1.4100059759466 1.4106080425686698 -2.1082844450425604 -1.0253630212793787 -0.7154926774809365 0.463182458211266 -0.2001180973311632 0.14462937243329116 -0.09417265891450681 -0.29069430215473663 0.39395663964272665 0.6841690667817868 -0.2955954170327374 0.2136327510092878 -0.1391028935221611 -0.42938597068645223 0.5819152727367105 0.42871682602036887 -5.526012289516058 -0.8310493878538338 -0.6284066623058727 -0.301504053350166 0.32979479650534116 -8.823888523828852 -48.67347566279068 -19.445704832133693 -2.710475754578056 -0.047372984225204195 0.12326972949656646 -2.428106133137838 -1.4098893117955704 1.4107821623431605 -2.108309408227438 -1.0251792112933558 -0.7155087629901331 0.4633568823337555 -0.20292939245700836 0.14407478272914886 -0.09346392005681992 -0.2894269824028015 0.38818439841270447 0.3937271237373352 -5.286565780639648 -0.9273138642311096 -0.6166425943374634 -0.2314525991678238 0.4119994044303894 0.42871682602036887 -5.526012289516058 -0.8310493878538338 -0.6284066623058727 -0.301504053350166 0.32979479650534116 0.3201658540567515 0.628460844698074 0.44704083872711875 -2.401595999146034 -0.029263346503189604 0.0052743140488917635 -0.2846170904799943 0.07225323637478397 0.03465253178700691 -0.0901234660506227 -0.018914028346905476 0.029081830198401992 4.385680448596911 -3.786514552158084 0.1785611445508659 0.11432365533704243 -0.08919810364324954 0.15158071842826099 0.3200722538822015 0.6284914950487824 0.4471939834542222 -2.4015416191362813 -0.029501009117434817 0.004957570964555682 -0.2836482805751269 0.07253262672104584 0.0325020549071338 -0.09259487018599201 -0.013712340099485798 0.02394693274421078 0 30.8125 32.0625 30.6875 34.6875 36.875 37.125 0.836952 7 253 253 253 253 253 253 2 -0.26815059781074524 0.5937620401382446 -10.20887565612793 1.0 0.7 2.572326868897205 47.685096740722656 47.70121383666992 0.9052700400352478 47.570594787597656 47.51326370239258 47.51326370239258 47.47026824951172 47.41293716430664 47.38426971435547 768 2
7486.663 -2.3781776467404514 -1.4314957627648788 1.426139143567045 -2.1183972254016217 -1.0565793813482838 -0.6731874371529809 0.5315993648894426 -0.22967763903443625 0.16599264753421997 -0.10808294826672316 -0.33363289922338213 0.4521481669163924 0.684169066781759 -0.29559541703270964 0.2136327510092878 -0.1391028935221611 -0.42938597068645223 0.5819152727366272 0.6296034770857685 -5.616588311724307 -0.8116585826631196 -0.6350951392564316 -0.31851127622663306 0.3461740454045798 -7.195257825947025 -49.420738518484775 -19.53152245677655 -2.7326636214289235 -0.06645593164970384 0.12327204943515299 -2.3784335295306605 -1.431392104630806 1.4259198347674769 -2.1183396778502406 -1.0564168135272425 -0.6735289732562464 0.5298108458518982 -0.22890061140060425 0.16626562178134918 -0.10779575258493423 -0.3342245817184448 0.45631662011146545 0.6104668378829956 -5.380542278289795 -0.7488710880279541 -0.6169763207435608 -0.22210673987865448 0.4122406244277954 0.6296034770857685 -5.616588311724307 -0.8116585826631196 -0.6350951392564316 -0.31851127622663306 0.3461740454045798 0.28980923736813924 0.6354491338937991 0.45079603821730135 -2.4104883352403226 -0.033210737947346 0.00385584911506148 -0.32342310707605076 0.0655701770497697 0.03746863420569112 -0.08966453393102855 -0.01803643795919513 0.014952062342318884 6.0075858680196 -4.577573675948934 0.42962579266898304 0.10351890891809754 -0.08303253415862133 0.12650090202867 0.28964193701146335 0.6354697407429465 0.4507286575935529 -2.410630534783306 -0.03303092067063441 0.004028127370739032 -0.32477083729773804 0.06595994827559785 0.03825089572850977 -0.08828832679289707 -0.02150567884599852 0.020131168672986532 0 30.8125 32.0625 30.6875 34.6875 36.875 37.125 0.813096 7 253 253 253 253 253 253 2 -0.7086837291717529 0.49799394607543945 -10.055646896362305 1.0 0.7 2.919896032157985 47.65284729003906 47.674346923828125 0.9522649645805359 47.54193115234375 47.47026824951172 47.48460006713867 47.44160079956055 47.369937896728516 47.32693862915039 768 2
7486.763 -2.3215968649175998 -1.4559415037534862 1.4438065720755129 -2.129901034695905 -1.0920896011240533 -0.6250630440976597 0.6000162715676183 -0.2592371807377089 0.18735592263514844 -0.1219932376189393 -0.37657149629202696 0.5103396941900574 0.6841690667818145 -0.2955954170327235 0.2136327510092878 -0.1391028935221611 -0.4293859706864245 0.581915272736655 0.8331290903357557 -5.709727214723664 -0.7935633103050086 -0.6425341435669147 -0.3354657632731808 0.36148072593603103 -5.3672391434381455 -50.192423596298276 -19.63252926071751 -2.760308869489219 -0.08513185523379382 0.12327573767970192 -2.321932617818014 -1.455817924146988 1.4439356962787073 -2.129827161828512 -1.0918768087970179 -0.6251662413226526 0.6017407178878784 -0.2600077986717224 0.18644282221794128 -0.12092820554971695 -0.37459880113601685 0.5057786703109741 0.7029094099998474 -5.496227264404297 -0.8001857399940491 -0.640710711479187 -0.2679910957813263 0.4552335739135742 0.8331290903357557 -5.709727214723664 -0.7935633103050086 -0.6425341435669147 -0.3354657632731808 0.36148072593603103 0.2553462154056199 0.6414015258374639 0.4547055888367336 -2.4190272360470204 -0.036036536114973663 0.0021724374491212443 -0.3660605500946424 0.0532156583270111 0.04536206459420828 -0.07459461907652983 -0.031748489680763825 0.02035014584218997 4.947114770478311 -3.2984001127971068 0.5777021319335847 0.12252244272659688 -0.06822811219077857 0.14538352762010623 0.25516820979284494 0.6414582491840314 0.45485662208900157 -2.4189095210449048 -0.036340846021810855 0.0018887090756507445 -0.3643827726261434 0.05263473805186443 0.04437309662343102 -0.07597840761490444 -0.029469264323249866 0.014077534462710872 0 30.8125 32.0625 30.625 34.6875 36.875 37.125 0.835585 7 253 253 253 253 253 253 2 -0.4596867263317108 0.7661445140838623 -10.017339706420898 1.0 0.7 3.2543130454363123 47.645687103271484 47.681514739990234 1.1201115846633911 47.5562629699707 47.48460006713867 47.47026824951172 47.44160079956055 47.35560607910156 47.31260681152344 768 2
7486.862999999999 -2.2581743924269313 -1.4833431989124195 1.4636103280940735 -2.142795872925409 -1.1318936806066873 -0.5711194983149728 0.6684331782457937 -0.28879672244098153 0.20871919773607692 -0.13590352697115543 -0.41951009336067197 0.5685312214637225 0.6841690667817035 -0.2955954170327235 0.2136327510092878 -0.1391028935221611 -0.42938597068648 0.5819152727367105 1.0520442828150474 -5.803870325851837 -0.7784738298962485 -0.6512231675485176 -0.3523069026104472 0.3718181097585244 -3.366517589708216 -50.97310471334214 -19.768772986452344 -2.797043504864153 -0.10293294248736524 0.12328127189291996 -2.25854999223818 -1.4832366493395348 1.463320557271139 -2.142766138116354 -1.131634537373678 -0.5714653174029749 0.6687630414962769 -0.28852227330207825 0.20977266132831573 -0.13766495883464813 -0.4188777506351471 0.5715444087982178 0.9916021823883057 -5.678262710571289 -0.6203705072402954 -0.6022981405258179 -0.2762039601802826 0.4719359874725342 1.0520442828150474 -5.803870325851837 -0.7784738298962485 -0.6512231675485176 -0.3523069026104472 0.3718181097585244 0.21707351099927896 0.6457464647656235 0.45973861736291477 -2.4252699216665845 -0.03923722512797915 -0.001698392812309421 -0.4018566694582505 0.03243981233498309 0.050505334603934054 -0.05399173552035599 -0.03387681388551389 0.004470168090508264 4.423723354374659 -3.237561603649934 0.9769061181722127 0.13807908785653245 -0.06557254569310801 0.17670925016854708 0.21684573589939363 0.6457533050069162 0.45961654053779527 -2.425524836431276 -0.039132588774657154 -0.0015178657301540938 -0.40157707132510634 0.03201403885335271 0.050892567305117396 -0.0545557284827337 -0.03615301929590681 0.006010780212320044 0 30.8125 32.0625 30.625 34.6875 36.875 37.125 0.820416 7 253 253 253 253 253 253 2 -0.4405331015586853 1.2832920551300049 -9.825803756713867 1.0 0.7 3.574238934856341 47.625980377197266 47.651058197021484 1.1827785968780518 47.498931884765625 47.41293716430664 47.44160079956055 47.369937896728516 47.32693862915039 47.22661209106445 768 2
7486.963 -2.18836756758581 -1.513503255106869 1.4854076070914726 -2.156988755641768 -1.1757045932893346 -0.5117457857509429 0.7140837399501608 -0.30852005908386004 0.22297364967716998 -0.14518504163223125 -0.4481604835953769 0.6073589913156031 0.14093842512402643 -0.060892481951041466 0.04400822098518664 -0.028655114203607335 -0.0884532572680563 0.11987420372699953 1.0984055596261115 -5.757461436643033 -0.7924276485330718 -0.6548095246443765 -0.3658800087732198 0.3663412740451603 -3.184951514352099 -50.41837270225612 -20.141290526749117 -2.8054750083583744 -0.13284025509487626 0.025410238773139294 -2.1886833349811 -1.5133323085359116 1.4853280226336878 -2.156877180139059 -1.1754463354693812 -0.5123217741595667 0.7151480317115784 -0.30744436383247375 0.2204018384218216 -0.14563745260238647 -0.4482153356075287 0.6149894595146179 1.1609797477722168 -5.755478858947754 -0.674565315246582 -0.6493311524391174 -0.2581486403942108 0.5291721820831299 1.0984055596261115 -5.757461436643033 -0.7924276485330718 -0.6548095246443765 -0.3658800087732198 0.3663412740451603 0.17541492425705785 0.6476081313438041 0.4649491369331184 -2.429542330201886 -0.04141830723472258 -0.005974874972788739 -0.42215773964267883 0.004701577807532317 0.05697468076416881 -0.021374483185643802 -0.034606837824060876 -0.008173721256172939 3.5100607873997847 -3.2213241680809537 0.29178887035161893 0.11471233998548012 -0.06624564639809451 0.22152956464660134 0.1752405385879723 0.6476031758167544 0.46501268026927245 -2.429505212031515 -0.0410529955292302 -0.005993669015759374 -0.42184319578783214 0.0038162612361201335 0.05601707775173495 -0.022651961652836478 -0.038369551034699745 -0.003489680134502293 0 30.8125 32.0625 30.625 34.6875 36.875 37.125 0.83796 7 253 253 253 253 253 253 2 -0.2106897532939911 1.072602391242981 -10.304643630981445 0.9741424885252771 0.7 3.7610524840136472 47.61882019042969 47.64031219482422 1.2096351385116577 47.47026824951172 47.38426971435547 47.39860534667969 47.35560607910156 47.28394317626953 47.2122802734375 768 2
7487.063 -2.1162539230931525 -1.5446599733107869 1.5079251937615905 -2.171650652968612 -1.2209632709227307 -0.45041002367042093 0.7286305328857746 -0.31480500462300576 0.22751590618083756 -0.14814264536946234 -0.45729008197727183 0.6197316655412731 0.14996207096446001 -0.06479115040139427 0.04682586705927194 -0.030489770734387633 -0.09411651671142884 0.1275492033510628 1.305027369281653 -5.814694145931768 -0.8025283209414134 -0.6628504175470757 -0.36927566229940234 0.3687452413377146 -0.9162353258682525 -50.95081060936868 -20.32635125267509 -2.8583204279353014 -0.13519643244465235 0.027041038343424875 -2.116655174885885 -1.544473472317197 1.5080798308001917 -2.171584268609518 -1.2207420508014124 -0.45088273683656865 0.7280858159065247 -0.3124656677246094 0.22793875634670258 -0.14475029706954956 -0.45643994212150574 0.623970091342926 1.4334791898727417 -5.849535942077637 -0.9434814453125 -0.7203106880187988 -0.27280786633491516 0.49641382694244385 1.305027369281653 -5.814694145931768 -0.8025283209414134 -0.6628504175470757 -0.36927566229940234 0.3687452413377146 0.13332832011117585 0.6464405110152193 0.4705415878675724 -2.430233879149884 -0.041825740275422255 -0.010694206486735225 -0.42045359145151107 -0.02661120482595061 0.05637839109999427 0.00897201528344134 -0.027921732819351064 -0.015601123576605536 3.929523933796096 -4.3383763143675225 -0.9268221407871935 0.07204501730334816 -0.06951290219219385 0.20303870030313156 0.13310339270041324 0.6464509008525949 0.47075178291500364 -2.4299789956406763 -0.041740293145934 -0.010806882300318968 -0.4207028495444894 -0.02697106308445212 0.058798140611368795 0.014207114793697115 -0.034234994941719554 -0.01237738198580185 0 30.8125 32.0625 30.625 34.6875 36.875 37.0625 0.817441 7 253 253 253 253 253 253 2 -0.363918662071228 0.40222588181495667 -10.438719749450684 0.9939870085410244 0.7 3.7758863793043833 47.60896682739258 47.610755920410156 1.2364916801452637 47.427268981933594 47.34127426147461 47.369937896728516 47.31260681152344 47.240943908691406 47.18361282348633 768 2
7487.163 -2.0431714132767027 -1.5762352900210388 1.5307453099884056 -2.1865095366494396 -1.2668300105070687 -0.38825019988276566 0.7185929308848543 -0.3104682561590226 0.22438165087303807 -0.146101834771404 -0.4509904614773227 0.6111942525105102 -0.6841690667817035 0.2955954170327235 -0.2136327510092878 0.1391028935221611 0.42938597068648 -0.5819152727365995 1.2343989781848388 -5.65338802033183 -0.853740072669461 -0.6626758982747496 -0.36892220405335374 0.3482271732437264 -1.6517175003623406 -49.38267070329229 -20.881242850550862 -2.8609314846784875 -0.14892680523891916 -0.12325127629780748 -2.043600861226217 -1.5761281452574671 1.5304940382586878 -2.1863934002318324 -1.2665985266314905 -0.38873225847353154 0.7210828065872192 -0.31051889061927795 0.22751852869987488 -0.1491590291261673 -0.45015111565589905 0.6156183481216431 1.1994355916976929 -5.39695405960083 -0.8024237155914307 -0.6480996608734131 -0.2855157256126404 0.4968952536582947 1.2343989781848388 -5.65338802033183 -0.853740072669461 -0.6626758982747496 -0.36892220405335374 0.3482271732437264 0.09173425492762777 0.6422496935697498 0.4768036005516012 -2.4266292630203288 -0.04123621969658488 -0.015390871103833085 -0.4049133546108652 -0.05565900118283286 0.05833128521235397 0.05066484994494216 -0.020625856713807122 -0.019659166536311945 2.5194614875069017 -3.0669832767886156 0.7034260708606552 0.1187881952212582 -0.05544675207365915 0.2723504150502689 0.09149140674535977 0.6422323342108864 0.47672752799898066 -2.4267358681685574 -0.041070554600547704 -0.015223348062220227 -0.40305687443026467 -0.05612713570945038 0.059503731703346704 0.05052536074699556 -0.024181066753589553 -0.019369785294009734 0 30.8125 32.0625 30.625 34.6875 36.875 37.0625 0.833281 7 253 253 253 253 253 253 2 0.3064578175544739 0.9002197980880737 -10.017339706420898 1.0 0.7 3.668517697804995 47.657325744628906 47.67255783081055 1.2790096998214722 47.498931884765625 47.427268981933594 47.44160079956055 47.39860534667969 47.32693862915039 47.26960754394531 768 2
7487.263 -1.9747329655221284 -1.6058041385517772 1.5521153113206623 -2.200424205658969 -1.3097821268013679 -0.3300403509953993 0.6501760242066787 -0.28090871445574994 0.2030183757721096 -0.13219154541918787 -0.40805186440867786 0.5530027252368451 -0.684169066781759 0.2955954170327235 -0.2136327510092878 0.1391028935221611 0.42938597068645223 -0.581915272736655 1.3669033407844335 -5.645335362803818 -0.8988374382531135 -0.6672086181910785 -0.35151435123268027 0.3378899913124307 0.4000781235018145 -49.449988566060135 -21.097028880703398 -2.9203373773606827 -0.12675172977312033 -0.12325521365727177 -1.9752252737628382 -1.6055623493590296 1.551901642476217 -2.200371881524557 -1.3094576040851038 -0.3304708639727991 0.6500492691993713 -0.28372469544410706 0.20182032883167267 -0.1345750093460083 -0.41015851497650146 0.5541052222251892 1.5090267658233643 -5.461044788360596 -0.641083300113678 -0.6276480555534363 -0.2916841208934784 0.4638046324253082 1.3669033407844335 -5.645335362803818 -0.8988374382531135 -0.6672086181910785 -0.35151435123268027 0.3378899913124307 0.05397834024794206 0.635699524920277 0.48244662498962876 -2.4203735940449462 -0.039236752469840624 -0.01836471527916657 -0.3526993970817906 -0.07499977798518198 0.05789522379742666 0.08064671191695273 -0.013363185506091668 -0.024491032439801608 2.845588100372255 -2.97399004236466 1.1881916397843442 0.13281970844496896 -0.012812848729206322 0.269805414506252 0.0537063729723768 0.6356223602701255 0.4824569769855527 -2.4203942123654185 -0.03918478201434763 -0.018356928674084765 -0.3529869954002437 -0.07460772366690038 0.05500201615379081 0.07557187820889527 -0.01002508428380361 -0.022253134271443875 0 30.8125 32.0625 30.625 34.6875 36.875 37.0625 0.807264 7 253 253 253 253 253 253 2 0.26815059781074524 1.149216890335083 -9.825803756713867 1.0 0.7 3.269518487169509 47.656429290771484 47.67524337768555 1.2118710279464722 47.498931884765625 47.41293716430664 47.427268981933594 47.38426971435547 47.32693862915039 47.26960754394531 768 2
7487.362999999999 -1.9131362084353691 -1.6324170329121888 1.5713489851428268 -2.212947845733277 -1.3484403833888035 -0.2776496548353977 0.5817591175285004 -0.2513491727524762 0.1816551006711803 -0.11828125606697121 -0.3651132673400313 0.4948111979631779 -0.6841690667818701 0.2955954170327513 -0.21363275100931556 0.1391028935221611 0.42938597068648 -0.581915272736766 1.4713552994005825 -5.6222716843938825 -0.9424233625663894 -0.6712158271836849 -0.3340216829527773 0.3270130384801008 2.124394124900882 -49.36920822739055 -21.295134082609955 -2.9759220723176405 -0.10392203459252007 -0.12326012446762981 -1.9135144392596644 -1.6322256527342738 1.5713923613177698 -2.2128411732115687 -1.3481867949115198 -0.2776678244220179 0.5821341276168823 -0.2504405379295349 0.18046611547470093 -0.1197512224316597 -0.3682807981967926 0.48972466588020325 1.495191216468811 -5.5650482177734375 -0.8818322420120239 -0.6738213300704956 -0.241815984249115 0.4079424738883972 1.4713552994005825 -5.6222716843938825 -0.9424233625663894 -0.6712158271836849 -0.3340216829527773 0.3270130384801008 0.021006302203061232 0.6276265623784525 0.48755650379262716 -2.4123281186538224 -0.03607428314677338 -0.019656840972003847 -0.30460195515978955 -0.084453019237179 0.05045463188263438 0.09124377470207733 -0.0032432937708966603 -0.02060498843234493 3.483896855884865 -3.417198424616715 0.4788624503425163 0.08995119345488914 -0.026894893611174767 0.27874544011594304 0.020815164867217475 0.6275805950753637 0.48771290714995774 -2.412062995580273 -0.0364438490863893 -0.019911938591587096 -0.3052720741755261 -0.08499071431039867 0.0500494246995577 0.09057563618418119 0.0032220116321017844 -0.0227438842039992 0 30.8125 32.0625 30.625 34.6875 36.875 37.0625 0.82548 7 253 253 253 253 253 253 2 0.3447650372982025 0.8044517636299133 -10.017339706420898 1.0 0.7 2.886457284740738 47.656429290771484 47.66360092163086 1.0865422487258911 47.48460006713867 47.39860534667969 47.44160079956055 47.38426971435547 47.32693862915039 47.28394317626953 768 2
7487.463 -1.858381142016425 -1.6560739731022736 1.588446331454899 -2.2240804568723638 -1.3828047802693755 -0.2310781114027609 0.5133422108503195 -0.22178963104920124 0.16029182557025012 -0.10437096671475393 -0.322174670271383 0.43661967068950835 -0.6841690667818145 0.2955954170327374 -0.21363275100930168 0.13910289352218191 0.42938597068648 -0.5819152727366828 1.5499719584650917 -5.58956782493742 -0.9851908226645093 -0.6748333911743241 -0.31662054591877553 0.3106333918881081 3.549092042361222 -49.19328400125923 -21.483684079594894 -3.0286735043908877 -0.08179879267683647 -0.12326558994783875 -1.8586157003985804 -1.656050821343893 1.5881417433368128 -2.224027772943014 -1.3825739065753382 -0.23149520555605108 0.5166776180267334 -0.22502057254314423 0.16233691573143005 -0.1023205891251564 -0.3223515748977661 0.44268304109573364 1.3824561834335327 -5.243551254272461 -0.8940795063972473 -0.6922640204429626 -0.27587655186653137 0.3599218726158142 1.5499719584650917 -5.58956782493742 -0.9851908226645093 -0.6748333911743241 -0.31662054591877553 0.3106333918881081 -0.007343346211648788 0.6188894057220381 0.4926275080367234 -2.4024029727378227 -0.03352932448922807 -0.02010375933352809 -0.2628045175641209 -0.09002549485157788 0.04486844866629171 0.09609598384926651 0.01847155369792125 -0.02287379353609298 1.9495322232978747 -4.686712572797958 0.29895332969145105 0.08682035009812406 -0.01650943604125696 0.3523883348419836 -0.00744035568982797 0.6188502893762358 0.49245494983007826 -2.402671524043032 -0.0331791235644392 -0.019990814006011787 -0.2603181353321803 -0.0885875226151951 0.044739163477042994 0.09699273235882988 0.014170735070306528 -0.021620245368479507 0 30.8125 32.0625 30.625 34.6875 36.875 37.0625 0.805921 7 253 253 253 253 253 253 2 0.8619126081466675 0.4213795065879822 -9.768342971801758 1.0 0.7 2.5171963900850423 47.63045883178711 47.65016555786133 1.0194035768508911 47.48460006713867 47.41293716430664 47.44160079956055 47.38426971435547 47.31260681152344 47.28394317626953 768 2
7487.563 -1.8104677662653001 -1.6767749591220316 1.6034073502568784 -2.2338220390762284 -1.412875317443083 -0.19032572069749154 0.44492530417213844 -0.19223008934592622 0.13892855046931993 -0.0904606773625367 -0.2792360732027348 0.3784281434158388 -0.6841690667817868 0.29559541703277903 -0.21363275100932944 0.13910289352218191 0.4293859706864245 -0.5819152727366828 1.5825983891819462 -5.548856445989202 -1.0246741025784871 -0.6773256743756206 -0.2994715709980021 0.29425373968437496 4.700745053645047 -48.93826015259098 -21.633692113164187 -3.0732425748834618 -0.06162177957540266 -0.12327109981397834 -1.810742203389303 -1.676690240899557 1.6035421530352991 -2.233792921105856 -1.412762467061178 -0.19047195116151983 0.44477251172065735 -0.19194906949996948 0.1405869424343109 -0.08905801922082901 -0.2813953459262848 0.38006433844566345 1.6853920221328735 -5.403889179229736 -1.0276764631271362 -0.6849848628044128 -0.17864231765270233 0.358568400144577 1.5825983891819462 -5.548856445989202 -1.0246741025784871 -0.6773256743756206 -0.2994715709980021 0.29425373968437496 -0.031203030568852572 0.6100740162637812 0.4965131451038709 -2.3932275858120837 -0.029560852685914966 -0.018855417285726244 -0.2177278427194126 -0.08679929238067073 0.03754675762542336 0.09263288397274655 0.022195702308972387 -0.022292840242928214 4.583069545459779 -4.604560993519626 -0.3165519045816043 0.08697252770412955 -0.06619101545398642 0.25722509183028475 -0.03134579492373436 0.6100494204829681 0.49665163812697094 -2.393001803419567 -0.029686329733379795 -0.018863716251172932 -0.21827740994177364 -0.0865901865381298 0.03915545220295064 0.09628770138053924 0.021989861061495142 -0.019475569826952532 0 30.8125 32.0625 30.625 34.6875 36.875 37.0625 0.827088 7 253 253 253 253 253 253 2 -0.09576806426048279 0.15322890877723694 -10.017339706420898 1.0 0.7 2.159726158879213 47.6367301940918 47.661808013916016 1.039547324180603 47.48460006713867 47.4559326171875 47.47026824951172 47.41293716430664 47.34127426147461 47.31260681152344 768 2
7487.663 -1.769396081181993 -1.694519990971461 1.6162320415487645 -2.242172592344872 -1.4386519949099252 -0.1553924827195896 0.37650839749395737 -0.1626705476426513 0.11756527536838979 -0.07655038801031946 -0.23629747613408644 0.3202366161421691 -0.6841690667818701 0.2955954170327374 -0.21363275100929474 0.1391028935221611 0.42938597068650775 -0.5819152727367383 1.5896080012947982 -5.506450766411289 -1.063445689131923 -0.6792924718672723 -0.28250953145448304 0.2778741087439121 5.620205777284426 -48.666404565270774 -21.775369470702472 -3.113990630992325 -0.042887564573007894 -0.12327644149877456 -1.769627873097555 -1.6944080791869105 1.615988556538717 -2.2421213589110316 -1.4384177366839808 -0.1553595701800745 0.3782791197299957 -0.16414906084537506 0.1210288256406784 -0.0781857967376709 -0.23788493871688843 0.3174057900905609 1.5642106533050537 -5.14979887008667 -1.065022587776184 -0.6717706918716431 -0.258493572473526 0.32321253418922424 1.5896080012947982 -5.506450766411289 -1.063445689131923 -0.6792924718672723 -0.28250953145448304 0.2778741087439121 -0.051099687254251 0.601752087337375 0.5003611151143436 -2.383585728271798 -0.02602382781840746 -0.016732598076753702 -0.17993214933980306 -0.08075859524972698 0.03239746083102382 0.08921792305035905 0.02331869764801775 -0.01398275895183268 1.8888925890119985 -4.288984795928238 0.20309955388749845 0.10654815785305832 -0.03681276569713743 0.3361933367336993 -0.051191401862359466 0.601683061148857 0.5002793549013939 -2.383693249442775 -0.02622316536511433 -0.016894757391506237 -0.17909828272365105 -0.08006440391132459 0.03337074193994719 0.0898425722998906 0.026313224862207274 -0.016744453339242737 0 30.8125 32.0 30.625 34.6875 36.875 37.0625 0.809604 7 253 253 253 253 253 253 2 0.7661445140838623 0.3064578175544739 -9.672574996948242 1.0 0.7 1.812165696124763 47.694053649902344 47.700321197509766 0.9186956286430359 47.570594787597656 47.498931884765625 47.51326370239258 47.498931884765625 47.41293716430664 47.369937896728516 768 2
7487.763 -1.7351660867665046 -1.7093090686505628 1.6269204053305575 -2.249132116678293 -1.460134812669903 -0.12627839746905511 0.3080914908157763 -0.13311100593937628 0.09620200026745956 -0.06264009865810219 -0.19335887906543822 0.26204508886849953 -0.6841690667818701 0.2955954170327374 -0.21363275100932944 0.13910289352218191 0.42938597068643836 -0.581915272736655 1.5790315817462515 -5.462369867555001 -1.0993235412980258 -0.6801287195367223 -0.26596085080268594 0.26149454709946074 6.338293458927874 -48.37788522716003 -21.883056253113065 -3.146518012299102 -0.027343721729999493 -0.12328123508837141 -1.73537522951235 -1.709278245965475 1.6269219557391565 -2.249038358727926 -1.4600566069232386 -0.12634021440614873 0.30973169207572937 -0.13166220486164093 0.10000007599592209 -0.06467800587415695 -0.19465307891368866 0.2597963809967041 1.5560318231582642 -5.287999629974365 -1.1553149223327637 -0.676546037197113 -0.20291432738304138 0.31602001190185547 1.5790315817462515 -5.462369867555001 -1.0993235412980258 -0.6801287195367223 -0.26596085080268594 0.26149454709946074 -0.0671489244815899 0.5941714403965828 0.5032809087142127 -2.3753727729227334 -0.022861962413724367 -0.01449539701667531 -0.14316976882939458 -0.06964686524544624 0.024674100275160975 0.07557490217726771 0.02514167704521228 -0.01135439538849689 3.188158338302903 -4.6479258858295465 -0.27863629240146803 0.09816262274711421 -0.06526620600706654 0.2936499451107786 -0.06725390163408834 0.5941559821000494 0.5033210832463246 -2.3752545722522216 -0.02300860754438776 -0.01448276029011687 -0.14256856288949182 -0.06995148095772431 0.027444499053446963 0.07890506820304817 0.027147833352584805 -0.013728261194251079 0 30.8125 32.0 30.625 34.6875 36.875 37.0625 0.826237 7 253 253 253 253 253 253 2 0.26815059781074524 -0.019153613597154617 -9.864110946655273 1.0 0.7 1.472757139010696 47.703006744384766 47.70658874511719 0.9209314584732056 47.584930419921875 47.51326370239258 47.5275993347168 47.498931884765625 47.427268981933594 47.38426971435547 768 2
7487.862999999999 -1.7077777830188348 -1.7211421921593377 1.6354724416022572 -2.2547006120764923 -1.4773237707230145 -0.10298346494588717 0.2396745841375954 -0.10355146423610126 0.07483872516652942 -0.048729809305884955 -0.15042028199678983 0.20385356159482998 -0.6841690667817729 0.2955954170327721 -0.2136327510092878 0.13910289352218191 0.4293859706865216 -0.5819152727366689 1.5529298763543713 -5.421075150695773 -1.1334169134043468 -0.6801098762197895 -0.24975348562563873 0.24511507504142174 6.879086277448439 -48.1167834729392 -21.969778202040004 -3.1728276889216582 -0.0144342080619944 -0.12328532009631478 -1.7079132238971155 -1.721114297906393 1.6355741659747522 -2.254684110681051 -1.4772375265704554 -0.10316640535463506 0.23847874999046326 -0.1031564325094223 0.0739058181643486 -0.05084731802344322 -0.15306323766708374 0.2070261538028717 1.5498535633087158 -5.134706020355225 -1.3112932443618774 -0.668752908706665 -0.16600236296653748 0.2798744738101959 1.5529298763543713 -5.421075150695773 -1.1334169134043468 -0.6801098762197895 -0.24975348562563873 0.24511507504142174 -0.0797241523352328 0.5877967445248455 0.5056817467876837 -2.368216027292329 -0.020312502807187726 -0.01204302374002298 -0.10694275250386007 -0.0565712071930327 0.022267941484360412 0.0669649950687394 0.024724255533797646 -0.015915069200717197 3.1054259661212504 -4.39062684423827 0.23521632805350157 0.10282506140039256 -0.08488279084059613 0.29807871709469846 -0.0797823364287187 0.5877846935273339 0.5057651018882218 -2.368078860206537 -0.02022321914077055 -0.01201577170432072 -0.10835244184465777 -0.05707731949590855 0.021423274208846994 0.06456771659891176 0.024789710584885064 -0.010619426493111789 0 30.8125 32.0 30.625 34.6875 36.875 37.0625 0.817452 7 253 253 253 253 253 253 2 0.17238251864910126 0.13407529890537262 -9.710882186889648 1.0 0.7 1.139854760708376 47.72270965576172 47.736141204833984 0.7553206086158752 47.599266052246094 47.54193115234375 47.5562629699707 47.51326370239258 47.4559326171875 47.41293716430664 768 2
7487.963 -1.6872311699389835 -1.7300193614977841 1.641888150363864 -2.258878078539471 -1.4902188690692624 -0.08550768515008667 0.17125767745941434 -0.07399192253282633 0.053475450065599284 -0.03481951995366772 -0.10748168492814163 0.14566203432116026 -0.6841690667818562 0.29559541703273046 -0.2136327510092878 0.1391028935221611 0.4293859706865147 -0.5819152727367383 1.5132711392132936 -5.385036978082025 -1.1659186901051906 -0.6792522419804063 -0.23391425922014844 0.2287357126690618 7.265380878197743 -47.90755942563079 -22.037795032560886 -3.193038185070259 -0.004366050201465813 -0.12328853754791869 -1.6872785727130335 -1.7299734554686488 1.6418054739581507 -2.258853097955221 -1.490114990864889 -0.0856707731830042 0.17066918313503265 -0.07483276724815369 0.05316990241408348 -0.034028634428977966 -0.11058691889047623 0.145895853638649 1.5308419466018677 -5.2115559577941895 -1.035941481590271 -0.6812639832496643 -0.16291972994804382 0.3201034963130951 1.5132711392132936 -5.385036978082025 -1.1659186901051906 -0.6792522419804063 -0.23391425922014844 0.2287357126690618 -0.08898335122606622 0.5828330081720586 0.5076253162922317 -2.3624387479733833 -0.018197230348104866 -0.009819092669042623 -0.07494904370117068 -0.04250392158566577 0.015782284138861225 0.047893606880830775 0.01766474105941651 -0.010457757144967869 2.2977276953561945 -4.910916778190013 -0.6843531006207444 0.10324003914788195 -0.06118296376622184 0.3000885500569499 -0.08898730846462112 0.5828083026700419 0.5076037406972772 -2.3624590030012196 -0.018009938467889317 -0.009837528544374263 -0.07602168182145455 -0.042166866053524175 0.015341793787391261 0.04777029061600475 0.019750509522869178 -0.007524202562249574 0 30.8125 32.0 30.625 34.6875 36.875 37.0625 0.833016 7 253 253 253 253 253 253 2 0.26815059781074524 0.038307227194309235 -9.883264541625977 1.0 0.7 0.8119099308235233 47.723602294921875 47.72987747192383 0.8157517910003662 47.61359786987305 47.5562629699707 47.51326370239258 47.54193115234375 47.48460006713867 47.39860534667969 768 2
