sagilar/Flex-cell_RoboSim/tests/ur5e_flexcell_normq_15s.csv
timestamp target_q_0 target_q_1 target_q_2 target_q_3 target_q_4 target_q_5 target_qd_0 target_qd_1 target_qd_2 target_qd_3 target_qd_4 target_qd_5 target_qdd_0 target_qdd_1 target_qdd_2 target_qdd_3 target_qdd_4 target_qdd_5 target_current_0 target_current_1 target_current_2 target_current_3 target_current_4 target_current_5 target_moment_0 target_moment_1 target_moment_2 target_moment_3 target_moment_4 target_moment_5 actual_q_0 actual_q_1 actual_q_2 actual_q_3 actual_q_4 actual_q_5 actual_qd_0 actual_qd_1 actual_qd_2 actual_qd_3 actual_qd_4 actual_qd_5 actual_current_0 actual_current_1 actual_current_2 actual_current_3 actual_current_4 actual_current_5 joint_control_output_0 joint_control_output_1 joint_control_output_2 joint_control_output_3 joint_control_output_4 joint_control_output_5 actual_TCP_pose_0 actual_TCP_pose_1 actual_TCP_pose_2 actual_TCP_pose_3 actual_TCP_pose_4 actual_TCP_pose_5 actual_TCP_speed_0 actual_TCP_speed_1 actual_TCP_speed_2 actual_TCP_speed_3 actual_TCP_speed_4 actual_TCP_speed_5 actual_TCP_force_0 actual_TCP_force_1 actual_TCP_force_2 actual_TCP_force_3 actual_TCP_force_4 actual_TCP_force_5 target_TCP_pose_0 target_TCP_pose_1 target_TCP_pose_2 target_TCP_pose_3 target_TCP_pose_4 target_TCP_pose_5 target_TCP_speed_0 target_TCP_speed_1 target_TCP_speed_2 target_TCP_speed_3 target_TCP_speed_4 target_TCP_speed_5 actual_digital_input_bits joint_temperatures_0 joint_temperatures_1 joint_temperatures_2 joint_temperatures_3 joint_temperatures_4 joint_temperatures_5 actual_execution_time robot_mode joint_mode_0 joint_mode_1 joint_mode_2 joint_mode_3 joint_mode_4 joint_mode_5 safety_mode actual_tool_accelerometer_0 actual_tool_accelerometer_1 actual_tool_accelerometer_2 speed_scaling target_speed_fraction actual_momentum actual_main_voltage actual_robot_voltage actual_robot_current actual_joint_voltage_0 actual_joint_voltage_1 actual_joint_voltage_2 actual_joint_voltage_3 actual_joint_voltage_4 actual_joint_voltage_5 actual_digital_output_bits runtime_state
5506.139 -2.5847040000000003 -1.3422660000000004 1.3616509999999997 -2.0764069999999997 -0.9269629999999998 -0.8488470000000001 0.0 0.0 0.0 0.0 0.0 0.0 0.0 0.0 0.0 0.0 0.0 0.0 -1.4661916264671542 -4.171888728839341 -1.7175577142326421 -0.36034126923245013 6.778194096017197e-06 0.0 -16.845302017878844 -44.44374254727706 -19.52431813362122 -2.6201838556412556 5.231522090832989e-05 0.0 -2.5847047011004847 -1.3422323030284424 1.3616588751422327 -2.0764080486693324 -0.926950756703512 -0.8488591353045862 0.0 0.0 -0.0 -0.0 0.0 -0.0 -1.2801998853683472 -4.360531330108643 -2.0134389400482178 -0.2205955535173416 -0.019214272499084473 0.048334162682294846 -1.4661916264671542 -4.171888728839341 -1.7175577142326421 -0.36034126923245013 6.778194096017197e-06 0.0 0.4158029902339584 0.5957507162947496 0.4366106955135271 -2.3624096763932054 -0.014775335824173827 -0.00012670038856996593 0.0 0.0 0.0 0.0 0.0 0.0 2.9165521241648684 -3.53279922602693 -0.2272563186629759 0.10597389225111693 -0.08612453176039739 0.09274377056378488 0.415797601814085 0.5957450246880538 0.43663590913558453 -2.3623976153453077 -0.014774556886481166 -0.00017089876894282188 0.0 0.0 0.0 0.0 0.0 0.0 0 29.6875 31.0 29.75 33.875 35.875 36.1875 0.587904 7 253 253 253 253 253 253 2 -0.1149216815829277 0.15322890877723694 -9.940725326538086 0.0 0.7 0.0 47.76301193237305 47.780921936035156 0.6411817073822021 47.68526077270508 47.64226531982422 47.65659713745117 47.61359786987305 47.570594787597656 47.54193115234375 3840 1
5506.239 -2.5847040000000003 -1.3422660000000004 1.3616509999999997 -2.0764069999999997 -0.9269629999999998 -0.8488470000000001 0.0 0.0 0.0 0.0 0.0 0.0 0.0 0.0 0.0 0.0 0.0 0.0 -1.4662211915248637 -4.171906321219525 -1.7175437877924464 -0.3603349936612192 2.26956940760073e-06 0.0 -16.84564169539255 -44.443929961483555 -19.524159824967835 -2.620138223481333 1.7516911325272614e-05 0.0 -2.584752384816305 -1.3422562640956421 1.3616350332843226 -2.076383729974264 -0.9269626776324671 -0.848846737538473 0.0 0.0 -0.0 -0.0 0.0 -0.0 -1.2664141654968262 -4.3550214767456055 -1.9761251211166382 -0.21950268745422363 -0.026965565979480743 0.060505036264657974 -1.4662211915248637 -4.171906321219525 -1.7175437877924464 -0.3603349936612192 2.26956940760073e-06 0.0 0.41582796202298167 0.5957258998821701 0.436634368646113 -2.3624068055263923 -0.014710116973868904 -0.00017696415442367214 0.0 0.0 0.0 0.0 0.0 0.0 2.549502012575019 -3.2733912687777336 -0.32710585420816596 0.10406601739712194 -0.09029680422009198 0.08511416393688084 0.415797601814085 0.5957450246880538 0.43663590913558453 -2.3623976153453077 -0.014774556886481166 -0.00017089876894282188 0.0 0.0 0.0 0.0 0.0 0.0 0 29.6875 31.0 29.75 33.875 35.875 36.1875 0.57858 7 253 253 253 253 253 253 2 -0.15322890877723694 0.15322890877723694 -10.055646896362305 0.0 0.7 0.0 47.748680114746094 47.77196502685547 0.5807611346244812 47.65659713745117 47.6279296875 47.6279296875 47.599266052246094 47.570594787597656 47.48460006713867 3840 1
5506.339 -2.5847040000000003 -1.3422660000000004 1.3616509999999997 -2.0764069999999997 -0.9269629999999998 -0.8488470000000001 0.0 0.0 0.0 0.0 0.0 0.0 0.0 0.0 0.0 0.0 0.0 0.0 -1.466326690213779 -4.171806263702911 -1.7175085084883401 -0.3603244662987506 -4.135295456705434e-06 0.0 -16.846853786121475 -44.442864034082966 -19.52375878787243 -2.6200616748660677 -3.191689294732301e-05 0.0 -2.5846803824054163 -1.3422562640956421 1.361671272908346 -2.0764194927611292 -0.926950756703512 -0.8488352934466761 0.0 0.0 -0.0 -0.0 0.0 -0.0 -1.240460753440857 -4.3695855140686035 -1.9820326566696167 -0.21312539279460907 -0.04400385916233063 0.05513658747076988 -1.466326690213779 -4.171806263702911 -1.7175085084883401 -0.3603244662987506 -4.135295456705434e-06 0.0 0.41578272274811073 0.5957572450266895 0.4366216813267174 -2.3623975196977525 -0.014785373597278606 -0.00012644124260819078 0.0 0.0 0.0 0.0 0.0 0.0 2.8086208371555768 -3.554550784756506 -0.3052663469641661 0.1046780174495155 -0.08445877424209561 0.08905835727971971 0.415797601814085 0.5957450246880538 0.43663590913558453 -2.3623976153453077 -0.014774556886481166 -0.00017089876894282188 0.0 0.0 0.0 0.0 0.0 0.0 0 29.6875 31.0 29.75 33.875 35.875 36.1875 0.584941 7 253 253 253 253 253 253 2 -0.1149216815829277 0.17238251864910126 -9.940725326538086 0.0 0.7 0.0 47.72897720336914 47.75405502319336 0.6031407117843628 47.65659713745117 47.599266052246094 47.61359786987305 47.599266052246094 47.54193115234375 47.48460006713867 3840 1
5506.438999999999 -2.5847040000000003 -1.3422660000000004 1.3616509999999997 -2.0764069999999997 -0.9269629999999998 -0.8488470000000001 0.0 0.0 0.0 0.0 0.0 0.0 0.0 0.0 0.0 0.0 0.0 0.0 -1.4663053166066706 -4.171838696168561 -1.7175097571301137 -0.3603268801471894 -1.555450679713247e-05 0.0 -16.84660822144872 -44.443209541896614 -19.523772981793847 -2.620079226912556 -0.0001200522510398822 0.0 -2.5847166220294397 -1.3422683042338868 1.3616350332843226 -2.076395650903219 -0.926950756703512 -0.8488710562335413 0.0 0.0 -0.0 -0.0 0.0 -0.0 -1.2625484466552734 -4.331721305847168 -1.9736149311065674 -0.2277640402317047 -0.04186280816793442 0.04032503440976143 -1.4663053166066706 -4.171838696168561 -1.7175097571301137 -0.3603268801471894 -1.555450679713247e-05 0.0 0.4158031773267874 0.5957414407748547 0.436646129683573 -2.3623847818650785 -0.014794745046131952 -0.00018608551593559715 0.0 0.0 0.0 0.0 0.0 0.0 3.1178126669305666 -3.506734953335781 -0.2515005697889283 0.10678061099718295 -0.08529269148477779 0.0963263873210564 0.415797601814085 0.5957450246880538 0.43663590913558453 -2.3623976153453077 -0.014774556886481166 -0.00017089876894282188 0.0 0.0 0.0 0.0 0.0 0.0 0 29.6875 31.0 29.75 33.875 35.875 36.1875 0.582168 7 253 253 253 253 253 253 2 -0.09576806426048279 0.2298433631658554 -10.017339706420898 0.0 0.7 0.0 47.71554183959961 47.733455657958984 0.5919508934020996 47.65659713745117 47.599266052246094 47.6279296875 47.570594787597656 47.54193115234375 47.498931884765625 3840 1
5506.539 -2.5847040000000003 -1.3422660000000004 1.3616509999999997 -2.0764069999999997 -0.9269629999999998 -0.8488470000000001 0.0 0.0 0.0 0.0 0.0 0.0 0.0 0.0 0.0 0.0 0.0 0.0 -1.466298694433514 -4.171805942887925 -1.7175383199454715 -0.3603397725494492 3.733097358365842e-07 0.0 -16.84653213827867 -44.44286061639386 -19.52409766927842 -2.6201729726673335 2.8812661633570943e-06 0.0 -2.5847047011004847 -1.342244343166687 1.3616588751422327 -2.0764318905272425 -0.9269865194903772 -0.848846737538473 0.0 0.0 -0.0 -0.0 0.0 -0.0 -1.2521754503250122 -4.352977752685547 -2.0118629932403564 -0.21150629222393036 -0.0349789634346962 0.051123615354299545 -1.466298694433514 -4.171805942887925 -1.7175383199454715 -0.3603397725494492 3.733097358365842e-07 0.0 0.4158088040039296 0.5957459438767142 0.4366183585864076 -2.362417541972561 -0.014764161678261348 -0.00018478897670940795 0.0 0.0 0.0 0.0 0.0 0.0 2.7401981462618252 -3.269598312847624 -0.18021787381237875 0.09777922235469068 -0.08831198686894035 0.09086700411386012 0.415797601814085 0.5957450246880538 0.43663590913558453 -2.3623976153453077 -0.014774556886481166 -0.00017089876894282188 0.0 0.0 0.0 0.0 0.0 0.0 0 29.625 31.0 29.8125 33.875 35.875 36.1875 0.59298 7 253 253 253 253 253 253 2 -0.15322890877723694 0.07661445438861847 -9.959878921508789 0.0 0.7 0.0 47.73524856567383 47.730770111083984 0.5807611346244812 47.64226531982422 47.584930419921875 47.599266052246094 47.570594787597656 47.51326370239258 47.47026824951172 3840 1
5506.639 -2.5847040000000003 -1.3422660000000004 1.3616509999999997 -2.0764069999999997 -0.9269629999999998 -0.8488470000000001 0.0 0.0 0.0 0.0 0.0 0.0 0.0 0.0 0.0 0.0 0.0 0.0 -1.4662998212521519 -4.1718135715755045 -1.7174862113867226 -0.3603207573927743 -2.0286015872509194e-06 0.0 -16.846545084472012 -44.4429418859216 -19.523505325818824 -2.6200347059441293 -1.5657081911298405e-05 0.0 -2.5847166220294397 -1.342244343166687 1.3616836706744593 -2.076395650903219 -0.9269626776324671 -0.8488352934466761 0.0 0.0 -0.0 -0.0 0.0 -0.0 -1.2514938116073608 -4.332329273223877 -2.018098831176758 -0.22608917951583862 -0.03160550817847252 0.04260387644171715 -1.4662998212521519 -4.1718135715755045 -1.7174862113867226 -0.3603207573927743 -2.0286015872509194e-06 0.0 0.4158049789089228 0.5957397250322564 0.4366007564839935 -2.3624321566813786 -0.014718923273202086 -0.00010506503920708748 0.0 0.0 0.0 0.0 0.0 0.0 2.659203470683733 -3.374572510068127 -0.08880369639806585 0.10088650667783955 -0.0881521363574192 0.08898368741617882 0.415797601814085 0.5957450246880538 0.43663590913558453 -2.3623976153453077 -0.014774556886481166 -0.00017089876894282188 0.0 0.0 0.0 0.0 0.0 0.0 0 29.625 31.0 29.8125 33.875 35.875 36.1875 0.579289 7 253 253 253 253 253 253 2 -0.09576806426048279 0.15322890877723694 -9.940725326538086 0.0 0.7 0.0 47.75942611694336 47.77196502685547 0.5740430355072021 47.670928955078125 47.6279296875 47.6279296875 47.599266052246094 47.54193115234375 47.51326370239258 3840 1
5506.739 -2.5847040000000003 -1.3422660000000004 1.3616509999999997 -2.0764069999999997 -0.9269629999999998 -0.8488470000000001 0.0 0.0 0.0 0.0 0.0 0.0 0.0 0.0 0.0 0.0 0.0 0.0 -1.4662709500190463 -4.17178199795173 -1.7175462932775265 -0.36033674208113614 -4.135304378193768e-06 0.0 -16.84621337841633 -44.44260552747642 -19.5241883060415 -2.6201509369339138 -3.1916961804842635e-05 0.0 -2.584728542958395 -1.3422683042338868 1.361671272908346 -2.0764194927611292 -0.9269865194903772 -0.8488228956805628 0.0 0.0 -0.0 -0.0 0.0 -0.0 -1.2763649225234985 -4.29831075668335 -2.014739513397217 -0.21636584401130676 -0.05300590395927429 0.03579269349575043 -1.4662709500190463 -4.17178199795173 -1.7175462932775265 -0.36033674208113614 -4.135304378193768e-06 0.0 0.4158145973088931 0.5957307620800416 0.43662503278847076 -2.3624183975356203 -0.014707428670573293 -0.00018403215385004784 0.0 0.0 0.0 0.0 0.0 0.0 2.8738564428807334 -3.362674526521517 -0.30113252461167983 0.10370646539578134 -0.08304794630370409 0.09133871632489736 0.415797601814085 0.5957450246880538 0.43663590913558453 -2.3623976153453077 -0.014774556886481166 -0.00017089876894282188 0.0 0.0 0.0 0.0 0.0 0.0 0 29.625 31.0 29.8125 33.875 35.875 36.1875 0.5847 7 253 253 253 253 253 253 2 -0.1149216815829277 0.05746084079146385 -9.940725326538086 0.0 0.7 0.0 47.751365661621094 47.77286148071289 0.5807611346244812 47.65659713745117 47.61359786987305 47.61359786987305 47.599266052246094 47.54193115234375 47.51326370239258 3840 1
5506.839 -2.5847040000000003 -1.3422660000000004 1.3616509999999997 -2.0764069999999997 -0.9269629999999998 -0.8488470000000001 0.0 0.0 0.0 0.0 0.0 0.0 0.0 0.0 0.0 0.0 0.0 0.0 -1.466354809344124 -4.171762772575141 -1.7174968963359964 -0.36032180732584634 -1.5259460408311574e-05 0.0 -16.847176851152398 -44.442400716719696 -19.52362678686036 -2.620042340422663 -0.00011777503430770868 0.0 -2.5847047011004847 -1.3422802251628418 1.3616474310504358 -2.076395650903219 -0.9269388357745569 -0.8488228956805628 0.0 0.0 -0.0 -0.0 0.0 -0.0 -1.3010910749435425 -4.339953899383545 -1.9814320802688599 -0.2365858256816864 -0.042971424758434296 0.044587958604097366 -1.466354809344124 -4.171762772575141 -1.7174968963359964 -0.36032180732584634 -1.5259460408311574e-05 0.0 0.4157898389080469 0.5957453208086299 0.43664856747671543 -2.3623763813462437 -0.014755517241132873 -0.00014709921122828108 0.0 0.0 0.0 0.0 0.0 0.0 2.587824834949626 -3.5732652510258927 -0.2858592652028551 0.10807081092285421 -0.08838458694044879 0.08703204568349783 0.415797601814085 0.5957450246880538 0.43663590913558453 -2.3623976153453077 -0.014774556886481166 -0.00017089876894282188 0.0 0.0 0.0 0.0 0.0 0.0 0 29.625 31.0 29.8125 33.875 35.8125 36.1875 0.58104 7 253 253 253 253 253 253 2 -0.15322890877723694 0.2106897532939911 -9.921571731567383 0.0 0.7 0.0 47.7585334777832 47.77913284301758 0.5404736995697021 47.670928955078125 47.599266052246094 47.61359786987305 47.570594787597656 47.5275993347168 47.498931884765625 3840 1
5507.039 -2.5847040000000003 -1.3422660000000004 1.3616509999999997 -2.0764069999999997 -0.9269629999999998 -0.8488470000000001 0.0 0.0 0.0 0.0 0.0 0.0 0.0 0.0 0.0 0.0 0.0 0.0 -1.4663236645582651 -4.1717604460402375 -1.7175248281950861 -0.36033417504800463 -1.7333911769486066e-06 0.0 -16.84681902389803 -44.44237593180211 -19.523944301956597 -2.620132271020952 -1.3378599234256308e-05 0.0 -2.5847047011004847 -1.3422562640956421 1.3616474310504358 -2.0764318905272425 -0.926950756703512 -0.848846737538473 0.0 0.0 -0.0 -0.0 0.0 -0.0 -1.202878713607788 -4.343669414520264 -1.9983888864517212 -0.2504481375217438 -0.03696818649768829 0.0402461439371109 -1.4663236645582651 -4.1717604460402375 -1.7175248281950861 -0.36033417504800463 -1.7333911769486066e-06 0.0 0.41580140456594294 0.5957497817866021 0.43663755371838053 -2.362378489632028 -0.01478509644614371 -0.00018017482063243523 0.0 0.0 0.0 0.0 0.0 0.0 2.5990432278718933 -3.2405845748860695 -0.23466425906697896 0.0977778717804525 -0.0907518543583982 0.08970452278040666 0.415797601814085 0.5957450246880538 0.43663590913558453 -2.3623976153453077 -0.014774556886481166 -0.00017089876894282188 0.0 0.0 0.0 0.0 0.0 0.0 0 29.625 31.0 29.75 33.875 35.8125 36.1875 0.580956 7 253 253 253 253 253 253 2 -0.1149216815829277 0.1149216815829277 -9.998186111450195 0.0 0.7 0.0 47.75047302246094 47.77286148071289 0.6188021302223206 47.68526077270508 47.6279296875 47.64226531982422 47.6279296875 47.570594787597656 47.51326370239258 3840 1
5507.139 -2.5847040000000003 -1.3422660000000004 1.3616509999999997 -2.0764069999999997 -0.9269629999999998 -0.8488470000000001 0.0 0.0 0.0 0.0 0.0 0.0 0.0 0.0 0.0 0.0 0.0 0.0 -1.4663597347330464 -4.171836919454861 -1.7175068248913885 -0.3603213740230062 -1.766139916090238e-05 0.0 -16.847233439706347 -44.44319061430497 -19.523739649602888 -2.6200391897063744 -0.00013631359408779845 0.0 -2.584728542958395 -1.3422683042338868 1.361671272908346 -2.0764318905272425 -0.9269626776324671 -0.8488591353045862 0.0 0.0 -0.0 -0.0 0.0 -0.0 -1.2472561597824097 -4.334280967712402 -2.042320966720581 -0.24700340628623962 -0.025170166045427322 0.03687654808163643 -1.4663597347330464 -4.171836919454861 -1.7175068248913885 -0.3603213740230062 -1.766139916090238e-05 0.0 0.41581197628299765 0.5957347812279162 0.4366304016686792 -2.3623937097321672 -0.014762940221194787 -0.00019525906497346032 0.0 0.0 0.0 0.0 0.0 0.0 2.6859251702246336 -3.232513850270194 -0.24018047534976716 0.09910492109064956 -0.08767209377783446 0.08632329685436338 0.415797601814085 0.5957450246880538 0.43663590913558453 -2.3623976153453077 -0.014774556886481166 -0.00017089876894282188 0.0 0.0 0.0 0.0 0.0 0.0 0 29.625 31.0 29.75 33.875 35.8125 36.1875 0.587436 7 253 253 253 253 253 253 2 -0.1149216815829277 0.2106897532939911 -9.998186111450195 0.0 0.7 0.0 47.793460845947266 47.8068962097168 0.5874739289283752 47.7282600402832 47.68526077270508 47.68526077270508 47.6279296875 47.64226531982422 47.570594787597656 3840 1
5507.438999999999 -2.5847040000000003 -1.3422660000000004 1.3616509999999997 -2.0764069999999997 -0.9269629999999998 -0.8488470000000001 0.0 0.0 0.0 0.0 0.0 0.0 0.0 0.0 0.0 0.0 0.0 0.0 -1.46621651166263 -4.17180048510325 -1.7175053270897687 -0.36032026298463654 7.817900369785855e-08 0.0 -16.845587927732645 -44.44280247381319 -19.523722623359703 -2.6200311109070595 6.033984555340229e-07 0.0 -2.5846923033343714 -1.3422683042338868 1.3616951147662562 -2.0764194927611292 -0.9269269148456019 -0.8488591353045862 0.0 0.0 -0.0 -0.0 0.0 -0.0 -1.264825463294983 -4.367020606994629 -1.9960440397262573 -0.2739517092704773 -0.029674377292394638 0.04571520909667015 -1.46621651166263 -4.17180048510325 -1.7175053270897687 -0.36032026298463654 7.817900369785855e-08 0.0 0.4157802093536444 0.5957519151534585 0.43661921982675694 -2.362385804336986 -0.014802164082409737 -0.00011316688766864129 0.0 0.0 0.0 0.0 0.0 0.0 2.9130246861047797 -3.4804484983088377 -0.25086079814851114 0.10022680656398297 -0.08697605730753713 0.09325611578352165 0.415797601814085 0.5957450246880538 0.43663590913558453 -2.3623976153453077 -0.014774556886481166 -0.00017089876894282188 0.0 0.0 0.0 0.0 0.0 0.0 0 29.625 31.0 29.75 33.875 35.8125 36.1875 0.591228 7 253 253 253 253 253 253 2 -0.13407529890537262 0.17238251864910126 -9.940725326538086 0.0 0.7 0.0 47.76301193237305 47.75763702392578 0.5740430355072021 47.6995964050293 47.64226531982422 47.64226531982422 47.64226531982422 47.5562629699707 47.51326370239258 3840 1
5507.539 -2.5847040000000003 -1.3422660000000004 1.3616509999999997 -2.0764069999999997 -0.9269629999999998 -0.8488470000000001 0.0 0.0 0.0 0.0 0.0 0.0 0.0 0.0 0.0 0.0 0.0 0.0 -1.4662432584161942 -4.171818160098655 -1.7174914779883008 -0.3603141093553025 4.586585281439384e-06 0.0 -16.8458952253148 -44.44299076813175 -19.523565193853443 -2.619986365434888 3.5400022308949094e-05 0.0 -2.584728542958395 -1.3422562640956421 1.3616951147662562 -2.0764080486693324 -0.9270108381854456 -0.8488109747516077 0.0 0.0 -0.0 -0.0 0.0 -0.0 -1.237251877784729 -4.334860324859619 -2.037598133087158 -0.269296258687973 -0.030041513964533806 0.05067053809762001 -1.4662432584161942 -4.171818160098655 -1.7174914779883008 -0.3603141093553025 4.586585281439384e-06 0.0 0.41581737676340463 0.5957267189294176 0.4365981017751587 -2.362461634004153 -0.014666160036420241 -0.00014982163350047792 0.0 0.0 0.0 0.0 0.0 0.0 3.0691850492273582 -3.2954087336356244 -0.27328151285478297 0.09961393074063765 -0.0838507548172456 0.09512413859624048 0.415797601814085 0.5957450246880538 0.43663590913558453 -2.3623976153453077 -0.014774556886481166 -0.00017089876894282188 0.0 0.0 0.0 0.0 0.0 0.0 0 29.625 31.0 29.75 33.875 35.875 36.1875 0.592368 7 253 253 253 253 253 253 2 -0.09576806426048279 0.19153612852096558 -10.017339706420898 0.0 0.7 0.0 47.7639045715332 47.788089752197266 0.5986637473106384 47.670928955078125 47.61359786987305 47.6279296875 47.61359786987305 47.54193115234375 47.51326370239258 3840 1
5507.639 -2.5847040000000003 -1.3422660000000004 1.3616509999999997 -2.0764069999999997 -0.9269629999999998 -0.8488470000000001 0.0 0.0 0.0 0.0 0.0 0.0 0.0 0.0 0.0 0.0 0.0 0.0 -1.466326705089974 -4.171797378361647 -1.7175001815090771 -0.36032740521438705 -4.135259815975118e-06 0.0 -16.846853957036377 -44.4427693772392 -19.52366413102866 -2.6200830448837737 -3.191661786628322e-05 0.0 -2.5846923033343714 -1.3422683042338868 1.3616836706744593 -2.076395650903219 -0.926950756703512 -0.8488591353045862 0.0 0.0 -0.0 -0.0 0.0 -0.0 -1.1879040002822876 -4.333471775054932 -1.9926568269729614 -0.26818764209747314 -0.026539728045463562 0.05269092693924904 -1.466326705089974 -4.171797378361647 -1.7175001815090771 -0.36032740521438705 -4.135259815975118e-06 0.0 0.4157829244146656 0.5957479377595122 0.43661832383949656 -2.3624102805104976 -0.014789415621121715 -0.00011957823702500328 0.0 0.0 0.0 0.0 0.0 0.0 2.8065472995327516 -3.075500232647049 -0.2507377843368708 0.09439169073015818 -0.08510045639030722 0.0901035845763618 0.415797601814085 0.5957450246880538 0.43663590913558453 -2.3623976153453077 -0.014774556886481166 -0.00017089876894282188 0.0 0.0 0.0 0.0 0.0 0.0 0 29.625 31.0 29.75 33.875 35.875 36.1875 0.586993 7 253 253 253 253 253 253 2 -0.13407529890537262 0.1149216815829277 -9.959878921508789 0.0 0.7 0.0 47.737037658691406 47.73972702026367 0.5852327942848206 47.65659713745117 47.584930419921875 47.599266052246094 47.584930419921875 47.498931884765625 47.498931884765625 3840 1
5507.739 -2.5847040000000003 -1.3422660000000004 1.3616509999999997 -2.0764069999999997 -0.9269629999999998 -0.8488470000000001 0.0 0.0 0.0 0.0 0.0 0.0 0.0 0.0 0.0 0.0 0.0 0.0 -1.4662710219804982 -4.17183436419886 -1.7175358094159052 -0.3603363090471285 6.988900652326657e-06 0.0 -16.846214205192563 -44.443163392787994 -19.524069130861612 -2.6201477881724125 5.3941488891219314e-05 0.0 -2.584728542958395 -1.3422683042338868 1.361671272908346 -2.076395650903219 -0.9269865194903772 -0.8487990538226526 0.0 0.0 -0.0 -0.0 0.0 -0.0 -1.2373000383377075 -4.366155624389648 -1.9874658584594727 -0.2758972644805908 -0.01490953378379345 0.06234458461403847 -1.4662710219804982 -4.17183436419886 -1.7175358094159052 -0.3603363090471285 6.988900652326657e-06 0.0 0.41581196671499243 0.5957290767170178 0.43662072120273543 -2.362431227912801 -0.014669383221498496 -0.0001486166156130382 0.0 0.0 0.0 0.0 0.0 0.0 2.6543130584649712 -3.0798901133465475 -0.33277519017586554 0.09720715541556994 -0.08562669970649053 0.08276101340648198 0.415797601814085 0.5957450246880538 0.43663590913558453 -2.3623976153453077 -0.014774556886481166 -0.00017089876894282188 0.0 0.0 0.0 0.0 0.0 0.0 0 29.625 31.0 29.75 33.875 35.875 36.1875 0.603732 7 253 253 253 253 253 253 2 -0.17238251864910126 0.09576806426048279 -9.921571731567383 0.0 0.7 0.0 47.72718811035156 47.73972702026367 0.5874739289283752 47.64226531982422 47.584930419921875 47.584930419921875 47.570594787597656 47.5275993347168 47.498931884765625 3840 1
5507.839 -2.5847040000000003 -1.3422660000000004 1.3616509999999997 -2.0764069999999997 -0.9269629999999998 -0.8488470000000001 0.0 0.0 0.0 0.0 0.0 0.0 0.0 0.0 0.0 0.0 0.0 0.0 -1.4661607487497406 -4.171775382167914 -1.7175423282378215 -0.3603325393536636 7.841397913222778e-08 0.0 -16.84494725901509 -44.44253504856104 -19.524143233496936 -2.6201203772406076 6.05212034723837e-07 0.0 -2.584752384816305 -1.3422323030284424 1.3616951147662562 -2.076395650903219 -0.926950756703512 -0.8488710562335413 0.0 0.0 -0.0 -0.0 0.0 -0.0 -1.247177243232727 -4.36422061920166 -1.9804611206054688 -0.28301945328712463 -0.03581410273909569 0.0650431364774704 -1.4661607487497406 -4.171775382167914 -1.7175423282378215 -0.3603325393536636 7.841397913222778e-08 0.0 0.4158257327373316 0.5957273186433159 0.4365877357602536 -2.3624355896020366 -0.014713070379516956 -0.00010674129521178652 0.0 0.0 0.0 0.0 0.0 0.0 2.5963738978087996 -3.3410499899999593 -0.48698055799977547 0.10647366876406238 -0.08797163955877801 0.08643492840242634 0.415797601814085 0.5957450246880538 0.43663590913558453 -2.3623976153453077 -0.014774556886481166 -0.00017089876894282188 0.0 0.0 0.0 0.0 0.0 0.0 0 29.625 31.0 29.75 33.875 35.875 36.1875 0.598284 7 253 253 253 253 253 253 2 -0.09576806426048279 0.19153612852096558 -9.998186111450195 0.0 0.7 0.0 47.751365661621094 47.77644348144531 0.6411817073822021 47.68526077270508 47.61359786987305 47.6279296875 47.599266052246094 47.570594787597656 47.498931884765625 3840 1
5507.938999999999 -2.5847040000000003 -1.3422660000000004 1.3616509999999997 -2.0764069999999997 -0.9269629999999998 -0.8488470000000001 0.0 0.0 0.0 0.0 0.0 0.0 0.0 0.0 0.0 0.0 0.0 0.0 -1.466222007865237 -4.171894261792479 -1.7175324861895094 -0.3603320547309095 -2.239122069530592e-06 0.0 -16.845651074453166 -44.4438014906384 -19.524031354122673 -2.620116853356932 -1.7281913744110716e-05 0.0 -2.5847166220294397 -1.3422683042338868 1.3616951147662562 -2.076383729974264 -0.9269745985614222 -0.8488829771624964 0.0 0.0 -0.0 -0.0 0.0 -0.0 -1.2444400787353516 -4.329784393310547 -1.9952188730239868 -0.28792625665664673 -0.009123601950705051 0.0616128034889698 -1.466222007865237 -4.171894261792479 -1.7175324861895094 -0.3603320547309095 -2.239122069530592e-06 0.0 0.41579872884474045 0.5957329901945972 0.4366064986390711 -2.3624404766481195 -0.014771646391320434 -0.0001382441503556645 0.0 0.0 0.0 0.0 0.0 0.0 2.6222476878074437 -3.2481249731726027 -0.17170459350084588 0.09670234824173458 -0.0860465067428933 0.0825988913680141 0.415797601814085 0.5957450246880538 0.43663590913558453 -2.3623976153453077 -0.014774556886481166 -0.00017089876894282188 0.0 0.0 0.0 0.0 0.0 0.0 0 29.625 31.0 29.75 33.9375 35.875 36.1875 0.594336 7 253 253 253 253 253 253 2 -0.07661445438861847 0.09576806426048279 -9.998186111450195 0.0 0.7 0.0 47.77823257446289 47.8068962097168 0.5829969644546509 47.670928955078125 47.61359786987305 47.6279296875 47.6279296875 47.570594787597656 47.498931884765625 3840 1
5508.039 -2.5847040000000003 -1.3422660000000004 1.3616509999999997 -2.0764069999999997 -0.9269629999999998 -0.8488470000000001 0.0 0.0 0.0 0.0 0.0 0.0 0.0 0.0 0.0 0.0 0.0 0.0 -1.4662983412458763 -4.171821452339492 -1.7174935969171528 -0.36031757353791655 2.479967427631552e-06 0.0 -16.84652808045136 -44.44302584085627 -19.523589280753505 -2.6200115548764904 1.9140797974233477e-05 0.0 -2.584752384816305 -1.3422802251628418 1.3616588751422327 -2.0764194927611292 -0.926950756703512 -0.8488710562335413 0.0 0.0 -0.0 -0.0 0.0 -0.0 -1.2528880834579468 -4.353962421417236 -2.0315868854522705 -0.2834823727607727 -0.022808216512203217 0.06471037119626999 -1.4662983412458763 -4.171821452339492 -1.7174935969171528 -0.36031757353791655 2.479967427631552e-06 0.0 0.41582151419460167 0.5957247571778503 0.4366447730208747 -2.3623786677300327 -0.01475748101417541 -0.00021529637585195516 0.0 0.0 0.0 0.0 0.0 0.0 2.898577369769435 -3.490706567339009 -0.4530890750194847 0.10859921198118173 -0.08420218371662584 0.0913734493533696 0.415797601814085 0.5957450246880538 0.43663590913558453 -2.3623976153453077 -0.014774556886481166 -0.00017089876894282188 0.0 0.0 0.0 0.0 0.0 0.0 0 29.625 31.0 29.75 33.9375 35.875 36.1875 0.579312 7 253 253 253 253 253 253 2 -0.1149216815829277 0.17238251864910126 -9.90241813659668 0.0 0.7 0.0 47.76838302612305 47.790771484375 0.5740430355072021 47.65659713745117 47.6279296875 47.61359786987305 47.584930419921875 47.54193115234375 47.498931884765625 3840 1
5508.139 -2.584313519231781 -1.342434707313922 1.3617729281677307 -2.076486391202206 -0.9272080665659068 -0.848514879280474 0.018161896196253 -0.007846851810312876 0.00567107756888442 -0.003692614056101167 -0.011398444925926851 0.015447475326780022 0.6097744074155167 -0.26345318578013244 0.1904029142445699 -0.12397722812323096 -0.382695723236179 0.5186394092152368 -0.5064910378818916 -5.006774202177198 -1.2788468704694744 -0.45295121354507056 -0.20163243892977495 0.22584070867492426 -14.303849632657407 -45.86536346268011 -19.294669640022967 -2.6567786270151506 0.02576801277277299 0.1098645646475132 -2.584421221409933 -1.3423917454532166 1.3616960684405726 -2.0764814815916957 -0.9272435347186487 -0.8484576384173792 0.019614871591329575 -0.01039007306098938 0.0028411587700247765 -0.005087676458060741 -0.016205962747335434 0.015389746986329556 -0.32259124517440796 -5.107422828674316 -1.3063427209854126 -0.41203680634498596 -0.11383157968521118 0.21468138694763184 -0.5064910378818916 -5.006774202177198 -1.2788468704694744 -0.45295121354507056 -0.20163243892977495 0.22584070867492426 0.4156497029546093 0.5958093041095107 0.43667081611234465 -2.362526289796462 -0.014623516902077107 -0.00022138869867275432 -0.011166253256309721 0.004659764199694838 0.004110989991790118 -0.005401868238261532 -0.007657305513370943 0.0011129501483042974 3.692606869485258 -3.998605876864158 -0.6369585509370483 0.09006711438921666 -0.11744157206405915 0.08431325071578676 0.4155610378476241 0.5958471465228515 0.4366611040602575 -2.362513792858785 -0.014817702440880726 -0.00013985016948007118 -0.011003321607575426 0.004747444848306005 0.0011719837730049133 -0.005416813476199945 0.00042427847382746353 0.0018572700471629483 0 29.6875 31.0 29.75 33.875 35.875 36.125 0.765636 7 253 253 253 253 253 253 2 -0.5171475410461426 -0.07661445438861847 -9.768342971801758 1.0 0.7 0.09991579636119943 47.78450393676758 47.80331039428711 0.6210432648658752 47.670928955078125 47.6279296875 47.6279296875 47.61359786987305 47.584930419921875 47.51326370239258 768 2
5508.239 -2.578833487322479 -1.3448023564758493 1.363484075820035 -2.0776005723778663 -0.930647346321475 -0.8438538760022833 0.08962614774841275 -0.03872299963128833 0.027985890382217223 -0.018222479051403704 -0.0562495621599265 0.07623090072850344 0.6841690667817798 -0.2955954170327339 0.213632751009293 -0.1391028935221663 -0.4293859706864626 0.5819152727366689 -0.3860262776571941 -5.197910257576102 -0.9537396508060366 -0.6057544090677506 -0.21710307745006133 0.2449963022362943 -13.80857512627593 -46.13577494336699 -19.27559782119108 -2.663244434275427 0.025960904167812493 0.12326834751332655 -2.5787633101092737 -1.3449778121760865 1.3632648626910608 -2.077574392358297 -0.9306801001178187 -0.8437803427325647 0.08856484293937683 -0.036964286118745804 0.028738584369421005 -0.017829623073339462 -0.05425528809428215 0.07191473990678787 -0.28596025705337524 -4.973451137542725 -0.8387489318847656 -0.5575531721115112 -0.15053598582744598 0.29211512207984924 -0.3860262776571941 -5.197910257576102 -0.9537396508060366 -0.6057544090677506 -0.21710307745006133 0.2449963022362943 0.41218536300741043 0.597282882772687 0.4372487883417083 -2.3639638360827235 -0.01555580817362523 -4.116068754823104e-05 -0.05377332782063205 0.02308628142881027 0.004385837923714178 -0.02647593631435592 0.0022880098635211857 0.01192907099954093 3.5127567148114447 -3.7485741363718432 -0.2786303046790002 0.09576072573703048 -0.11671087765002658 0.0799260696894062 0.4122395340971123 0.5972694102190972 0.4370152667308179 -2.364134874325513 -0.015419931391614648 0.0002851485840739044 -0.05434664496365272 0.023094493730298028 0.005801135265868384 -0.02644557784522858 0.0018861828298044198 0.008990437068304873 0 29.6875 31.0 29.8125 33.875 35.875 36.125 0.760884 7 253 253 253 253 253 253 2 -0.4405331015586853 0.0 -9.825803756713867 1.0 0.7 0.5117089781016143 47.78718948364258 47.79972839355469 0.6546126008033752 47.6995964050293 47.6279296875 47.65659713745117 47.61359786987305 47.5562629699707 47.498931884765625 768 2
5508.339 -2.566450027213729 -1.350152633524142 1.3673508286133031 -2.080118334750618 -0.9384192323909 -0.8333212095657494 0.15804305442659075 -0.068282541334562 0.0493491654831465 -0.03213276840362033 -0.09918815922857287 0.13442242800217047 0.6841690667817868 -0.2955954170327374 0.2136327510092982 -0.13910289352216457 -0.4293859706864661 0.5819152727366828 -0.27661594903436504 -5.235899699311503 -0.9273099258588258 -0.6097912929505351 -0.23280017831285002 0.2617126592128285 -13.40414829809409 -46.3628699832153 -19.282792382417682 -2.66573632429718 0.01930608748293064 0.12326813605670953 -2.5663688818561 -1.3501176995090027 1.3672202269183558 -2.080067297021383 -0.9384134451495569 -0.8334859053241175 0.15801534056663513 -0.06679606437683105 0.050832007080316544 -0.03135291486978531 -0.09755762666463852 0.13559703528881073 -0.3102729022502899 -5.133157730102539 -0.6813924312591553 -0.6122658848762512 -0.20435792207717896 0.3454001545906067 -0.27661594903436504 -5.235899699311503 -0.9273099258588258 -0.6097912929505351 -0.23280017831285002 0.2617126592128285 0.4046916490536065 0.6004533808840706 0.437862580631649 -2.367703021150312 -0.017068905162367802 0.0010921200283676882 -0.09618878244068985 0.03964551401574286 0.008528135874795277 -0.046334994596580616 0.00728170808281299 0.015060311777958926 3.7828248775189963 -3.374169134494352 -0.10249226126150934 0.09598173426453169 -0.13031284770106422 0.08039919521633876 0.4047236229133704 0.6004083237809793 0.43781954573853377 -2.367733298906057 -0.016758159682671015 0.0011725684433025326 -0.09600702953525798 0.03939681269869433 0.010299658026092746 -0.04548266890923415 0.002517555172883462 0.015163968674571635 0 29.6875 31.0 29.8125 33.875 35.875 36.125 0.758821 7 253 253 253 253 253 253 2 -0.4596867263317108 0.09576806426048279 -9.883264541625977 1.0 0.7 0.902840023269109 47.782711029052734 47.80152130126953 0.6635612845420837 47.6995964050293 47.6279296875 47.6279296875 47.599266052246094 47.570594787597656 47.51326370239258 768 2
5508.438999999999 -2.547224876437161 -1.3584588647427625 1.3733539089166644 -2.08402712605859 -0.9504849781671894 -0.8169693904018489 0.22645996110476907 -0.09784208303783581 0.07071244058407587 -0.04604305775583703 -0.14212675629721946 0.19261395527583774 0.6841690667818007 -0.2955954170327374 0.21363275100929474 -0.13910289352216457 -0.4293859706864661 0.5819152727366689 -0.14786010031061403 -5.28423869928027 -0.9018500155816664 -0.6142139390506253 -0.24905815312011798 0.27842901829921796 -12.773334775985056 -46.69242090226503 -19.301342965832163 -2.671033243940029 0.008322353111198333 0.12326794128794255 -2.5474265257464808 -1.358457238679268 1.3733356634723108 -2.084044118920797 -0.9504306952105921 -0.8168733755694788 0.22600772976875305 -0.09764619171619415 0.07283178716897964 -0.04512375220656395 -0.14146064221858978 0.18821686506271362 -0.11746326088905334 -5.188838958740234 -0.8787952661514282 -0.5809157490730286 -0.16869577765464783 0.34121274948120117 -0.14786010031061403 -5.28423869928027 -0.9018500155816664 -0.6142139390506253 -0.24905815312011798 0.27842901829921796 0.3931469589512401 0.6050063318689284 0.4390984736542144 -2.3730839077375 -0.018450672076466397 0.0023154654327061756 -0.13803873888776638 0.053237205147106725 0.013479915681791634 -0.06387142774354793 0.001860940143693146 0.023249622616632215 3.7032940773134766 -3.687441342018003 0.23657316042668297 0.10118436073018824 -0.1362564219946681 0.07292150822852815 0.39303006362253345 0.6050756557911272 0.43907909031970377 -2.373139416802045 -0.01877289676495009 0.0023548018166077347 -0.13790670353697657 0.0535060299999958 0.014914957344603559 -0.06256543505816356 0.0018832215591728096 0.0202246243301748 0 29.6875 31.0 29.8125 33.9375 35.875 36.125 0.814692 7 253 253 253 253 253 253 2 -0.5363011956214905 0.17238251864910126 -9.634267807006836 1.0 0.7 1.2898312431923658 47.73883056640625 47.75315856933594 0.7016075849533081 47.64226531982422 47.584930419921875 47.599266052246094 47.51326370239258 47.48460006713867 47.41293716430664 768 2
5508.539 -2.5211580349927747 -1.3697210501317096 1.3814933167301184 -2.089326946301785 -0.9668445836503441 -0.7947984185105819 0.29487686778294736 -0.12740162474110964 0.09207571568500526 -0.05995334710805373 -0.18506535336586605 0.2508054825495051 0.6841690667817868 -0.2955954170327374 0.21363275100930168 -0.13910289352216457 -0.42938597068645223 0.5819152727366828 0.001113178165965489 -5.345333374303372 -0.8768419603036203 -0.6188613006486744 -0.26559389789643256 0.29514539387939626 -11.90658825293427 -47.148095457734435 -19.325185255277415 -2.677964158826106 -0.004805255733074082 0.12326787697641714 -2.5212202707873743 -1.3696921181729813 1.3816197554217737 -2.0893122158446253 -0.9666851202594202 -0.7950499693499964 0.29276230931282043 -0.12605711817741394 0.09003211557865143 -0.0590016208589077 -0.1858602911233902 0.25449374318122864 -0.06527692079544067 -5.251254558563232 -0.9017277956008911 -0.6081876158714294 -0.20117641985416412 0.3309246897697449 0.001113178165965489 -5.345333374303372 -0.8768419603036203 -0.6188613006486744 -0.26559389789643256 0.29514539387939626 0.37713475249514516 0.6109952842089819 0.4407327847670408 -2.380094315500901 -0.021592510069678172 0.0037436915159345645 -0.17817743900876915 0.06390396406670777 0.019703755054557345 -0.07756007542622992 0.0019322030928353717 0.018612041433780452 3.435649024444544 -3.2581274418608617 -0.1733657708903369 0.08889008953118256 -0.13729711492581587 0.10321455842007028 0.37713428503274876 0.6110052953493446 0.4408081384171003 -2.380112016559192 -0.021380696770659628 0.003593379697903173 -0.1800425744365629 0.06448895376499936 0.019698296455038428 -0.07675098683754523 -0.0004004191180876915 0.023755333448995664 0 29.6875 31.0 29.8125 33.9375 35.8125 36.125 0.821076 7 253 253 253 253 253 253 2 -0.40222588181495667 0.26815059781074524 -10.074800491333008 1.0 0.7 1.6709107748026257 47.725399017333984 47.72987747192383 0.7441308498382568 47.584930419921875 47.5275993347168 47.5275993347168 47.51326370239258 47.47026824951172 47.38426971435547 768 2
5508.639 -2.488249502880571 -1.3839391896909845 1.3917690520536656 -2.0960177954802015 -0.9874980488403633 -0.7668082938919474 0.36329377446112565 -0.15696116644438343 0.11343899078593463 -0.07386363646027043 -0.22800395043451263 0.30899700982317235 0.6841690667817868 -0.2955954170327374 0.2136327510092878 -0.1391028935221611 -0.42938597068648 0.581915272736655 0.16944314862555054 -5.416984711179916 -0.8534014263664494 -0.6240848876310808 -0.28252307535374654 0.3118618168550975 -10.814894189450307 -47.70788468835464 -19.367384944475177 -2.6890850363343377 -0.02096944295316193 0.12326818753868307 -2.488390032445089 -1.3839440804770966 1.3916338125811976 -2.096004148522848 -0.9874137083636683 -0.7671344915973108 0.3609539568424225 -0.1562148928642273 0.11270523816347122 -0.07379993051290512 -0.22782433032989502 0.31494566798210144 0.1665542721748352 -5.158941268920898 -0.6657318472862244 -0.573753833770752 -0.22039414942264557 0.3678734302520752 0.16944314862555054 -5.416984711179916 -0.8534014263664494 -0.6240848876310808 -0.28252307535374654 0.3118618168550975 0.3571008985173599 0.6178084226591091 0.44311512588192203 -2.3881753066361004 -0.02476233461860595 0.004325301211913916 -0.22064795759659345 0.07083658825163432 0.0246434804678302 -0.08697937510999691 -0.0002564862453325323 0.01882191426102106 3.8502478387369985 -2.9012960532511034 1.081294209298342 0.11082653255161101 -0.11829556843798422 0.10931374149287276 0.3570173298612974 0.6178388475526156 0.44302606162256475 -2.388312454776128 -0.02446523222804603 0.004593497804900328 -0.22230030901570397 0.07143513626298678 0.024700963403108758 -0.08700885819262755 -0.004533425528062712 0.025408650025108365 0 29.6875 31.0 29.8125 33.875 35.8125 36.125 0.815125 7 253 253 253 253 253 253 2 -0.38307225704193115 0.5554547905921936 -9.959878921508789 1.0 0.7 2.0443403575483443 47.68061828613281 47.67882537841797 0.7553206086158752 47.584930419921875 47.5275993347168 47.54193115234375 47.4559326171875 47.44160079956055 47.369937896728516 768 2
5508.739 -2.448499280100549 -1.401113283420587 1.4041811148873056 -2.10409967359384 -1.012445373737247 -0.7329990165459463 0.431710681139304 -0.18652070814765725 0.134802265886864 -0.08777392581248712 -0.2709425475031592 0.36718853709683963 0.684169066781759 -0.2955954170327374 0.2136327510092878 -0.1391028935221611 -0.42938597068648 0.581915272736655 0.356733059552027 -5.497198421776518 -0.8307688946384704 -0.6296935141036532 -0.29970157713463397 0.3285783111506154 -9.503995660628634 -48.35182017152051 -19.419050375986785 -2.7030056882288505 -0.03905795645850975 0.12326906220338663 -2.4487789312945765 -1.4010147464326401 1.4040845076190394 -2.1040832004942835 -1.0123565832721155 -0.7333343664752405 0.4315249025821686 -0.18664111196994781 0.1398330181837082 -0.08658087998628616 -0.2726047933101654 0.37142348289489746 0.39455848932266235 -5.309699535369873 -0.9575173854827881 -0.6245024800300598 -0.21437275409698486 0.39871764183044434 0.356733059552027 -5.497198421776518 -0.8307688946384704 -0.6296935141036532 -0.29970157713463397 0.3285783111506154 0.33286635743492765 0.6250709266510722 0.4457559462750388 -2.3972469647376613 -0.027965045380857388 0.0048413982693924435 -0.26466078308939345 0.07273256707910372 0.02670056788608422 -0.0972945261442708 -0.0038038951714753355 0.020793013213299683 3.9497870744572605 -3.760331897567683 0.4380322709826989 0.08566079324954509 -0.12594445701852547 0.1126241518867384 0.3326784748810558 0.6251286039601581 0.4457573188784152 -2.397295904086195 -0.027874590279988766 0.005032133038765781 -0.2644249278173402 0.07347166828953401 0.02997316589428311 -0.09221920857878242 -0.01046651566320922 0.02492842723094807 0 29.6875 31.0 29.8125 33.875 35.8125 36.125 0.823309 7 253 253 253 253 253 253 2 -0.49799394607543945 0.19153612852096558 -10.093954086303711 1.0 0.7 2.4084307791646786 47.65016555786133 47.66718673706055 0.9075058698654175 47.570594787597656 47.48460006713867 47.498931884765625 47.498931884765625 47.39860534667969 47.38426971435547 768 2
5508.839 -2.4019073666527095 -1.4212433313205164 1.4187295052310385 -2.1135725806426997 -1.041686558340995 -0.6933705864725788 0.5001275878174818 -0.21608024985093086 0.15616554098779323 -0.10168421516470372 -0.3138811445718055 0.42538006437050657 0.6841690667817313 -0.2955954170327374 0.21363275100927392 -0.1391028935221611 -0.42938597068645223 0.5819152727366828 0.5632641835105471 -5.584604183280007 -0.8094825905747314 -0.6359029769517592 -0.3170287742966247 0.34529491681437746 -7.971317499336242 -49.06613227258691 -19.48648797519508 -2.7212952589941017 -0.058294125460332455 0.12327081773264051 -2.4021526018725794 -1.421155960564949 1.4188454786883753 -2.113491197625631 -1.0417030493365687 -0.6934292952166956 0.49738961458206177 -0.21642078459262848 0.15234504640102386 -0.10114257782697678 -0.31136026978492737 0.4260930120944977 0.7204679846763611 -5.547479152679443 -0.8172768354415894 -0.6128821969032288 -0.18977993726730347 0.3912830352783203 0.5632641835105471 -5.584604183280007 -0.8094825905747314 -0.6359029769517592 -0.3170287742966247 0.34529491681437746 0.3043080170657321 0.6322647019996737 0.44888847679728183 -2.4067062964930463 -0.031090953938356897 0.004695583487212789 -0.3044822292144473 0.06954809971697641 0.03818689741105999 -0.08729205731735097 -0.018623373067197857 0.020230768962717083 4.987119873886809 -3.7189379444949937 -0.16553884538669728 0.07042382013814334 -0.14777059063137332 0.07979681601058909 0.30415061906219854 0.6323422702913243 0.4490312573834018 -2.406502918289485 -0.03141817358192994 0.004596104367033342 -0.30599503320633487 0.06978367825822827 0.035562046581026116 -0.09119152739982031 -0.017830680189531933 0.02217162646555887 0 29.6875 31.0 29.8125 33.875 35.8125 36.125 0.84042 7 253 253 253 253 253 253 2 -0.8619126081466675 0.19153612852096558 -9.84495735168457 1.0 0.7 2.7615612914444916 47.690467834472656 47.700321197509766 0.9589777588844299 47.570594787597656 47.51326370239258 47.51326370239258 47.4559326171875 47.41293716430664 47.34127426147461 768 2
5508.938999999999 -2.348473762537054 -1.4443293333907725 1.4354142230848637 -2.12443651662678 -1.0752216026516068 -0.6479230036718464 0.5685444944956575 -0.2456397915542035 0.17752881608872179 -0.11559450451691987 -0.3568197416404504 0.4835715916441715 0.6841690667818145 -0.2955954170327374 0.2136327510092878 -0.1391028935221611 -0.42938597068645223 0.5819152727366272 0.7598180814608323 -5.678023785229008 -0.7908221844513202 -0.6431206572248906 -0.3342315495074725 0.36201168395063477 -6.231326004229249 -49.838978937176705 -19.584693459396853 -2.746915977328587 -0.07656998530493044 0.12327385042486119 -2.3487206141101282 -1.4442065221122284 1.435178581868307 -2.1243463955321253 -1.0750435034381312 -0.6480940024005335 0.5652897357940674 -0.24440516531467438 0.17990100383758545 -0.11543672531843185 -0.35812777280807495 0.4769833981990814 0.6982917189598083 -5.553536891937256 -0.739947497844696 -0.6168349385261536 -0.2651611566543579 0.45060884952545166 0.7598180814608323 -5.678023785229008 -0.7908221844513202 -0.6431206572248906 -0.3342315495074725 0.36201168395063477 0.27167787466506177 0.6388610128090744 0.45294136795943035 -2.415132314866759 -0.03484293461190364 0.002992664274296967 -0.3440594713844 0.058727672091290796 0.039145253998132006 -0.08614599070847653 -0.028332836710808385 0.018133214158002897 3.333454280349441 -2.7179303690568855 0.2241350975147276 0.09239076564759335 -0.07985803273878686 0.14625916355134716 0.271518019194798 0.638870061869334 0.4528816626912041 -2.4152535804427955 -0.03486353542749905 0.003031108213561813 -0.34640183850468925 0.05964129036399215 0.041508619293704065 -0.08270927153379616 -0.025865364615447528 0.017129862280021335 0 29.6875 31.0 29.8125 33.9375 35.8125 36.125 0.822732 7 253 253 253 253 253 253 2 -0.13407528400421143 0.727837324142456 -10.093954086303711 1.0 0.7 3.1022036908800934 47.671661376953125 47.67255783081055 1.0283576250076294 47.5562629699707 47.47026824951172 47.47026824951172 47.4559326171875 47.38426971435547 47.32693862915039 768 2
5509.039 -2.2881984677535816 -1.4703712896313554 1.4542352684487818 -2.136691481546082 -1.113050506669083 -0.5966562681437475 0.636961401173833 -0.27519933325747614 0.1988920911896503 -0.12950479386913602 -0.3997583387090953 0.5417631189178365 0.684169066781759 -0.2955954170327235 0.2136327510092878 -0.1391028935221611 -0.42938597068648 0.5819152727365995 0.9725866484935721 -5.7719756674190785 -0.7735634746428268 -0.6511797900039838 -0.3514688092655121 0.3743037644765999 -4.308369331792243 -50.61617605041448 -19.69933712320676 -2.778655229563188 -0.09511200257711176 0.123278463184002 -2.2885785738574427 -1.470189431016781 1.454191033040182 -2.1367207966246546 -1.112875763569967 -0.5968106428729456 0.6383673548698425 -0.2747898995876312 0.19584926962852478 -0.1281721442937851 -0.39983654022216797 0.5432397723197937 0.9637607336044312 -5.675260066986084 -0.5796767473220825 -0.6223617792129517 -0.2593424618244171 0.4010021686553955 0.9725866484935721 -5.7719756674190785 -0.7735634746428268 -0.6511797900039838 -0.3514688092655121 0.3743037644765999 0.23518529140512381 0.6440106210544685 0.45727784133946625 -2.422735422502678 -0.037693438269603266 0.00022388632682083362 -0.38552658080719354 0.043169990524913146 0.049117086086283505 -0.06482463788048838 -0.03327777806621324 0.010238104667439907 3.3296493243185767 -1.7881224786155607 1.0686597672704958 0.12496118992431288 -0.15704774496372897 0.13517770518901456 0.23493582832823082 0.6440348387177951 0.4573459407087038 -2.4227472915414645 -0.03793363976400927 0.00020201580048290018 -0.38483431491361325 0.04243351523449984 0.04784344208226325 -0.06560543626066155 -0.03335103686596441 0.00995001797819045 0 29.6875 31.0 29.75 33.9375 35.875 36.125 0.826129 7 253 253 253 253 253 253 2 -0.4596867263317108 1.0534486770629883 -10.132261276245117 1.0 0.7 3.428951604140017 47.63493728637695 47.62866973876953 1.1268244981765747 47.498931884765625 47.41293716430664 47.48460006713867 47.41293716430664 47.32693862915039 47.25527572631836 768 2
5509.139 -2.221081482302292 -1.4993692000422651 1.4751926413227925 -2.1503374754006064 -1.1551732703934237 -0.5395703798882829 0.7053783078520086 -0.30475887496074877 0.22025536629057885 -0.14341508322135216 -0.44269693577774016 0.5999546461915015 0.6841690667817035 -0.2955954170327235 0.2136327510092878 -0.1391028935221611 -0.42938597068648 0.581915272736655 1.1998077852331273 -5.863759486648594 -0.7590184997915442 -0.6604036716920274 -0.3685045597925913 0.3848542357431978 -2.2243454076530784 -51.371145322018606 -19.845803964617886 -2.8188638316827146 -0.11209873834164842 0.12328508965955703 -2.2214859167682093 -1.4992418822697182 1.4752476851092737 -2.1502109966673792 -1.1549409071551722 -0.5399053732501429 0.7062736749649048 -0.3031384348869324 0.22062356770038605 -0.14371764659881592 -0.4435389041900635 0.6016931533813477 1.2177647352218628 -5.735250473022461 -0.729426920413971 -0.6559879183769226 -0.27306798100471497 0.4653019905090332 1.1998077852331273 -5.863759486648594 -0.7590184997915442 -0.6604036716920274 -0.3685045597925913 0.3848542357431978 0.19487075537742288 0.6470598402797927 0.4623421469350064 -2.4282016441331904 -0.040227504206514095 -0.003695775816196203 -0.42038905477174143 0.018351773416742573 0.05330553868684741 -0.04090706322617261 -0.03706042045445718 0.00011902746506753381 2.7795419921804316 -2.3864587941593802 0.18510277298477562 0.10182827126568106 -0.11995682151103376 0.15614768184814826 0.19465075265430792 0.6471059859056251 0.46246379724067677 -2.4280719920630713 -0.040305208834667025 -0.003836722357756917 -0.4202719384281474 0.01770927714335458 0.054580872880750905 -0.038872770210545915 -0.03855496065881886 0.0009529564058318174 0 29.625 31.0 29.75 33.875 35.875 36.125 0.826272 7 253 253 253 253 253 253 2 -0.5554547905921936 0.9002197980880737 -10.113107681274414 1.0 0.7 3.740555336919802 47.607173919677734 47.60896682739258 1.2051582336425781 47.427268981933594 47.35560607910156 47.38426971435547 47.34127426147461 47.26960754394531 47.2122802734375 768 2
5509.239 -2.1496068855642836 -1.5302498175033836 1.4975106844349209 -2.1648694437433935 -1.200030880288204 -0.47877815546021196 0.7218267113173759 -0.31186541180658767 0.2253914033501701 -0.1467593158488445 -0.4530199889982564 0.6139447221147746 0.1457028261910298 -0.06295094262789847 0.04549591190293467 -0.029623795786123952 -0.09144340557526442 0.12392653213666449 1.2349556627544032 -5.802079977456496 -0.7867255949195974 -0.6634627895928202 -0.37497845374421895 0.3751250074904359 -1.948706499666926 -50.72842170540549 -20.2468386815273 -2.8346499050615224 -0.13453836301451044 0.02627131349127424 -2.149989430104391 -1.530170490299799 1.4972251097308558 -2.164858480493063 -1.1998360792743128 -0.4791911284076136 0.7209011316299438 -0.31145143508911133 0.2271726280450821 -0.14472676813602448 -0.4551379084587097 0.6180171966552734 1.405219316482544 -5.5376152992248535 -0.6850118041038513 -0.6293511986732483 -0.26661014556884766 0.4338798224925995 1.2349556627544032 -5.802079977456496 -0.7867255949195974 -0.6634627895928202 -0.37497845374421895 0.3751250074904359 0.15270664168234627 0.6473684254798295 0.46821284269065494 -2.429968371274116 -0.041748355036792965 -0.008877222912730107 -0.42067061950577717 -0.013186053719534364 0.05557871464057203 -0.007484263571012634 -0.03307455819307098 -0.013662951735444795 3.066880110474061 -2.1786464462331603 0.30201338087316065 0.11482330333836635 -0.10352335384615947 0.1644478706850567 0.15247195080799814 0.6473633743033297 0.4680772530008563 -2.4302177104251546 -0.0415877579622581 -0.00859752731183399 -0.4215010144834667 -0.012731076366344728 0.05751141909374915 -0.002961672421892256 -0.036745878165433565 -0.008425213227058526 0 29.625 31.0 29.75 33.875 35.875 36.125 0.816972 7 253 253 253 253 253 253 2 -0.3447650372982025 0.8044517636299133 -10.017339706420898 0.9847053356736594 0.7 3.7687762661551085 47.620609283447266 47.6313591003418 1.2185890674591064 47.44160079956055 47.38426971435547 47.38426971435547 47.34127426147461 47.298274993896484 47.240943908691406 768 2
5509.339 -2.0767386768264346 -1.5617325453788364 1.520263884849273 -2.179684756468493 -1.2457631240569285 -0.41680060397432683 0.7330382858376183 -0.3167093753922166 0.22889223322424132 -0.14903881448803472 -0.46005639716406643 0.6234806493607156 0.0 0.0 0.0 0.0 0.0 0.0 1.3889477185707348 -5.8140807156703485 -0.8042763753375984 -0.6703470509017626 -0.3778576381503559 0.37353524289692464 -0.264635021480278 -50.82224830024619 -20.504675057079357 -2.8803061957855625 -0.13799743575159668 2.3336204338262156e-05 -2.0771849791156214 -1.561583399107196 1.5199745337115687 -2.1796404323973597 -1.2454679648028772 -0.4174001852618616 0.733115553855896 -0.3189753293991089 0.22825172543525696 -0.15266913175582886 -0.4567955732345581 0.6308074593544006 1.4205960035324097 -5.553082466125488 -0.6467406153678894 -0.6439561247825623 -0.32719749212265015 0.4306512475013733 1.3889477185707348 -5.8140807156703485 -0.8042763753375984 -0.6703470509017626 -0.3778576381503559 0.37353524289692464 0.11070884760753208 0.6445785044342889 0.474057427613673 -2.4284865336052355 -0.04187733674265507 -0.013494968546211709 -0.4179544300166961 -0.04332539702957702 0.0628032462197701 0.04135428744127422 -0.02571605774810387 -0.020038370640155734 1.781446196306474 -2.7180240673501648 0.14816180652252897 0.08641088939383018 -0.08210471292048316 0.23980725591242433 0.11045401664825583 0.64454263521736 0.4739637075436021 -2.4286854003280385 -0.04154999388729306 -0.013294653208844235 -0.41697436067340676 -0.04359750540391177 0.06000703432872901 0.03456849428502163 -0.02974383120974705 -0.016611849099060827 0 29.625 31.0 29.75 33.9375 35.875 36.125 0.833797 7 253 253 253 253 253 253 2 0.28730422258377075 0.9385271072387695 -9.921571731567383 1.0 0.7 3.7668205088017617 47.6627082824707 47.65374755859375 1.2834866046905518 47.498931884765625 47.41293716430664 47.427268981933594 47.369937896728516 47.31260681152344 47.25527572631836 768 2
5509.438999999999 -2.0053649135082896 -1.5925695977355927 1.5425504425845775 -2.1941962237083406 -1.2905574506815825 -0.3560941427148485 0.6816478012786394 -0.29450610363925545 0.21284548231853728 -0.1385902785212073 -0.4278036190602545 0.579770827782731 -0.684169066781759 0.29559541703269576 -0.21363275100926005 0.1391028935221611 0.4293859706864245 -0.581915272736655 1.3333472054525926 -5.661768964690136 -0.8662253888670705 -0.6692104819463888 -0.36660792459978153 0.3500250890795984 -0.5004025339140564 -49.4327867732689 -20.993304147194657 -2.8922187178811836 -0.13717399728579416 -0.12325322841055024 -2.005775276814596 -1.592421670953268 1.542645279561178 -2.1941119633116664 -1.2903245131122034 -0.3565438429461878 0.6813070178031921 -0.29400181770324707 0.21032795310020447 -0.14254221320152283 -0.4289178252220154 0.5850920081138611 1.4547404050827026 -5.5883893966674805 -0.8484401702880859 -0.6424775123596191 -0.2703579068183899 0.42064008116722107 1.3333472054525926 -5.661768964690136 -0.8662253888670705 -0.6692104819463888 -0.36660792459978153 0.3500250890795984 0.07068385985837766 0.638899213510969 0.4797215782807337 -2.42384183620283 -0.04026857537532623 -0.017062655448817313 -0.37494317496234436 -0.06628595589642841 0.05920818874916795 0.07022358157751879 -0.01652588140912986 -0.02627524456253333 1.9954833222724275 -1.9071560553784925 1.4253898147361945 0.1260810556627263 -0.08748363283257879 0.24089726989561877 0.07046577984099926 0.6388906580610046 0.4798774497234846 -2.423620035394876 -0.04017969688548346 -0.017109331217790718 -0.37576204584053774 -0.06719569755589624 0.057134666088875935 0.06538227951808076 -0.01653096686611294 -0.02127853247833761 0 29.625 31.0 29.75 33.9375 35.875 36.125 0.82176 7 253 253 253 253 253 253 2 0.325611412525177 1.1300631761550903 -9.90241813659668 1.0 0.7 3.4509448138098437 47.661808013916016 47.66718673706055 1.167111873626709 47.4559326171875 47.41293716430664 47.41293716430664 47.39860534667969 47.298274993896484 47.240943908691406 768 2
5509.539 -1.9406209787143363 -1.6205422310143538 1.5627668270613841 -2.2073597370928493 -1.331190882734175 -0.3010266363002607 0.6132308946004638 -0.26494656193598265 0.19148220721760867 -0.12467998916899113 -0.38486502199160955 0.521579300509066 -0.6841690667818145 0.29559541703277903 -0.21363275100931556 0.13910289352217498 0.42938597068648 -0.581915272736655 1.4500023732074971 -5.645841555503912 -0.9119502372507305 -0.6737205042853557 -0.3488479289336326 0.3394748785811363 1.375384689387388 -49.42442943240469 -21.21266156256905 -2.951874762636966 -0.11459741798690377 -0.12325779234657273 -1.9409149328814905 -1.6204716167845667 1.562509838734762 -2.207334180871481 -1.3310230414019983 -0.301370922719137 0.6139698028564453 -0.26770728826522827 0.19479680061340332 -0.12348615378141403 -0.38696184754371643 0.5180806517601013 1.4599049091339111 -5.299606800079346 -0.7028716802597046 -0.6841148734092712 -0.23275430500507355 0.4572110176086426 1.4500023732074971 -5.645841555503912 -0.9119502372507305 -0.6737205042853557 -0.3488479289336326 0.3394748785811363 0.03551444383857645 0.631447917247546 0.4854756837802255 -2.415884815793228 -0.037947266878289906 -0.019561273624338696 -0.32741021879266496 -0.08241598646024485 0.0516071591063577 0.08258060093212874 -0.005775802842400313 -0.020736055196663383 2.600284220871126 -2.569911017506263 1.2536541303203628 0.1076177361859986 -0.026438324024651266 0.27331593296061774 0.03535283116951402 0.6314071974420157 0.48535678126855586 -2.416079795519494 -0.03778897477832412 -0.019391003815229232 -0.32689604269434985 -0.0811340190936683 0.05237750739010415 0.08482991417349216 -0.002656152510858767 -0.022761083822370576 0 29.625 31.0 29.75 33.9375 35.875 36.125 0.832656 7 253 253 253 253 253 253 2 0.47884035110473633 0.9768342971801758 -9.730035781860352 1.0 0.7 3.060825152320904 47.658226013183594 47.668975830078125 1.1223474740982056 47.51326370239258 47.44160079956055 47.4559326171875 47.427268981933594 47.35560607910156 47.28394317626953 768 2
5509.639 -1.8827187345881962 -1.645558910122789 1.5808468840280991 -2.2191322215421376 -1.3675304550799048 -0.25177828261303503 0.5448139879222827 -0.23538702023270772 0.17011893211667845 -0.11076969981677388 -0.3419264249229612 0.4633877732353964 -0.6841690667818145 0.2955954170327374 -0.21363275100931556 0.13910289352218191 0.42938597068648 -0.581915272736655 1.5388387797320706 -5.616638051820369 -0.9549361342764707 -0.6773552516027642 -0.3311229601078884 0.32504377121779204 2.927785635041589 -49.28507834670792 -21.399916422450787 -3.0051663366075463 -0.09229118162413984 -0.1232630400836186 -1.883073631917135 -1.6454822025694789 1.5806930700885218 -2.219109674493307 -1.3673613707171839 -0.2519038359271448 0.5477170944213867 -0.2367437183856964 0.16824579238891602 -0.11034541577100754 -0.3426697850227356 0.464652419090271 1.4711211919784546 -5.37592077255249 -0.767584502696991 -0.6540712118148804 -0.2498256266117096 0.35622838139533997 1.5388387797320706 -5.616638051820369 -0.9549361342764707 -0.6773552516027642 -0.3311229601078884 0.32504377121779204 0.005190500963247072 0.6229502048969424 0.4903911141171308 -2.406985002117517 -0.03453287956075651 -0.020168916612660643 -0.28241897196816346 -0.08792530019818835 0.049071221721292704 0.09746175685101244 0.008939030489404032 -0.020805288880138606 1.9341101806156022 -3.272824442784761 0.5039210373561684 0.08793386063328465 -0.05577024845531285 0.2723058488624317 0.0049992952923439745 0.6229095746662648 0.4903396372788574 -2.4070700090748627 -0.034726230471052125 -0.020123603561562623 -0.280639044983928 -0.08769692659228845 0.047220686418832945 0.09501287016835885 0.009484679558191544 -0.022295804038181655 0 29.625 31.0 29.75 33.9375 35.875 36.125 0.825385 7 253 253 253 253 253 253 2 0.49799394607543945 0.651222825050354 -9.691728591918945 1.0 0.7 2.6854735527977027 47.685096740722656 47.6976318359375 1.0619269609451294 47.5275993347168 47.47026824951172 47.47026824951172 47.4559326171875 47.41293716430664 47.32693862915039 768 2
5509.739 -1.8316581811298747 -1.6676196350608974 1.5967906134847214 -2.2295136770562056 -1.3995761677187701 -0.20834908165317678 0.47639708124410163 -0.20582747852943273 0.14875565701574822 -0.09685941046455665 -0.29898782785431294 0.4051962459617267 -0.6841690667818701 0.29559541703276515 -0.21363275100931556 0.1391028935221611 0.42938597068650775 -0.5819152727367383 1.5938172033387918 -5.578824878143587 -0.9962536332268628 -0.6803127548773578 -0.3134965850040023 0.3083266874798803 4.201202046066642 -49.060716184883205 -21.56762047402774 -3.0535334013452746 -0.07074590788152428 -0.12326857692928393 -1.8319671789752405 -1.667520662347311 1.5966995398150843 -2.229473730126852 -1.3993986288653772 -0.208595101033346 0.477199524641037 -0.20586849749088287 0.15057756006717682 -0.09739603847265244 -0.295373797416687 0.4029395282268524 1.5744452476501465 -5.303909778594971 -1.06271231174469 -0.6926827430725098 -0.2506813704967499 0.4204999804496765 1.5938172033387918 -5.578824878143587 -0.9962536332268628 -0.6803127548773578 -0.3134965850040023 0.3083266874798803 -0.0207154377416022 0.6141195506871572 0.49478536119360017 -2.3974563278471783 -0.0313046515861681 -0.01954572402362025 -0.2387124625506314 -0.08807307121793428 0.04086203982685663 0.09676985957699659 0.02018216840669429 -0.01567838704558555 1.75702459943731 -3.5039433354893714 0.31845330502223157 0.07997131621488389 -0.038290919467044854 0.29877040746805067 -0.020870940196025443 0.6140719053046507 0.49479056873727445 -2.397440465339368 -0.03130401175695843 -0.0195101647050611 -0.2372534127857281 -0.08813285396999167 0.041753007564458135 0.09740576962663311 0.018814814210959374 -0.020557837374162002 0 29.625 31.0 29.75 33.9375 35.875 36.125 0.825313 7 253 253 253 253 253 253 2 0.5171475410461426 0.4213795065879822 -9.90241813659668 1.0 0.7 2.322820939517534 47.66628646850586 47.67613983154297 1.0261164903640747 47.5275993347168 47.44160079956055 47.47026824951172 47.427268981933594 47.35560607910156 47.31260681152344 768 2
5509.839 -1.7874393183393718 -1.6867244058286772 1.6105980154312505 -2.2385041036350506 -1.427328020650771 -0.17073903342068597 0.40798017456592073 -0.17626793682615777 0.12739238191481803 -0.08294912111233937 -0.25604923078566466 0.34700471868805716 -0.6841690667817868 0.2955954170327374 -0.2136327510092878 0.13910289352218191 0.42938597068650775 -0.5819152727367383 1.608431185755498 -5.536591768423843 -1.0355906718433883 -0.6824322012029446 -0.296184575380818 0.29160961481510594 5.222741734944773 -48.792632705312435 -21.71209044100013 -3.095806622620185 -0.05162695881121866 -0.12327402619222556 -1.7877348105060022 -1.686608453790182 1.6105664412127894 -2.238423009912008 -1.427225414906637 -0.1711180845843714 0.4078831076622009 -0.17723099887371063 0.12546242773532867 -0.08311121165752411 -0.25649359822273254 0.35116130113601685 1.6565842628479004 -5.408496856689453 -0.7585632801055908 -0.7079949975013733 -0.20972789824008942 0.3503650426864624 1.608431185755498 -5.536591768423843 -1.0355906718433883 -0.6824322012029446 -0.296184575380818 0.29160961481510594 -0.042387896091833285 0.60549653659341 0.49861783793054726 -2.388042389737033 -0.027930511862382205 -0.018033983138297027 -0.19667551485813473 -0.0836494015303196 0.037860269622379476 0.09633450433464273 0.026539713424925754 -0.02148250325857512 2.911390152894216 -3.10320090311935 -0.2007926819829573 0.07464295155997631 -0.06837140511673269 0.26870352756479526 -0.0425485109750879 0.6054496264332592 0.49868249450601715 -2.3878950233542353 -0.0277976790521105 -0.017879817403960017 -0.19677552880690585 -0.08356586461769122 0.03605257448741017 0.093437199437374 0.024765845667656966 -0.018051582938086203 0 29.625 31.0 29.75 33.9375 35.875 36.125 0.826872 7 253 253 253 253 253 253 2 -0.13407529890537262 0.19153612852096558 -10.017339706420898 1.0 0.7 1.9709275467012697 47.64031219482422 47.65284729003906 0.9433110356330872 47.51326370239258 47.4559326171875 47.44160079956055 47.41293716430664 47.35560607910156 47.298274993896484 768 2
5509.938999999999 -1.7500621462166865 -1.7028732224261303 1.6222690898676861 -2.2461035012786734 -1.4507860138759057 -0.1389481379155617 0.33956326788773966 -0.14670839512288275 0.10602910681388779 -0.06903883176012214 -0.21311063371701644 0.28881319141438755 -0.6841690667817868 0.2955954170327374 -0.21363275100929474 0.1391028935221611 0.4293859706864245 -0.5819152727366828 1.604508388500181 -5.492714484659455 -1.0733203337895436 -0.6837859901589093 -0.2791347724074471 0.27489258778936915 6.031700687660265 -48.50819847473634 -21.837696511857523 -3.1325124464024086 -0.034531763946576394 -0.12327911447425599 -1.7502639929400843 -1.7028724155821742 1.6220534483539026 -2.2460161648192347 -1.4507344404803675 -0.13927251497377569 0.3414449393749237 -0.14479337632656097 0.10741757601499557 -0.06976831704378128 -0.21184618771076202 0.2944875657558441 1.576001763343811 -5.275855541229248 -0.9139066934585571 -0.6936090588569641 -0.20186370611190796 0.3276751637458801 1.604508388500181 -5.492714484659455 -1.0733203337895436 -0.6837859901589093 -0.2791347724074471 0.27489258778936915 -0.060209048082479746 0.5975133395290648 0.5021113975860112 -2.3788691815482665 -0.024623107278393074 -0.015840739560214322 -0.160410254879299 -0.0744466972804778 0.02840176670899327 0.08205975250955877 0.03250401832926267 -0.016480397986423895 1.8570842078854572 -3.4176194328304677 0.3329030437346032 0.08027989725897756 -0.07198041380661092 0.28374154652803363 -0.060318349258510436 0.5974921019262763 0.5019955232571117 -2.3790007589382522 -0.024444029328312654 -0.01562186401390355 -0.1590621057958786 -0.0749937544334387 0.030184889245374776 0.08442093928644419 0.027184145954523065 -0.015136589096081177 0 29.625 31.0 29.75 33.9375 35.875 36.125 0.825528 7 253 253 253 253 253 253 2 0.2298433631658554 0.26815059781074524 -9.691728591918945 1.0 0.7 1.6279799830429553 47.6627082824707 47.6680793762207 0.9343623518943787 47.5562629699707 47.498931884765625 47.498931884765625 47.48460006713867 47.41293716430664 47.35560607910156 768 2
5510.039 -1.71952666476182 -1.7160660848532556 1.6318038367940293 -2.252311869987076 -1.4699501473941758 -0.11297639513780489 0.2711463612095586 -0.11714885341960775 0.08466583171295756 -0.05512854240790491 -0.17017203664836805 0.23062166414071802 -0.6841690667818423 0.2955954170327721 -0.21363275100929474 0.1391028935221611 0.42938597068650775 -0.581915272736655 1.5838960455728421 -5.449647260725968 -1.10832259634008 -0.6840530104951216 -0.262408252069615 0.25817564546041044 6.649858005466622 -48.23164925536635 -21.931258536762414 -3.1613159458176265 -0.019931717827229203 -0.12328353284908225 -1.7197087446795862 -1.7160164318480433 1.631942097340719 -2.2522736988463343 -1.4697726408587855 -0.11317187944521123 0.27538591623306274 -0.11634883284568787 0.08402426540851593 -0.05553121492266655 -0.17091067135334015 0.23223620653152466 1.5020724534988403 -5.2628865242004395 -1.1954855918884277 -0.6685048341751099 -0.23802071809768677 0.31126901507377625 1.5838960455728421 -5.449647260725968 -1.10832259634008 -0.6840530104951216 -0.262408252069615 0.25817564546041044 -0.07438001423946418 0.5905734949553278 0.5045929247313412 -2.371408562185943 -0.021527899027847918 -0.013065046516334772 -0.12610818571287272 -0.0632356420584103 0.0242317693310186 0.07165418379220567 0.02673088994983247 -0.009486496725877841 1.0541735957077008 -3.41252159658974 -0.4390940108299235 0.07658061613258534 -0.057839890576054515 0.2893888767494843 -0.0744437596103496 0.590555009087801 0.5047156582965227 -2.3712019972274185 -0.02144121712987376 -0.013134147336475504 -0.12382999187835449 -0.063294013122731 0.024202364141860014 0.0715218490499338 0.02624259400709003 -0.012052474530120233 0 29.625 31.0 29.75 33.9375 35.875 36.125 0.815221 7 253 253 253 253 253 253 2 0.40222588181495667 0.13407529890537262 -9.959878921508789 1.0 0.7 1.2922825788443706 47.692256927490234 47.705692291259766 0.8157517910003662 47.61359786987305 47.54193115234375 47.54193115234375 47.51326370239258 47.44160079956055 47.39860534667969 768 2
5510.139 -1.695832873974772 -1.7263029931100533 1.6392022562102788 -2.2571292097602553 -1.4848204212055816 -0.09282380508741639 0.20272945453137767 -0.08758931171633282 0.06330255661202734 -0.04121825305568763 -0.12723343957971983 0.1724301368670483 -0.6841690667817729 0.29559541703273046 -0.21363275100929474 0.13910289352218191 0.4293859706865216 -0.5819152727367383 1.548840318343485 -5.411012574855306 -1.1419622160623082 -0.6835559019921889 -0.2461642907766654 0.24145880086081897 7.103273314923482 -47.998810777136676 -22.00881057741965 -3.184563162289672 -0.009056142072219137 -0.12328717823573901 -1.696038548146383 -1.7262207470335902 1.6391685644732874 -2.257127901116842 -1.4848311583148401 -0.09283525148500615 0.20644183456897736 -0.08895567804574966 0.06159717217087746 -0.04119426757097244 -0.1255689114332199 0.16920803487300873 1.556930422782898 -5.20257043838501 -1.0021921396255493 -0.6752151250839233 -0.19140008091926575 0.24209053814411163 1.548840318343485 -5.411012574855306 -1.1419622160623082 -0.6835559019921889 -0.2461642907766654 0.24145880086081897 -0.08502736613133532 0.5849596373420918 0.5068076050406269 -2.364888584040218 -0.018712041709454414 -0.010894250637625134 -0.09333654629340309 -0.04984882815132887 0.02002599570944954 0.058896381695924864 0.020885322612288787 -0.001769598208710435 2.0142837321583977 -3.1931145134138905 -0.4447540849813221 0.07618375761759726 -0.09146540711854104 0.2695949613265639 -0.0851541685850414 0.5849118083702565 0.506833512774064 -2.364835868936299 -0.018949375267833784 -0.010784275247371697 -0.09068993351124512 -0.04923594064328683 0.018144973912705073 0.05574845500108726 0.022362035784448786 -0.008942412753526363 0 29.625 31.0 29.75 33.9375 35.875 36.125 0.81972 7 253 253 253 253 253 253 2 0.05746084079146385 0.1149216815829277 -9.787496566772461 1.0 0.7 0.9622441338000556 47.72092056274414 47.71375274658203 0.7665104269981384 47.61359786987305 47.54193115234375 47.5562629699707 47.51326370239258 47.4559326171875 47.39860534667969 768 2
5510.239 -1.6789807738555425 -1.7335839471965233 1.644464348116435 -2.2605555205982135 -1.495396835310121 -0.07849036776439355 0.13431254785319643 -0.0580297700130578 0.041939281511097125 -0.027307963703470398 -0.08429484251107146 0.11423860959337874 -0.6841690667818562 0.2955954170327721 -0.21363275100929127 0.1391028935221611 0.4293859706865147 -0.5819152727366689 1.501402516998854 -5.377851999789852 -1.1739326000835317 -0.6821817609151323 -0.23019473349137998 0.2247420765526861 7.415701512189821 -47.820029540107946 -22.066741201557317 -3.201433128116835 -0.0002984617441801479 -0.1232898721798909 -1.6790393034564417 -1.7335554562010707 1.6443098227130335 -2.2605415783324183 -1.4952638784991663 -0.07863313356508428 0.13544683158397675 -0.0581953302025795 0.04329795762896538 -0.025480426847934723 -0.08811158686876297 0.11790702491998672 1.5829085111618042 -5.168769359588623 -1.0164940357208252 -0.6846088171005249 -0.19027410447597504 0.263874888420105 1.501402516998854 -5.377851999789852 -1.1739326000835317 -0.6821817609151323 -0.23019473349137998 0.2247420765526861 -0.09263308932598383 0.580790325705826 0.5084233226771371 -2.360025952162897 -0.017260290486190107 -0.008838022733625253 -0.05892001186089782 -0.03399996245983746 0.010778697043491534 0.03471121458848682 0.016353728590292785 -0.010034727709838528 1.4255957659414793 -3.6031977979296723 -0.25640194240537206 0.08983009695813614 -0.0804112854248145 0.2831713015024009 -0.09263597462307645 0.5807637548106634 0.5083431366296237 -2.360147073227022 -0.01709150880102003 -0.00888166063112173 -0.059174940694647044 -0.033497474567837485 0.012041798923914281 0.03796521705378842 0.016144067017476477 -0.005875014099101156 0 29.625 31.0 29.75 33.9375 35.875 36.125 0.74958 7 253 253 253 253 253 253 2 0.325611412525177 0.13407528400421143 -9.825803756713867 1.0 0.7 0.6363610200504621 47.743309020996094 47.75763702392578 0.7597975730895996 47.65659713745117 47.584930419921875 47.599266052246094 47.54193115234375 47.498931884765625 47.47026824951172 768 2
5510.339 -1.6689703644041316 -1.7379089471126647 1.6475901125124983 -2.2625908025009505 -1.501679389707796 -0.06997608316873904 0.0658956411750155 -0.028470228309782863 0.0205760064101669 -0.013397674351253124 -0.041356245442423244 0.05604708231970918 -0.6841690667818631 0.2955954170327339 -0.21363275100929127 0.13910289352218017 0.4293859706865112 -0.5819152727366654 1.4422295988789846 -5.350944266346512 -1.2034242319631232 -0.679736053254967 -0.21476400243323068 0.20802548891387662 7.594687688678508 -47.703051679971786 -22.095524502391267 -3.210511309596656 0.0043004688188740675 -0.12329148514119365 -1.6690571943866175 -1.7378760776915492 1.647576634083883 -2.2625886402525843 -1.5016267935382288 -0.0700457731830042 0.06705718487501144 -0.030422139912843704 0.02170238085091114 -0.014466898515820503 -0.043199773877859116 0.05748463794589043 1.3560961484909058 -5.019176483154297 -1.1943206787109375 -0.6736294627189636 -0.1931854635477066 0.19719263911247253 1.4422295988789846 -5.350944266346512 -1.2034242319631232 -0.679736053254967 -0.21476400243323068 0.20802548891387662 -0.0969877362851027 0.5782690769036452 0.5092309909404714 -2.357318916703068 -0.015958846313204333 -0.007670067489890431 -0.02904228410761436 -0.017454968309451507 0.006546460259166628 0.020699981222640294 0.007842512808105655 -0.004014791141148902 2.0374150501866937 -3.547260145901334 -0.3188085208329976 0.08618072716660441 -0.10947509480344682 0.26632762340567473 -0.09702599835229411 0.5782480432706876 0.5092410330357545 -2.357300364582401 -0.015954383671435705 -0.007658284354917308 -0.028764082456148605 -0.01668549747772243 0.005913237151830921 0.01891865108366212 0.0083146926408132 -0.002864673229465313 0 29.625 31.0 29.75 33.9375 35.875 36.125 0.765205 7 253 253 253 253 253 253 2 -0.019153613597154617 -0.019153613597154617 -9.825803756713867 1.0 0.7 0.3131974822574677 47.75315856933594 47.76659393310547 0.6792280077934265 47.65659713745117 47.599266052246094 47.599266052246094 47.584930419921875 47.5275993347168 47.4559326171875 768 2
5510.438999999999 -1.6657969999999995 -1.73928 1.6485809999999999 -2.263236 -1.5036709999999998 -0.06727699999999981 0.0 0.0 0.0 0.0 0.0 0.0 0.0 3.8163916471489756e-14 0.0 0.0 0.0 -7.632783294297951e-14 0.8523553328985201 -4.616159624150003 -1.919717565469289 -0.4495242878802033 9.1320610749211e-06 -2.0461984381157595e-15 9.792842047408111 -49.176625559218905 -21.822367984687364 -3.268668849202888 7.048275480390518e-05 -1.6184359169532107e-14 -1.6658785978900355 -1.7391959629454554 1.6484435240374964 -2.2631479702391566 -1.5035541693316858 -0.0673444906817835 -0.003149145981296897 -8.953163904701356e-11 -0.001614068984054029 -0.0004228745528962463 -0.00038436439353972673 -0.0014725939836353064 1.0910283327102661 -4.609989643096924 -1.569808006286621 -0.6299815773963928 -0.04696321487426758 0.054681506007909775 0.8523553328985201 -4.616159624150003 -1.919717565469289 -0.4495242878802033 9.1320610749211e-06 -2.0461984381157595e-15 -0.0983882898468902 0.5774812769049988 0.5095452404911933 -2.3564163237908384 -0.015627236505727313 -0.007187678290887851 0.0019283080498798365 0.0004671594751563569 0.0011286570932167058 0.002006478422998556 -0.0015038553955557608 -0.002375051397463003 1.1897609360044588 -3.675860753049471 -0.3162575554353697 0.07974880777818469 -0.08233056545337913 0.27292157437731823 -0.09840914659740613 0.5774426115021309 0.5095258382166512 -2.3563885441095627 -0.015588705836319246 -0.0072557728748750445 0.0 0.0 0.0 0.0 0.0 0.0 0 29.625 31.0 29.75 33.9375 35.875 36.125 0.654504 7 253 253 253 253 253 253 2 0.3447650372982025 0.038307227194309235 -9.710882186889648 0.0 0.7 0.0 47.762115478515625 47.76032257080078 0.5628532767295837 47.68526077270508 47.599266052246094 47.65659713745117 47.6279296875 47.570594787597656 47.498931884765625 768 1
5510.539 -1.6657969999999995 -1.73928 1.6485809999999999 -2.263236 -1.5036709999999998 -0.06727699999999981 0.0 0.0 0.0 0.0 0.0 0.0 0.0 0.0 0.0 0.0 0.0 0.0 0.8523044319578217 -4.616178435869211 -1.9196197668679467 -0.44952423458703206 -1.5497903110206214e-05 0.0 9.792257238639884 -49.17682596322286 -21.82125626017889 -3.2686684616871666 -0.00011961537444062503 0.0 -1.6659253279315394 -1.7391602001585902 1.6484563986407679 -2.2632318935790003 -1.5036028067218226 -0.06729633012880498 -5.425576455309056e-05 -4.9154856242239475e-05 -2.4273009557873593e-07 -0.0004346351488493383 -0.0007738118292763829 0.00024126000062096864 1.2276932001113892 -4.697619438171387 -1.3652423620224 -0.6677348017692566 -0.19982968270778656 0.17316748201847076 0.8523044319578217 -4.616178435869211 -1.9196197668679467 -0.44952423458703206 -1.5497903110206214e-05 0.0 -0.09834737211687718 0.5775057777207123 0.5095370628820497 -2.35638482422353 -0.0154935503493219 -0.007247643973800087 0.00022655472219840079 2.7248058824923584e-05 0.00012792051703077348 0.000440496332199184 -0.00042011869924993105 -0.000768255154471892 2.058868343975284 -3.3588527298126962 -0.5931568445302482 0.09129773123672007 -0.09946878814729529 0.23992799859789746 -0.09840914659740613 0.5774426115021309 0.5095258382166512 -2.3563885441095627 -0.015588705836319246 -0.0072557728748750445 0.0 0.0 0.0 0.0 0.0 0.0 0 29.625 31.0 29.75 33.9375 35.875 36.125 0.58626 7 253 253 253 253 253 253 2 -0.17238251864910126 0.07661445438861847 -9.998186111450195 0.0 0.7 0.0 47.74778747558594 47.780025482177734 0.5606174468994141 47.670928955078125 47.599266052246094 47.61359786987305 47.584930419921875 47.5562629699707 47.498931884765625 768 1
5510.639 -1.6657969999999995 -1.73928 1.6485809999999999 -2.263236 -1.5036709999999998 -0.06727699999999981 0.0 0.0 0.0 0.0 0.0 0.0 0.0 0.0 0.0 0.0 0.0 0.0 0.852318449008842 -4.616092971166865 -1.919617636289972 -0.4495236901562721 -3.0351731252878777e-05 0.0 9.792418282703686 -49.1759154952131 -21.82123204085756 -3.2686645029158305 -0.00023425967196448737 0.0 -1.6658895651446741 -1.7391602001585902 1.6484807173358362 -2.263183733026022 -1.5036738554583948 -0.06727248827089483 -2.2522930087246352e-39 -0.00013872023555450141 0.0008221076568588614 -8.3281280240044e-05 -0.00019560310465749353 0.00038798581226728857 1.4275476932525635 -4.993985176086426 -1.2223656177520752 -0.6522322297096252 -0.1935514658689499 0.1783478707075119 0.852318449008842 -4.616092971166865 -1.919617636289972 -0.4495236901562721 -3.0351731252878777e-05 0.0 -0.09835082870357556 0.5774946924818793 0.5095090242419771 -2.356461093834946 -0.0154699809776429 -0.007294028913569138 3.973950266403016e-05 -9.999133091718604e-05 -0.0004263963502517752 -0.0006076452098612343 0.00019337112048638006 -0.0004125549057115939 2.6289923325792017 -2.9774496008276667 -0.4501101543366812 0.08807131375379627 -0.0951989329627792 0.24077215804016416 -0.09840914659740613 0.5774426115021309 0.5095258382166512 -2.3563885441095627 -0.015588705836319246 -0.0072557728748750445 0.0 0.0 0.0 0.0 0.0 0.0 0 29.625 31.0 29.75 33.9375 35.875 36.125 0.575557 7 253 253 253 253 253 253 2 -0.038307227194309235 0.15322890877723694 -10.093954086303711 0.0 0.7 0.0 47.75047302246094 47.77823257446289 0.6546126008033752 47.68526077270508 47.64226531982422 47.61359786987305 47.599266052246094 47.5562629699707 47.5275993347168 768 1
5510.739 -1.6657969999999995 -1.73928 1.6485809999999999 -2.263236 -1.5036709999999998 -0.06727699999999981 0.0 0.0 0.0 0.0 0.0 0.0 0.0 0.0 0.0 0.0 0.0 0.0 0.852412178471397 -4.615922709413803 -1.9195225819254647 -0.4495000073956231 -4.863936762486277e-07 0.0 9.793495154973458 -49.174101671784285 -21.82015151143066 -3.2684922961984553 -3.7540666822027647e-06 0.0 -1.6658528486834925 -1.7391721210875453 1.648552719746725 -2.2632557354369105 -1.5036738554583948 -0.06730872789491826 0.0013121012598276138 -0.0003294791968073696 0.0002583949826657772 -5.973645544471512e-21 -5.681994298356585e-05 0.00010255506640532985 1.5487009286880493 -5.234118938446045 -1.2843594551086426 -0.6399632692337036 -0.18126925826072693 0.1534326821565628 0.852412178471397 -4.615922709413803 -1.9195225819254647 -0.4495000073956231 -4.863936762486277e-07 0.0 -0.09837229286018008 0.5774894669029347 0.5094876766483692 -2.356448625145322 -0.01555666358511199 -0.007294608814901769 -0.0007560170672806123 -0.0002619627789512091 2.1259756030600602e-05 6.77672476795552e-05 2.5578442131249084e-05 0.0011992729025898552 2.1228557111920523 -3.30932792306458 -0.7492292242095027 0.0806506054989031 -0.09047957288634874 0.24500785802193212 -0.09840914659740613 0.5774426115021309 0.5095258382166512 -2.3563885441095627 -0.015588705836319246 -0.0072557728748750445 0.0 0.0 0.0 0.0 0.0 0.0 0 29.625 31.0 29.75 33.9375 35.875 36.125 0.575628 7 253 253 253 253 253 253 2 0.038307227194309235 0.13407529890537262 -10.036493301391602 0.0 0.7 0.0 47.76301193237305 47.785400390625 0.6277561187744141 47.670928955078125 47.61359786987305 47.64226531982422 47.6279296875 47.584930419921875 47.5275993347168 768 1
5510.839 -1.6657969999999995 -1.73928 1.6485809999999999 -2.263236 -1.5036709999999998 -0.06727699999999981 0.0 0.0 0.0 0.0 0.0 0.0 0.0 0.0 0.0 0.0 0.0 0.0 0.8524743312141421 -4.615754467702973 -1.9195599471170763 -0.4495052332456646 4.420409811363607e-06 0.0 9.794209237432993 -49.17230936816168 -21.820576259828982 -3.2685302954205255 3.411745260034956e-05 0.0 -1.6657937208758753 -1.7392322025694789 1.6486366430865687 -2.2632318935790003 -1.5036500136004847 -0.06727248827089483 0.0001312761742155999 -9.619285265216604e-05 -0.0 -0.0 -0.0 1.0308572376937215e-29 1.3676177263259888 -5.029703140258789 -1.2607569694519043 -0.6420137286186218 -0.19124357402324677 0.15929867327213287 0.8524743312141421 -4.615754467702973 -1.9195599471170763 -0.4495052332456646 4.420409811363607e-06 0.0 -0.09841509782182209 0.5774545579123648 0.509462552224788 -2.3564943415880406 -0.01559316070869661 -0.007214654171135848 -7.896855455166447e-05 -4.613153361019458e-05 5.440462125959288e-05 9.575913274699836e-05 -9.124329232015998e-06 0.0001312725728475672 2.1053846454926695 -3.458889708271827 -0.5355521286674787 0.09057076367729266 -0.09600515299049066 0.2477309229212351 -0.09840914659740613 0.5774426115021309 0.5095258382166512 -2.3563885441095627 -0.015588705836319246 -0.0072557728748750445 0.0 0.0 0.0 0.0 0.0 0.0 0 29.625 31.0 29.75 33.9375 35.875 36.125 0.577248 7 253 253 253 253 253 253 2 -0.019153613597154617 0.05746084079146385 -10.036493301391602 0.0 0.7 0.0 47.78450393676758 47.78450393676758 0.6277561187744141 47.7282600402832 47.64226531982422 47.64226531982422 47.6279296875 47.584930419921875 47.5275993347168 768 1
5510.938999999999 -1.6657969999999995 -1.73928 1.6485809999999999 -2.263236 -1.5036709999999998 -0.06727699999999981 0.0 0.0 0.0 0.0 0.0 0.0 0.0 0.0 0.0 0.0 0.0 0.0 0.8525090276213548 -4.615817628926029 -1.919653050373859 -0.4495241547980096 6.400782943494332e-06 0.0 9.794607869813566 -49.17298223393517 -21.821634610060613 -3.268667881509634 4.940229933396798e-05 0.0 -1.6657937208758753 -1.7392798862852992 1.6486004034625452 -2.2632318935790003 -1.5036981741534632 -0.06726056734193975 1.8487676942101056e-18 -4.611341864801943e-05 -0.0 -0.0 -0.0 4.5432242495001274e-13 1.3973017930984497 -5.059928894042969 -1.3312134742736816 -0.6377183794975281 -0.1615438312292099 0.1533174067735672 0.8525090276213548 -4.615817628926029 -1.919653050373859 -0.4495241547980096 6.400782943494332e-06 0.0 -0.098404405953563 0.5774402344195338 0.5095121480168977 -2.3564137708565234 -0.015559038946852006 -0.00727538429442994 -1.516286381489234e-06 -1.592360264766649e-05 2.608015311534023e-05 4.590549979557702e-05 -4.374067004597445e-06 -1.7267634488696414e-09 2.391763242768863 -3.1621563973237743 -0.4887841582256376 0.08880341639557936 -0.10095855467282923 0.23663103716363637 -0.09840914659740613 0.5774426115021309 0.5095258382166512 -2.3563885441095627 -0.015588705836319246 -0.0072557728748750445 0.0 0.0 0.0 0.0 0.0 0.0 0 29.625 31.0 29.75 33.9375 35.875 36.125 0.585 7 253 253 253 253 253 253 2 -0.13407529890537262 0.13407528400421143 -9.921571731567383 0.0 0.7 0.0 47.764801025390625 47.78718948364258 0.6456586718559265 47.68526077270508 47.599266052246094 47.6279296875 47.6279296875 47.5562629699707 47.54193115234375 768 1
5511.039 -1.6657969999999995 -1.73928 1.6485809999999999 -2.263236 -1.5036709999999998 -0.06727699999999981 0.0 0.0 0.0 0.0 0.0 0.0 0.0 0.0 0.0 0.0 0.0 0.0 0.8524461813516492 -4.6157093747777465 -1.919524281196076 -0.44950041462886753 7.075952853228345e-06 0.0 9.793885819315678 -49.171828986615154 -21.820170827870353 -3.268495257352404 5.4613372147469545e-05 0.0 -1.6658056418048304 -1.7392798862852992 1.6485641638385218 -2.2632438145079554 -1.5036738554583948 -0.06729633012880498 0.0 -1.1337905252424254e-16 -0.0 -0.0 -0.0 0.0 1.3316272497177124 -5.092747211456299 -1.3106358051300049 -0.6350098252296448 -0.15192998945713043 0.15319134294986725 0.8524461813516492 -4.6157093747777465 -1.919524281196076 -0.44950041462886753 7.075952853228345e-06 0.0 -0.09840326851804444 0.577445516214698 0.509538397686288 -2.3563642466213386 -0.015600924536746164 -0.007275598152159177 -3.7288420411780655e-18 -3.915427667994076e-17 6.41236688039326e-17 1.1286771427386188e-16 -1.0755863883039477e-17 -4.2448028526279315e-21 2.106796650903485 -3.3494301798016584 -0.5020764421360862 0.08874754450399024 -0.09553397709959906 0.24626735119916232 -0.09840914659740613 0.5774426115021309 0.5095258382166512 -2.3563885441095627 -0.015588705836319246 -0.0072557728748750445 0.0 0.0 0.0 0.0 0.0 0.0 0 29.625 31.0 29.75 33.9375 35.875 36.125 0.575077 7 253 253 253 253 253 253 2 -0.09576806426048279 0.019153613597154617 -9.979032516479492 0.0 0.7 0.0 47.730770111083984 47.751365661621094 0.6389458775520325 47.670928955078125 47.584930419921875 47.599266052246094 47.570594787597656 47.51326370239258 47.4559326171875 768 1
5511.139 -1.6657969999999995 -1.73928 1.6485809999999999 -2.263236 -1.5036709999999998 -0.06727699999999981 0.0 0.0 0.0 0.0 0.0 0.0 0.0 0.0 0.0 0.0 0.0 0.0 0.8524561606704438 -4.615754019341938 -1.9195628233894568 -0.44950997033761586 -3.269170709855044e-06 0.0 9.7940004732504 -49.1723045917058 -21.820608955823143 -3.268564740689256 -2.5231999180076944e-05 0.0 -1.6658175627337855 -1.739256044427389 1.6485641638385218 -2.263219495812887 -1.5036738554583948 -0.06726056734193975 0.0 0.0 -0.0 -0.0 -0.0 0.0 1.29725182056427 -5.067963600158691 -1.3301775455474854 -0.6296536326408386 -0.15453456342220306 0.15223605930805206 0.8524561606704438 -4.615754019341938 -1.9195628233894568 -0.44950997033761586 -3.269170709855044e-06 0.0 -0.09839579969327149 0.5774523298568667 0.5095189129691206 -2.3564125354639187 -0.015542744497465313 -0.007258496380163638 0.0 0.0 0.0 0.0 0.0 0.0 2.212475521157329 -3.191805131884574 -0.4261846826119082 0.08744303517693602 -0.09577432506047254 0.23821696265864956 -0.09840914659740613 0.5774426115021309 0.5095258382166512 -2.3563885441095627 -0.015588705836319246 -0.0072557728748750445 0.0 0.0 0.0 0.0 0.0 0.0 0 29.5625 31.0 29.75 33.9375 35.875 36.125 0.5811 7 253 253 253 253 253 253 2 -0.13407529890537262 0.13407529890537262 -9.979032516479492 0.0 0.7 0.0 47.737037658691406 47.7585334777832 0.6053765416145325 47.670928955078125 47.599266052246094 47.599266052246094 47.61359786987305 47.54193115234375 47.47026824951172 768 1
5511.239 -1.6657969999999995 -1.73928 1.6485809999999999 -2.263236 -1.5036709999999998 -0.06727699999999981 0.0 0.0 0.0 0.0 0.0 0.0 0.0 0.0 0.0 0.0 0.0 0.0 0.8524741893929879 -4.615739680757529 -1.9195460893951952 -0.44950980693806153 4.420414851664487e-06 0.0 9.794207608027852 -49.17215184066296 -21.82041873233027 -3.2685635525464845 3.411749150222375e-05 0.0 -1.6658175627337855 -1.739244123498434 1.6486242453204554 -2.2632676563658656 -1.5036619345294397 -0.06726056734193975 0.0 0.0 -0.0 -0.0 -0.0 0.0 1.3251917362213135 -5.036411285400391 -1.3399946689605713 -0.6240963339805603 -0.1670990139245987 0.14016516506671906 0.8524741893929879 -4.615739680757529 -1.9195460893951952 -0.44950980693806153 4.420414851664487e-06 0.0 -0.09839837302642204 0.5774573780918527 0.5094859019541486 -2.3564355285942953 -0.015547761316939817 -0.007241266446970002 0.0 0.0 0.0 0.0 0.0 0.0 2.3114266904910616 -3.290404751707472 -0.5608072815060805 0.08970198827608755 -0.09573488994226893 0.24417980295168146 -0.09840914659740613 0.5774426115021309 0.5095258382166512 -2.3563885441095627 -0.015588705836319246 -0.0072557728748750445 0.0 0.0 0.0 0.0 0.0 0.0 0 29.5625 31.0 29.75 33.9375 35.875 36.125 0.57792 7 253 253 253 253 253 253 2 -0.05746084079146385 0.09576806426048279 -9.959878921508789 0.0 0.7 0.0 47.7191276550293 47.72897720336914 0.5874739289283752 47.6279296875 47.584930419921875 47.584930419921875 47.570594787597656 47.5275993347168 47.4559326171875 768 1
5511.339 -1.6657969999999995 -1.73928 1.6485809999999999 -2.263236 -1.5036709999999998 -0.06727699999999981 0.0 0.0 0.0 0.0 0.0 0.0 0.0 0.0 0.0 0.0 0.0 0.0 0.8524755556860516 -4.615805535039463 -1.9194826074732285 -0.4494860120653559 -1.5964488232946682e-06 0.0 9.794223305579855 -49.172853395987694 -21.81969710229133 -3.268390530618013 -1.2321655543705749e-05 0.0 -1.6658056418048304 -1.739267965356344 1.648611847554342 -2.263219495812887 -1.5036981741534632 -0.0672844091998499 0.0 0.0 -0.0 -0.0 -0.0 0.0 1.305619239807129 -5.082576274871826 -1.3762153387069702 -0.6044920086860657 -0.16339465975761414 0.1586080938577652 0.8524755556860516 -4.615805535039463 -1.9194826074732285 -0.4494860120653559 -1.5964488232946682e-06 0.0 -0.09839730455930501 0.5774433794968481 0.5094950586022826 -2.356449342393279 -0.015571615558673925 -0.0072887254755203724 0.0 0.0 0.0 0.0 0.0 0.0 1.9027545471125846 -2.931862618570101 -0.4848409003300411 0.07951997219132613 -0.1002197767926657 0.23063865234022815 -0.09840914659740613 0.5774426115021309 0.5095258382166512 -2.3563885441095627 -0.015588705836319246 -0.0072557728748750445 0.0 0.0 0.0 0.0 0.0 0.0 0 29.5625 31.0 29.75 33.875 35.875 36.125 0.579829 7 253 253 253 253 253 253 2 -0.13407529890537262 0.038307227194309235 -9.998186111450195 0.0 0.7 0.0 47.748680114746094 47.75763702392578 0.5449506640434265 47.65659713745117 47.599266052246094 47.61359786987305 47.570594787597656 47.5275993347168 47.51326370239258 768 1
5511.438999999999 -1.6657969999999995 -1.73928 1.6485809999999999 -2.263236 -1.5036709999999998 -0.06727699999999981 0.0 0.0 0.0 0.0 0.0 0.0 0.0 0.0 0.0 0.0 0.0 0.0 0.8524514523317356 -4.615803044948018 -1.9195274999903336 -0.44950520608512234 1.2395044655594902e-06 0.0 9.79394637841988 -49.17282686867829 -21.820207417478127 -3.2685300979254825 9.566700069965302e-06 0.0 -1.6658294836627405 -1.7392322025694789 1.648588005696432 -2.2632438145079554 -1.5036380926715296 -0.0672844091998499 0.0 0.0 -0.0 -0.0 -0.0 0.0 1.2932320833206177 -5.045849800109863 -1.3495221138000488 -0.5972504019737244 -0.15008912980556488 0.16199041903018951 0.8524514523317356 -4.615803044948018 -1.9195274999903336 -0.44950520608512234 1.2395044655594902e-06 0.0 -0.09839701676787682 0.5774629597236943 0.5094965808954243 -2.3564335927824143 -0.015573338733102567 -0.007230910438599758 0.0 0.0 0.0 0.0 0.0 0.0 2.11792622242874 -3.0906690724533203 -0.4732818224337916 0.08583522768893204 -0.09442365769525615 0.24019145089087024 -0.09840914659740613 0.5774426115021309 0.5095258382166512 -2.3563885441095627 -0.015588705836319246 -0.0072557728748750445 0.0 0.0 0.0 0.0 0.0 0.0 0 29.5625 31.0 29.75 33.875 35.875 36.125 0.573012 7 253 253 253 253 253 253 2 -0.09576806426048279 0.038307227194309235 -9.90241813659668 0.0 0.7 0.0 47.75942611694336 47.77644348144531 0.6076123714447021 47.6995964050293 47.6279296875 47.64226531982422 47.6279296875 47.5562629699707 47.51326370239258 3840 1
5511.539 -1.6657969999999995 -1.73928 1.6485809999999999 -2.263236 -1.5036709999999998 -0.06727699999999981 0.0 0.0 0.0 0.0 0.0 0.0 0.0 0.0 0.0 0.0 0.0 0.0 0.8524203947766874 -4.615831753305066 -1.9196422666409931 -0.44953373631095767 -1.8828714513677286e-05 0.0 9.793589553373767 -49.173132703016776 -21.821512026097704 -3.268737552479025 -0.00014532312666904859 0.0 -1.6657937208758753 -1.7393042049803675 1.648588005696432 -2.2632318935790003 -1.5036500136004847 -0.0672844091998499 0.0 0.0 -0.0 -0.0 -0.0 0.0 1.294324517250061 -5.072760581970215 -1.4038681983947754 -0.6077892780303955 -0.14189763367176056 0.15162554383277893 0.8524203947766874 -4.615831753305066 -1.9196422666409931 -0.44953373631095767 -1.8828714513677286e-05 0.0 -0.09841715600348279 0.5774331910389126 0.50953424989681 -2.356374171656179 -0.015611987012981103 -0.0072346811959407824 0.0 0.0 0.0 0.0 0.0 0.0 1.9766621554110184 -2.989248463224282 -0.49137404577742294 0.08303513002620035 -0.09631040406865547 0.2345222855470166 -0.09840914659740613 0.5774426115021309 0.5095258382166512 -2.3563885441095627 -0.015588705836319246 -0.0072557728748750445 0.0 0.0 0.0 0.0 0.0 0.0 0 29.5625 31.0 29.75 33.875 35.875 36.125 0.57846 7 253 253 253 253 253 253 2 -0.05746084079146385 0.15322890877723694 -9.998186111450195 0.0 0.7 0.0 47.76301193237305 47.788089752197266 0.6322330832481384 47.7282600402832 47.6279296875 47.6279296875 47.61359786987305 47.5562629699707 47.48460006713867 3840 1
5511.639 -1.6657969999999995 -1.73928 1.6485809999999999 -2.263236 -1.5036709999999998 -0.06727699999999981 0.0 0.0 0.0 0.0 0.0 0.0 0.0 0.0 0.0 0.0 0.0 0.0 0.8524800923122505 -4.615756121886955 -1.9196021319687027 -0.4495197163987574 8.929094580030936e-06 0.0 9.794275427578837 -49.17232699042627 -21.821055795658694 -3.268635608153628 6.891622589270042e-05 0.0 -1.6658294836627405 -1.7392918072142542 1.6485756079303187 -2.2632318935790003 -1.5036500136004847 -0.06726056734193975 0.0 0.0 -0.0 -0.0 -0.0 1.5059995619434673e-37 1.288368582725525 -5.052606105804443 -1.4187023639678955 -0.5952904224395752 -0.14392156898975372 0.14905710518360138 0.8524800923122505 -4.615756121886955 -1.9196021319687027 -0.4495197163987574 8.929094580030936e-06 0.0 -0.09839601865768977 0.5774418822767042 0.5095351339685439 -2.3563746544859847 -0.015541773032225294 -0.007240491526529185 0.0 1.6328079968213252e-56 2.0410099960266566e-56 8.782383415567875e-41 1.0646681121611388e-37 -1.0651364796206015e-37 2.23249237382021 -2.952145542561371 -0.5067733583258109 0.08141584755272553 -0.09271821006003833 0.2436204056291587 -0.09840914659740613 0.5774426115021309 0.5095258382166512 -2.3563885441095627 -0.015588705836319246 -0.0072557728748750445 0.0 0.0 0.0 0.0 0.0 0.0 0 29.5625 31.0 29.75 33.875 35.875 36.1875 0.57642 7 253 253 253 253 253 253 2 -0.1149216815829277 0.09576806426048279 -9.979032516479492 0.0 0.7 0.0 47.751365661621094 47.77196502685547 0.5740430355072021 47.65659713745117 47.599266052246094 47.599266052246094 47.599266052246094 47.5562629699707 47.48460006713867 3840 1
5511.739 -1.6657969999999995 -1.73928 1.6485809999999999 -2.263236 -1.5036709999999998 -0.06727699999999981 0.0 0.0 0.0 0.0 0.0 0.0 0.0 0.0 0.0 0.0 0.0 0.0 0.8524191379150836 -4.6157678479588355 -1.9195011089883054 -0.44949066805853904 -5.12233707561098e-06 0.0 9.793575113096706 -49.17245190998995 -21.819907418057326 -3.2684243861855324 -3.953504309281689e-05 0.0 -1.6658175627337855 -1.739256044427389 1.648588005696432 -2.2632438145079554 -1.5036619345294397 -0.0672844091998499 0.0 0.0 -0.0 -0.0 -0.0 0.0 1.3168615102767944 -5.081178188323975 -1.472550868988037 -0.5971347093582153 -0.13055679202079773 0.14794479310512543 0.8524191379150836 -4.6157678479588355 -1.9195011089883054 -0.44949066805853904 -5.12233707561098e-06 0.0 -0.09839872975299932 0.5774533243706411 0.5095098412684655 -2.3564111831825345 -0.015576734020125261 -0.007255958100698076 0.0 0.0 0.0 0.0 0.0 0.0 2.3588357077274638 -2.9615689885134335 -0.29712550574850427 0.07647825588653348 -0.08655282237756923 0.24113160733510441 -0.09840914659740613 0.5774426115021309 0.5095258382166512 -2.3563885441095627 -0.015588705836319246 -0.0072557728748750445 0.0 0.0 0.0 0.0 0.0 0.0 0 29.625 31.0 29.75 33.875 35.875 36.1875 0.578784 7 253 253 253 253 253 253 2 -0.1149216815829277 0.1149216815829277 -10.036493301391602 0.0 0.7 0.0 47.7585334777832 47.762115478515625 0.5673302412033081 47.670928955078125 47.61359786987305 47.599266052246094 47.61359786987305 47.498931884765625 47.48460006713867 3840 1
5511.839 -1.6657969999999995 -1.73928 1.6485809999999999 -2.263236 -1.5036709999999998 -0.06727699999999981 0.0 0.0 0.0 0.0 0.0 0.0 0.0 0.0 0.0 0.0 0.0 0.0 0.8524733585457271 -4.615728630912662 -1.9196625606678572 -0.44953874504917746 1.0256823576268968e-05 0.0 9.794198062295367 -49.17203412504484 -21.821742718221422 -3.2687739729951892 7.916385745365e-05 0.0 -1.6658175627337855 -1.739256044427389 1.6485756079303187 -2.263219495812887 -1.5036738554583948 -0.06730872789491826 0.0 0.0 -0.0 -0.0 -0.0 0.0 1.2764579057693481 -5.0580034255981445 -1.4623674154281616 -0.5776382088661194 -0.14369666576385498 0.1497429758310318 0.8524733585457271 -4.615728630912662 -1.9196625606678572 -0.44953874504917746 1.0256823576268968e-05 0.0 -0.09839587246823497 0.5774515075533765 0.5095116246212599 -2.3564236291632636 -0.015599028487061073 -0.007280646441625708 0.0 0.0 0.0 0.0 0.0 0.0 2.080898003996968 -3.1059413621175116 -0.4407082544615768 0.08662370775032552 -0.09878297236644018 0.2382584717693716 -0.09840914659740613 0.5774426115021309 0.5095258382166512 -2.3563885441095627 -0.015588705836319246 -0.0072557728748750445 0.0 0.0 0.0 0.0 0.0 0.0 0 29.625 31.0 29.75 33.875 35.8125 36.1875 0.573816 7 253 253 253 253 253 253 2 -0.09576806426048279 0.07661445438861847 -9.998186111450195 0.0 0.7 0.0 47.77286148071289 47.79435729980469 0.5919508934020996 47.670928955078125 47.6279296875 47.6279296875 47.599266052246094 47.5275993347168 47.51326370239258 3840 1
5511.938999999999 -1.6657969999999995 -1.73928 1.6485809999999999 -2.263236 -1.5036709999999998 -0.06727699999999981 0.0 0.0 0.0 0.0 0.0 0.0 0.0 0.0 0.0 0.0 0.0 0.0 0.8524435903244836 -4.615833801470838 -1.9196002545529516 -0.44951928090783316 7.0759651681874284e-06 0.0 9.793856050604445 -49.17315452242716 -21.821034454156113 -3.268632441526915 5.461346719635657e-05 0.0 -1.6658294836627405 -1.7392798862852992 1.6485641638385218 -2.2632318935790003 -1.5036619345294397 -0.06726056734193975 0.0 0.0 -0.0 -0.0 -0.0 0.0 1.2569576501846313 -5.07832145690918 -1.4527461528778076 -0.5794378519058228 -0.12141528725624084 0.15026088058948517 0.8524435903244836 -4.615833801470838 -1.9196002545529516 -0.44951928090783316 7.0759651681874284e-06 0.0 -0.09839257622483129 0.5774467061892623 0.5095355682710745 -2.35637584690663 -0.015535971332352766 -0.007254454855499636 0.0 0.0 0.0 0.0 0.0 0.0 2.3097392648067263 -3.086926582561202 -0.6215749224267644 0.08746566597444962 -0.09351373519759248 0.23896362326095033 -0.09840914659740613 0.5774426115021309 0.5095258382166512 -2.3563885441095627 -0.015588705836319246 -0.0072557728748750445 0.0 0.0 0.0 0.0 0.0 0.0 0 29.625 31.0 29.75 33.875 35.8125 36.1875 0.586044 7 253 253 253 253 253 253 2 -0.019153613597154617 0.09576806426048279 -9.90241813659668 0.0 0.7 0.0 47.77196502685547 47.775550842285156 0.5829969644546509 47.670928955078125 47.61359786987305 47.6279296875 47.599266052246094 47.570594787597656 47.5275993347168 3840 1
