sagilar/Flex-cell_RoboSim/tests/ur5e_flexcell_normq_20s.csv
timestamp target_q_0 target_q_1 target_q_2 target_q_3 target_q_4 target_q_5 target_qd_0 target_qd_1 target_qd_2 target_qd_3 target_qd_4 target_qd_5 target_qdd_0 target_qdd_1 target_qdd_2 target_qdd_3 target_qdd_4 target_qdd_5 target_current_0 target_current_1 target_current_2 target_current_3 target_current_4 target_current_5 target_moment_0 target_moment_1 target_moment_2 target_moment_3 target_moment_4 target_moment_5 actual_q_0 actual_q_1 actual_q_2 actual_q_3 actual_q_4 actual_q_5 actual_qd_0 actual_qd_1 actual_qd_2 actual_qd_3 actual_qd_4 actual_qd_5 actual_current_0 actual_current_1 actual_current_2 actual_current_3 actual_current_4 actual_current_5 joint_control_output_0 joint_control_output_1 joint_control_output_2 joint_control_output_3 joint_control_output_4 joint_control_output_5 actual_TCP_pose_0 actual_TCP_pose_1 actual_TCP_pose_2 actual_TCP_pose_3 actual_TCP_pose_4 actual_TCP_pose_5 actual_TCP_speed_0 actual_TCP_speed_1 actual_TCP_speed_2 actual_TCP_speed_3 actual_TCP_speed_4 actual_TCP_speed_5 actual_TCP_force_0 actual_TCP_force_1 actual_TCP_force_2 actual_TCP_force_3 actual_TCP_force_4 actual_TCP_force_5 target_TCP_pose_0 target_TCP_pose_1 target_TCP_pose_2 target_TCP_pose_3 target_TCP_pose_4 target_TCP_pose_5 target_TCP_speed_0 target_TCP_speed_1 target_TCP_speed_2 target_TCP_speed_3 target_TCP_speed_4 target_TCP_speed_5 actual_digital_input_bits joint_temperatures_0 joint_temperatures_1 joint_temperatures_2 joint_temperatures_3 joint_temperatures_4 joint_temperatures_5 actual_execution_time robot_mode joint_mode_0 joint_mode_1 joint_mode_2 joint_mode_3 joint_mode_4 joint_mode_5 safety_mode actual_tool_accelerometer_0 actual_tool_accelerometer_1 actual_tool_accelerometer_2 speed_scaling target_speed_fraction actual_momentum actual_main_voltage actual_robot_voltage actual_robot_current actual_joint_voltage_0 actual_joint_voltage_1 actual_joint_voltage_2 actual_joint_voltage_3 actual_joint_voltage_4 actual_joint_voltage_5 actual_digital_output_bits runtime_state
7819.911 -2.5847040000000003 -1.3422660000000004 1.3616509999999997 -2.0764069999999997 -0.9269629999999998 -0.8488470000000001 0.0 0.0 0.0 0.0 0.0 0.0 0.0 0.0 0.0 0.0 0.0 0.0 -1.466161594016308 -4.171902917488004 -1.717541866008771 -0.3603316831286895 1.7902490489103674e-05 0.0 -16.844956970413214 -44.443893701032415 -19.524137979113366 -2.6201141512902506 0.00013817437675575783 0.0 -2.5847047011004847 -1.3422683042338868 1.3616588751422327 -2.076383729974264 -0.9269626776324671 -0.848846737538473 0.0 0.0 -0.0 -0.0 -0.0 -0.0 -1.2797787189483643 -4.380995273590088 -2.037348508834839 -0.29994091391563416 -0.0005770079442299902 0.0797198936343193 -1.466161594016308 -4.171902917488004 -1.717541866008771 -0.3603316831286895 1.7902490489103674e-05 0.0 0.41579392878137267 0.5957422117149174 0.4366287800913034 -2.3624126658596576 -0.014761585527310866 -0.00014197318523943937 0.0 0.0 0.0 0.0 0.0 0.0 4.2159604182452775 -4.505031492797798 -0.24420130448757416 0.11795544483192177 -0.052087803167580375 0.10622395967609727 0.415797601814085 0.5957450246880538 0.43663590913558453 -2.3623976153453077 -0.014774556886481166 -0.00017089876894282188 0.0 0.0 0.0 0.0 0.0 0.0 0 31.0 32.25 30.75 34.75 37.0 37.25 0.576948 7 253 253 253 253 253 253 2 -0.19153612852096558 0.17238251864910126 -10.017339706420898 0.0 0.7 0.0 47.69136428833008 47.723602294921875 0.6098535060882568 47.65659713745117 47.584930419921875 47.584930419921875 47.5562629699707 47.51326370239258 47.47026824951172 3840 1
7820.0109999999995 -2.5847040000000003 -1.3422660000000004 1.3616509999999997 -2.0764069999999997 -0.9269629999999998 -0.8488470000000001 0.0 0.0 0.0 0.0 0.0 0.0 0.0 0.0 0.0 0.0 0.0 0.0 -1.4661891417972472 -4.171812391408547 -1.7175465977696218 -0.36033875371190116 4.587054920467727e-06 0.0 -16.84527347112258 -44.4429293134299 -19.524191767351994 -2.6201655642966504 3.540364706049307e-05 0.0 -2.5846923033343714 -1.3422683042338868 1.3616836706744593 -2.0764080486693324 -0.9269745985614222 -0.8488228956805628 0.0 0.0 -0.0 -0.0 -0.0 -0.0 -1.2864878177642822 -4.377645492553711 -2.01654052734375 -0.30601295828819275 0.0024146714713424444 0.07116688787937164 -1.4661891417972472 -4.171812391408547 -1.7175465977696218 -0.36033875371190116 4.587054920467727e-06 0.0 0.41578828119419114 0.5957456715409861 0.43661743886444604 -2.362421807376451 -0.01474418302488928 -0.00013315928378403093 0.0 0.0 0.0 0.0 0.0 0.0 3.860407529324508 -4.7549040194760455 -0.4143921618226529 0.12502725642343718 -0.055196786297249195 0.09605391176449736 0.415797601814085 0.5957450246880538 0.43663590913558453 -2.3623976153453077 -0.014774556886481166 -0.00017089876894282188 0.0 0.0 0.0 0.0 0.0 0.0 0 31.0 32.25 30.6875 34.75 36.9375 37.25 0.583044 7 253 253 253 253 253 253 2 -0.07661445438861847 0.15322890877723694 -9.940725326538086 0.0 0.7 0.0 47.718231201171875 47.74778747558594 0.5024327039718628 47.6279296875 47.54193115234375 47.570594787597656 47.54193115234375 47.498931884765625 47.4559326171875 3840 1
7820.111 -2.5847040000000003 -1.3422660000000004 1.3616509999999997 -2.0764069999999997 -0.9269629999999998 -0.8488470000000001 0.0 0.0 0.0 0.0 0.0 0.0 0.0 0.0 0.0 0.0 0.0 0.0 -1.466294990300149 -4.171713384143789 -1.7175111373369136 -0.3603279607651689 -6.2420331317311924e-06 0.0 -16.846489580918416 -44.44187457451637 -19.52378867127923 -2.6200870845131856 -4.8177042081977446e-05 0.0 -2.584728542958395 -1.3422562640956421 1.3616588751422327 -2.076383729974264 -0.926950756703512 -0.8488710562335413 0.0 0.0 -0.0 -0.0 -0.0 -0.0 -1.2629717588424683 -4.315565586090088 -2.0432426929473877 -0.2989330589771271 -0.0007996910717338324 0.07436871528625488 -1.466294990300149 -4.171713384143789 -1.7175111373369136 -0.3603279607651689 -6.2420331317311924e-06 0.0 0.4158089381244962 0.5957356133981593 0.43662230183751577 -2.362410074378158 -0.014760995979662987 -0.0001438330626851487 0.0 0.0 0.0 0.0 0.0 0.0 3.763226678258014 -4.281312987916078 -0.3017605376071668 0.12131172450751729 -0.06285558360127823 0.10046275444354275 0.415797601814085 0.5957450246880538 0.43663590913558453 -2.3623976153453077 -0.014774556886481166 -0.00017089876894282188 0.0 0.0 0.0 0.0 0.0 0.0 0 31.0 32.25 30.6875 34.75 36.9375 37.25 0.585205 7 253 253 253 253 253 253 2 -0.17238251864910126 0.17238251864910126 -10.074800491333008 0.0 0.7 0.0 47.77196502685547 47.785400390625 0.6098535060882568 47.670928955078125 47.61359786987305 47.61359786987305 47.61359786987305 47.5562629699707 47.51326370239258 3840 1
7820.210999999999 -2.5847040000000003 -1.3422660000000004 1.3616509999999997 -2.0764069999999997 -0.9269629999999998 -0.8488470000000001 0.0 0.0 0.0 0.0 0.0 0.0 0.0 0.0 0.0 0.0 0.0 0.0 -1.4662730208015262 -4.171855307859366 -1.717555436959916 -0.3603363090870537 2.48022047048147e-06 0.0 -16.84623716995603 -44.44338650867532 -19.52429224674894 -2.6201477884627247 1.914275100071888e-05 0.0 -2.5847166220294397 -1.3422562640956421 1.3616951147662562 -2.076395650903219 -0.9269626776324671 -0.8488591353045862 0.0 0.0 -0.0 -0.0 -0.0 -0.0 -1.299446702003479 -4.367558479309082 -2.0382912158966064 -0.29673123359680176 -0.03163851797580719 0.06782753765583038 -1.4662730208015262 -4.171855307859366 -1.717555436959916 -0.3603363090870537 2.48022047048147e-06 0.0 0.4158008498391087 0.5957371480080377 0.43660217613052754 -2.3624317343931547 -0.014747272515680298 -0.00011711346512141456 0.0 0.0 0.0 0.0 0.0 0.0 4.3187311366808085 -4.623843245225441 -0.2909399671714392 0.12870107940384606 -0.04894214500805774 0.10152499346634276 0.415797601814085 0.5957450246880538 0.43663590913558453 -2.3623976153453077 -0.014774556886481166 -0.00017089876894282188 0.0 0.0 0.0 0.0 0.0 0.0 0 30.9375 32.25 30.6875 34.8125 36.9375 37.25 0.58998 7 253 253 253 253 253 253 2 -0.1149216815829277 0.1149216815829277 -9.883264541625977 0.0 0.7 0.0 47.76122283935547 47.78718948364258 0.5919508934020996 47.68526077270508 47.599266052246094 47.6279296875 47.599266052246094 47.54193115234375 47.498931884765625 3840 1
7820.311 -2.5847040000000003 -1.3422660000000004 1.3616509999999997 -2.0764069999999997 -0.9269629999999998 -0.8488470000000001 0.0 0.0 0.0 0.0 0.0 0.0 0.0 0.0 0.0 0.0 0.0 0.0 -1.4662984774063699 -4.171786694195978 -1.7175202808568317 -0.36032752766818094 -4.135258847032678e-06 0.0 -16.846529644820297 -44.442655557255215 -19.52389261013978 -2.62008393529373 -3.191661038782553e-05 0.0 -2.5847166220294397 -1.3422203820994874 1.361706558858053 -2.076383729974264 -0.9269745985614222 -0.848846737538473 0.0 0.0 -0.0 -0.0 -0.0 -0.0 -1.2938371896743774 -4.281301975250244 -2.0213942527770996 -0.29661884903907776 -0.03403469920158386 0.06647490710020065 -1.4662984774063699 -4.171786694195978 -1.7175202808568317 -0.36032752766818094 -4.135258847032678e-06 0.0 0.4158085158324816 0.5957390791565609 0.4365679484558108 -2.3624719635937583 -0.01470449562343065 -6.091539307656126e-05 0.0 0.0 0.0 0.0 0.0 0.0 3.713474212405509 -4.568165655851082 -0.37111382259890835 0.12603161802734647 -0.055669026303540425 0.09674954520573041 0.415797601814085 0.5957450246880538 0.43663590913558453 -2.3623976153453077 -0.014774556886481166 -0.00017089876894282188 0.0 0.0 0.0 0.0 0.0 0.0 0 30.9375 32.25 30.6875 34.8125 36.9375 37.25 0.585396 7 253 253 253 253 253 253 2 -0.07661445438861847 0.1149216815829277 -10.017339706420898 0.0 0.7 0.0 47.75226593017578 47.77286148071289 0.5919508934020996 47.670928955078125 47.599266052246094 47.599266052246094 47.61359786987305 47.5562629699707 47.48460006713867 3840 1
7820.411 -2.5847040000000003 -1.3422660000000004 1.3616509999999997 -2.0764069999999997 -0.9269629999999998 -0.8488470000000001 0.0 0.0 0.0 0.0 0.0 0.0 0.0 0.0 0.0 0.0 0.0 0.0 -1.4662151532702217 -4.171773522507049 -1.7175393171897448 -0.3603269108944133 -2.0284658377823673e-06 0.0 -16.84557232095249 -44.442515237321075 -19.524109005441556 -2.6200794504877796 -1.5656034174491982e-05 0.0 -2.584728542958395 -1.3422683042338868 1.3616836706744593 -2.0764194927611292 -0.9269626776324671 -0.8488591353045862 0.0 0.0 -0.0 -0.0 -0.0 -0.0 -1.3032258749008179 -4.3238701820373535 -2.0630552768707275 -0.3055673837661743 -0.0228709913790226 0.06321202218532562 -1.4662151532702217 -4.171773522507049 -1.7175393171897448 -0.3603269108944133 -2.0284658377823673e-06 0.0 0.4158091387839886 0.5957329835087546 0.43662107185354526 -2.3624068141743724 -0.014752709681660094 -0.00017038212138375814 0.0 0.0 0.0 0.0 0.0 0.0 4.091315258057254 -4.571694691532901 -0.2725752251765625 0.11838898635273995 -0.05409611341335227 0.10699934538537662 0.415797601814085 0.5957450246880538 0.43663590913558453 -2.3623976153453077 -0.014774556886481166 -0.00017089876894282188 0.0 0.0 0.0 0.0 0.0 0.0 0 30.9375 32.25 30.6875 34.8125 36.9375 37.25 0.590604 7 253 253 253 253 253 253 2 0.0 0.1149216815829277 -9.959878921508789 0.0 0.7 0.0 47.780025482177734 47.80062484741211 0.5807611346244812 47.71392822265625 47.64226531982422 47.64226531982422 47.64226531982422 47.584930419921875 47.54193115234375 3840 1
7820.5109999999995 -2.5847040000000003 -1.3422660000000004 1.3616509999999997 -2.0764069999999997 -0.9269629999999998 -0.8488470000000001 0.0 0.0 0.0 0.0 0.0 0.0 0.0 0.0 0.0 0.0 0.0 0.0 -1.4663043479540039 -4.171823625303419 -1.7174956333302764 -0.36032075709514283 -1.555464212283195e-05 0.0 -16.846597092448643 -44.44304898975971 -19.523612429656943 -2.620034703779933 -0.00012005329550596899 0.0 -2.5846923033343714 -1.3422562640956421 1.3616836706744593 -2.0764318905272425 -0.9269865194903772 -0.848846737538473 0.0 0.0 -0.0 -0.0 -0.0 -0.0 -1.2973331212997437 -4.355186462402344 -2.0232343673706055 -0.30041295289993286 -0.030311958864331245 0.06277789175510406 -1.4663043479540039 -4.171823625303419 -1.7174956333302764 -0.36032075709514283 -1.555464212283195e-05 0.0 0.415795706281511 0.5957475294441428 0.43661214521843256 -2.3624242280811574 -0.014773510123502944 -0.0001658307531439455 0.0 0.0 0.0 0.0 0.0 0.0 3.956711121498566 -4.557986051570106 -0.40699488980818366 0.12484565127158506 -0.0541690450213018 0.09898235876804369 0.415797601814085 0.5957450246880538 0.43663590913558453 -2.3623976153453077 -0.014774556886481166 -0.00017089876894282188 0.0 0.0 0.0 0.0 0.0 0.0 0 30.9375 32.25 30.6875 34.8125 36.9375 37.25 0.585805 7 253 253 253 253 253 253 2 -0.1149216741323471 0.1149216815829277 -9.979032516479492 0.0 0.7 0.0 47.78718948364258 47.808685302734375 0.5785199999809265 47.742591857910156 47.64226531982422 47.65659713745117 47.64226531982422 47.64226531982422 47.5275993347168 3840 1
7820.611 -2.5847040000000003 -1.3422660000000004 1.3616509999999997 -2.0764069999999997 -0.9269629999999998 -0.8488470000000001 0.0 0.0 0.0 0.0 0.0 0.0 0.0 0.0 0.0 0.0 0.0 0.0 -1.4661878449768904 -4.171882318725067 -1.7174921484692725 -0.36031610021596144 1.790195268428204e-05 0.0 -16.845258571753234 -44.44367425938949 -19.5235728155384 -2.6200008417699703 0.0001381702258893691 0.0 -2.5847166220294397 -1.3422683042338868 1.3616588751422327 -2.0764194927611292 -0.9269149939166468 -0.8488591353045862 0.0 0.0 -0.0 -0.0 -0.0 -0.0 -1.2455083131790161 -4.33970832824707 -2.063572645187378 -0.30498167872428894 -0.046990759670734406 0.056428197771310806 -1.4661878449768904 -4.171882318725067 -1.7174921484692725 -0.36031610021596144 1.790195268428204e-05 0.0 0.4157969984092426 0.595746068199442 0.4366415013947521 -2.3623579962894112 -0.014792104740710311 -0.00015204442719785413 0.0 0.0 0.0 0.0 0.0 0.0 3.991089634902024 -4.22780735282091 -0.09524784419625476 0.11894470117998115 -0.05389693750938157 0.09505218315220815 0.415797601814085 0.5957450246880538 0.43663590913558453 -2.3623976153453077 -0.014774556886481166 -0.00017089876894282188 0.0 0.0 0.0 0.0 0.0 0.0 0 30.9375 32.25 30.6875 34.8125 36.9375 37.25 0.588228 7 253 253 253 253 253 253 2 -0.17238251864910126 0.2298433631658554 -9.979032516479492 0.0 0.7 0.0 47.777339935302734 47.808685302734375 0.5762841701507568 47.7282600402832 47.6279296875 47.65659713745117 47.64226531982422 47.570594787597656 47.54193115234375 3840 1
7820.710999999999 -2.5847040000000003 -1.3422660000000004 1.3616509999999997 -2.0764069999999997 -0.9269629999999998 -0.8488470000000001 0.0 0.0 0.0 0.0 0.0 0.0 0.0 0.0 0.0 0.0 0.0 0.0 -1.4662649644174108 -4.171699603941375 -1.717528335912323 -0.36032477702324306 -1.733374558243113e-06 0.0 -16.846144608914795 -44.44172777199882 -19.52398417589311 -2.62006393426672 -1.3378470968344063e-05 0.0 -2.5847166220294397 -1.3422802251628418 1.3616350332843226 -2.0764080486693324 -0.926950756703512 -0.8488352934466761 0.0 0.0 -0.0 -0.0 -0.0 -0.0 -1.2711951732635498 -4.3774566650390625 -2.038266897201538 -0.3049297034740448 -0.023624930530786514 0.060991767793893814 -1.4662649644174108 -4.171699603941375 -1.717528335912323 -0.36032477702324306 -1.733374558243113e-06 0.0 0.41580177233770976 0.5957405904113463 0.43665633387866354 -2.3623721945389216 -0.014762528212882904 -0.00019314534977555903 0.0 0.0 0.0 0.0 0.0 0.0 4.163959845331588 -4.455853614181258 -0.2325439922974586 0.12475624314163727 -0.04819498562778274 0.09778720665972593 0.415797601814085 0.5957450246880538 0.43663590913558453 -2.3623976153453077 -0.014774556886481166 -0.00017089876894282188 0.0 0.0 0.0 0.0 0.0 0.0 0 30.9375 32.25 30.6875 34.8125 36.9375 37.25 0.586212 7 253 253 253 253 253 253 2 -0.1149216815829277 0.1149216815829277 -9.979032516479492 0.0 0.7 0.0 47.75763702392578 47.79256820678711 0.5561404824256897 47.6995964050293 47.64226531982422 47.65659713745117 47.6279296875 47.599266052246094 47.51326370239258 3840 1
7820.811 -2.5847040000000003 -1.3422660000000004 1.3616509999999997 -2.0764069999999997 -0.9269629999999998 -0.8488470000000001 0.0 0.0 0.0 0.0 0.0 0.0 0.0 0.0 0.0 0.0 0.0 0.0 -1.4663618572501202 -4.171903153244468 -1.7175096394314708 -0.3603268495771453 -1.1045827037722235e-05 0.0 -16.847257825632784 -44.44389621258061 -19.52377164385584 -2.620079004625677 -8.525351640980448e-05 0.0 -2.5847166220294397 -1.3422562640956421 1.3616836706744593 -2.076395650903219 -0.926950756703512 -0.8487990538226526 0.0 0.0 -0.0 -0.0 -0.0 -0.0 -1.2788751125335693 -4.280808448791504 -2.0231130123138428 -0.30521082878112793 -0.0251738540828228 0.07143427431583405 -1.4663618572501202 -4.171903153244468 -1.7175096394314708 -0.3603268495771453 -1.1045827037722235e-05 0.0 0.4158002122229941 0.5957395700111026 0.43661028212743225 -2.362417232947778 -0.014684785999251198 -9.011502025412684e-05 0.0 0.0 0.0 0.0 0.0 0.0 4.128117197833225 -4.824814647078184 -0.34356064535740627 0.12835581936693527 -0.056317513285194576 0.10570627818915171 0.415797601814085 0.5957450246880538 0.43663590913558453 -2.3623976153453077 -0.014774556886481166 -0.00017089876894282188 0.0 0.0 0.0 0.0 0.0 0.0 0 30.9375 32.25 30.75 34.8125 37.0 37.25 0.589825 7 253 253 253 253 253 253 2 -0.13407528400421143 0.19153612852096558 -9.979032516479492 0.0 0.7 0.0 47.75226593017578 47.751365661621094 0.5136224627494812 47.670928955078125 47.599266052246094 47.61359786987305 47.570594787597656 47.5275993347168 47.498931884765625 3840 1
7820.911 -2.5847040000000003 -1.3422660000000004 1.3616509999999997 -2.0764069999999997 -0.9269629999999998 -0.8488470000000001 0.0 0.0 0.0 0.0 0.0 0.0 0.0 0.0 0.0 0.0 0.0 0.0 -1.466219969955835 -4.171952137525685 -1.717527468014882 -0.36032528470473624 1.3393670385231314e-05 0.0 -16.845627660597334 -44.44441804931327 -19.523974310078643 -2.6200676258196056 0.00010337455892395478 0.0 -2.5847166220294397 -1.3422683042338868 1.361671272908346 -2.076395650903219 -0.9269745985614222 -0.8488710562335413 0.0 0.0 -0.0 -0.0 -0.0 -0.0 -1.2184849977493286 -4.3654985427856445 -2.071969509124756 -0.30387789011001587 -0.045370034873485565 0.07329964637756348 -1.466219969955835 -4.171952137525685 -1.717527468014882 -0.36032528470473624 1.3393670385231314e-05 0.0 0.4158028706207413 0.5957356049492976 0.43662228463393316 -2.362421691631331 -0.014772297431044476 -0.00016837708196838034 0.0 0.0 0.0 0.0 0.0 0.0 3.7875086834585194 -4.686778256558203 -0.2984606500457936 0.1245955154868469 -0.05558119510136876 0.09415873888420842 0.415797601814085 0.5957450246880538 0.43663590913558453 -2.3623976153453077 -0.014774556886481166 -0.00017089876894282188 0.0 0.0 0.0 0.0 0.0 0.0 0 30.9375 32.3125 30.75 34.8125 37.0 37.25 0.583884 7 253 253 253 253 253 253 2 -0.038307227194309235 0.2106897532939911 -10.055646896362305 0.0 0.7 0.0 47.764801025390625 47.774654388427734 0.5829969644546509 47.71392822265625 47.61359786987305 47.6279296875 47.599266052246094 47.54193115234375 47.498931884765625 3840 1
7821.0109999999995 -2.5847040000000003 -1.3422660000000004 1.3616509999999997 -2.0764069999999997 -0.9269629999999998 -0.8488470000000001 0.0 0.0 0.0 0.0 0.0 0.0 0.0 0.0 0.0 0.0 0.0 0.0 -1.4662697965954479 -4.171799793783096 -1.717503411432915 -0.36031757353791655 2.4799674276315512e-06 0.0 -16.84620012655449 -44.44279510907819 -19.523700847151815 -2.6200115548764904 1.914079797423347e-05 0.0 -2.584728542958395 -1.3422802251628418 1.3616588751422327 -2.076371809045309 -0.9269745985614222 -0.848846737538473 0.0 0.0 -0.0 -0.0 -0.0 -0.0 -1.2608966827392578 -4.338632583618164 -2.038785457611084 -0.3090471029281616 -0.04153290390968323 0.05934355780482292 -1.4662697965954479 -4.171799793783096 -1.717503411432915 -0.36031757353791655 2.4799674276315512e-06 0.0 0.4158060387894102 0.595728157625126 0.4366330229565073 -2.3624218223887175 -0.014729585578046168 -0.0001629842554671756 0.0 0.0 0.0 0.0 0.0 0.0 4.164686038105723 -4.654990828733698 -0.3569022974818723 0.12904398399811634 -0.04869094716854569 0.09788640636065453 0.415797601814085 0.5957450246880538 0.43663590913558453 -2.3623976153453077 -0.014774556886481166 -0.00017089876894282188 0.0 0.0 0.0 0.0 0.0 0.0 0 30.9375 32.3125 30.75 34.8125 37.0 37.25 0.589296 7 253 253 253 253 253 253 2 -0.15322890877723694 0.17238251864910126 -9.959878921508789 0.0 0.7 0.0 47.74778747558594 47.76838302612305 0.5583816170692444 47.670928955078125 47.599266052246094 47.6279296875 47.64226531982422 47.5562629699707 47.47026824951172 3840 1
7821.111 -2.5847040000000003 -1.3422660000000004 1.3616509999999997 -2.0764069999999997 -0.9269629999999998 -0.8488470000000001 0.0 0.0 0.0 0.0 0.0 0.0 0.0 0.0 0.0 0.0 0.0 0.0 -1.466379636206858 -4.171743236789637 -1.7175077343692273 -0.36032233244212675 -1.2857499204169939e-05 0.0 -16.847462090812318 -44.442192599131275 -19.523749988082063 -2.620046158750781 -9.923630124284355e-05 0.0 -2.584728542958395 -1.3422203820994874 1.3616226355182093 -2.0764318905272425 -0.9269745985614222 -0.8488591353045862 0.0 0.0 -0.0 -0.0 -0.0 -0.0 -1.2721984386444092 -4.332520484924316 -2.018512010574341 -0.31542930006980896 -0.0344657227396965 0.06086105480790138 -1.466379636206858 -4.171743236789637 -1.7175077343692273 -0.36032233244212675 -1.2857499204169939e-05 0.0 0.4158308817459698 0.5957437649093719 0.436624635924697 -2.3624022392862893 -0.014759487048444295 -0.00020532722314181836 0.0 0.0 0.0 0.0 0.0 0.0 3.8846947377342183 -4.531963048584405 -0.28922034601337643 0.12778144872172786 -0.05338261179066087 0.09096811489070204 0.415797601814085 0.5957450246880538 0.43663590913558453 -2.3623976153453077 -0.014774556886481166 -0.00017089876894282188 0.0 0.0 0.0 0.0 0.0 0.0 0 30.9375 32.3125 30.75 34.8125 37.0 37.25 0.583572 7 253 253 253 253 253 253 2 -0.15322890877723694 0.15322890877723694 -10.017339706420898 0.0 0.7 0.0 47.72629165649414 47.74778747558594 0.6367100477218628 47.65659713745117 47.599266052246094 47.599266052246094 47.570594787597656 47.5275993347168 47.48460006713867 3840 1
7821.210999999999 -2.5847040000000003 -1.3422660000000004 1.3616509999999997 -2.0764069999999997 -0.9269629999999998 -0.8488470000000001 0.0 0.0 0.0 0.0 0.0 0.0 0.0 0.0 0.0 0.0 0.0 0.0 -1.466326690213779 -4.171806263702911 -1.7175085084883401 -0.3603244662987506 -4.135295456705434e-06 0.0 -16.846853786121475 -44.442864034082966 -19.52375878787243 -2.6200616748660677 -3.191689294732301e-05 0.0 -2.584728542958395 -1.3422683042338868 1.361671272908346 -2.0764194927611292 -0.9269626776324671 -0.8488829771624964 0.0 0.0 -0.0 -0.0 -0.0 -0.0 -1.256954550743103 -4.349806308746338 -2.022657632827759 -0.3079606890678406 -0.05794844031333923 0.06935527920722961 -1.466326690213779 -4.171806263702911 -1.7175085084883401 -0.3603244662987506 -4.135295456705434e-06 0.0 0.41581060844160006 0.5957339048816239 0.4366281596357048 -2.362400115768534 -0.01478596303507708 -0.00019441748719142696 0.0 0.0 0.0 0.0 0.0 0.0 3.8000803893766757 -4.352872215158445 -0.24780008509639773 0.12495114523714239 -0.05988290746505551 0.09550433711526835 0.415797601814085 0.5957450246880538 0.43663590913558453 -2.3623976153453077 -0.014774556886481166 -0.00017089876894282188 0.0 0.0 0.0 0.0 0.0 0.0 0 30.9375 32.3125 30.75 34.75 37.0 37.25 0.589644 7 253 253 253 253 253 253 2 -0.07661445438861847 0.19153612852096558 -9.998186111450195 0.0 0.7 0.0 47.69136428833008 47.725399017333984 0.5740430355072021 47.61359786987305 47.570594787597656 47.570594787597656 47.570594787597656 47.47026824951172 47.427268981933594 3840 1
7821.311 -2.5847040000000003 -1.3422660000000004 1.3616509999999997 -2.0764069999999997 -0.9269629999999998 -0.8488470000000001 0.0 0.0 0.0 0.0 0.0 0.0 0.0 0.0 0.0 0.0 0.0 0.0 -1.4664024394992292 -4.171701918930177 -1.717498159347882 -0.3603228575524697 -5.94683764628958e-06 0.0 -16.847724081359843 -44.441752433914075 -19.52364114413386 -2.6200499770357246 -4.5898674597473884e-05 0.0 -2.584728542958395 -1.3422562640956421 1.3616836706744593 -2.0764318905272425 -0.926950756703512 -0.8488710562335413 0.0 0.0 -0.0 -0.0 -0.0 -0.0 -1.2685507535934448 -4.294164657592773 -2.0359363555908203 -0.32240018248558044 -0.056721337139606476 0.05461310222744942 -1.4664024394992292 -4.171701918930177 -1.717498159347882 -0.3603228575524697 -5.94683764628958e-06 0.0 0.41581131242210656 0.5957371749671413 0.43661683555888303 -2.362397556184575 -0.0147707772562073 -0.00016707152767950773 0.0 0.0 0.0 0.0 0.0 0.0 3.773019405709833 -4.464505456554646 -0.31985859541596984 0.11946934150011788 -0.05807559911900973 0.09786467486308878 0.415797601814085 0.5957450246880538 0.43663590913558453 -2.3623976153453077 -0.014774556886481166 -0.00017089876894282188 0.0 0.0 0.0 0.0 0.0 0.0 0 30.9375 32.3125 30.75 34.75 37.0 37.25 0.584316 7 253 253 253 253 253 253 2 -0.09576806426048279 0.07661445438861847 -10.017339706420898 0.0 0.7 0.0 47.73524856567383 47.75405502319336 0.5941867828369141 47.64226531982422 47.599266052246094 47.584930419921875 47.584930419921875 47.5275993347168 47.498931884765625 3840 1
7821.411 -2.5847040000000003 -1.3422660000000004 1.3616509999999997 -2.0764069999999997 -0.9269629999999998 -0.8488470000000001 0.0 0.0 0.0 0.0 0.0 0.0 0.0 0.0 0.0 0.0 0.0 0.0 -1.4662696519005853 -4.171755870379584 -1.717521807583059 -0.36033037469579665 -4.135247957487987e-06 0.0 -16.846198464132865 -44.44232718661803 -19.523909965183115 -2.620104637157303 -3.191652634052206e-05 0.0 -2.5846923033343714 -1.3422683042338868 1.3616474310504358 -2.0764318905272425 -0.9269626776324671 -0.8488228956805628 0.0 0.0 -0.0 -0.0 -0.0 -0.0 -1.2535799741744995 -4.3271684646606445 -2.0753350257873535 -0.31455424427986145 -0.0433134026825428 0.057200122624635696 -1.4662696519005853 -4.171755870379584 -1.717521807583059 -0.36033037469579665 -4.135247957487987e-06 0.0 0.4157932127508589 0.5957516215208676 0.43664403211815367 -2.362381161499 -0.014772731174672418 -0.0001840954699217524 0.0 0.0 0.0 0.0 0.0 0.0 3.968267569475602 -4.57789285698207 -0.26232508834074686 0.12366617734484595 -0.055066512610624896 0.09662579118600852 0.415797601814085 0.5957450246880538 0.43663590913558453 -2.3623976153453077 -0.014774556886481166 -0.00017089876894282188 0.0 0.0 0.0 0.0 0.0 0.0 0 30.9375 32.3125 30.75 34.75 37.0 37.25 0.590412 7 253 253 253 253 253 253 2 -0.15322890877723694 0.1149216815829277 -9.979032516479492 0.0 0.7 0.0 47.74778747558594 47.785400390625 0.5762841701507568 47.6995964050293 47.6279296875 47.64226531982422 47.599266052246094 47.5562629699707 47.51326370239258 3840 1
7821.5109999999995 -2.5847040000000003 -1.3422660000000004 1.3616509999999997 -2.0764069999999997 -0.9269629999999998 -0.8488470000000001 0.0 0.0 0.0 0.0 0.0 0.0 0.0 0.0 0.0 0.0 0.0 0.0 -1.4662459700728434 -4.171896625705898 -1.7175650127535809 -0.3603357842975461 9.095767118941952e-06 0.0 -16.845926379956797 -44.443826673754785 -19.524401099476474 -2.6201439725107014 7.02026320606214e-05 0.0 -2.5847047011004847 -1.3422683042338868 1.361706558858053 -2.0764318905272425 -0.9269626776324671 -0.8488352934466761 0.0 0.0 -0.0 -0.0 -0.0 -0.0 -1.2820199728012085 -4.317500114440918 -2.063878297805786 -0.3279987871646881 -0.04594951122999191 0.06433296203613281 -1.4662459700728434 -4.171896625705898 -1.7175650127535809 -0.3603357842975461 9.095767118941952e-06 0.0 0.4157935898029032 0.5957420722396978 0.4366102287494073 -2.3624122744939986 -0.014748449470077016 -0.00013663448978116675 0.0 0.0 0.0 0.0 0.0 0.0 4.206093170573534 -4.680158144795694 -0.28993892554710765 0.12941835339235433 -0.05410086879874419 0.10364346093808313 0.415797601814085 0.5957450246880538 0.43663590913558453 -2.3623976153453077 -0.014774556886481166 -0.00017089876894282188 0.0 0.0 0.0 0.0 0.0 0.0 0 30.9375 32.3125 30.75 34.75 37.0 37.25 0.583945 7 253 253 253 253 253 253 2 -0.17238251864910126 0.07661445438861847 -9.959878921508789 0.0 0.7 0.0 47.76032257080078 47.785400390625 0.5315250754356384 47.65659713745117 47.61359786987305 47.6279296875 47.599266052246094 47.54193115234375 47.51326370239258 3840 1
7821.611 -2.5847040000000003 -1.3422660000000004 1.3616509999999997 -2.0764069999999997 -0.9269629999999998 -0.8488470000000001 0.0 0.0 0.0 0.0 0.0 0.0 0.0 0.0 0.0 0.0 0.0 0.0 -1.4663290011820054 -4.171837036572242 -1.7174777889890402 -0.3603083577076964 -6.5378719335146685e-06 0.0 -16.846880337192307 -44.44319186197361 -19.523409584307238 -2.619944542930813 -5.046037478819963e-05 0.0 -2.584728542958395 -1.3422683042338868 1.3616350332843226 -2.076383729974264 -0.9269626776324671 -0.8488591353045862 0.0 0.0 -0.0 -0.0 -0.0 -0.0 -1.25556218624115 -4.297508239746094 -2.0361711978912354 -0.33727630972862244 -0.0433267205953598 0.055122796446084976 -1.4663290011820054 -4.171837036572242 -1.7174777889890402 -0.3603083577076964 -6.5378719335146685e-06 0.0 0.4158109583068223 0.5957340699783196 0.43664241043168767 -2.3624002067280174 -0.01475785875325621 -0.00018353435479901342 0.0 0.0 0.0 0.0 0.0 0.0 3.7030628167118733 -4.551351710238274 -0.28160727715642064 0.12608702327646937 -0.05936434200823391 0.0944806353389277 0.415797601814085 0.5957450246880538 0.43663590913558453 -2.3623976153453077 -0.014774556886481166 -0.00017089876894282188 0.0 0.0 0.0 0.0 0.0 0.0 0 30.9375 32.3125 30.75 34.75 37.0 37.25 0.59358 7 253 253 253 253 253 253 2 -0.15322890877723694 0.2298433631658554 -10.113107681274414 0.0 0.7 0.0 47.79972839355469 47.814056396484375 0.5561404824256897 47.6995964050293 47.64226531982422 47.64226531982422 47.61359786987305 47.5562629699707 47.5275993347168 3840 1
7821.710999999999 -2.5847040000000003 -1.3422660000000004 1.3616509999999997 -2.0764069999999997 -0.9269629999999998 -0.8488470000000001 0.0 0.0 0.0 0.0 0.0 0.0 0.0 0.0 0.0 0.0 0.0 0.0 -1.4661635969909392 -4.171862554383017 -1.717504039353815 -0.360319191949625 4.376072047362272e-06 0.0 -16.844979982898067 -44.44346370695467 -19.52370798503563 -2.620023322987979 3.37752464189606e-05 0.0 -2.584752384816305 -1.3422562640956421 1.3616588751422327 -2.0764194927611292 -0.9269984404193323 -0.8487990538226526 0.0 0.0 -0.0 -0.0 -0.0 -0.0 -1.2193869352340698 -4.346292018890381 -2.071948289871216 -0.32837000489234924 -0.04662470892071724 0.04555832967162132 -1.4661635969909392 -4.171862554383017 -1.717504039353815 -0.360319191949625 4.376072047362272e-06 0.0 0.41583506487586225 0.5957219416581367 0.43662251540553804 -2.3624274760179946 -0.014647476865400166 -0.00019376103056676174 0.0 0.0 0.0 0.0 0.0 0.0 3.738334682517532 -4.521372960852611 -0.32644998393180114 0.12072043786328668 -0.059884469996431426 0.09580432197909586 0.415797601814085 0.5957450246880538 0.43663590913558453 -2.3623976153453077 -0.014774556886481166 -0.00017089876894282188 0.0 0.0 0.0 0.0 0.0 0.0 0 30.9375 32.3125 30.75 34.75 37.0 37.25 0.57714 7 253 253 253 253 253 253 2 -0.09576806426048279 0.2298433631658554 -9.921571731567383 0.0 0.7 0.0 47.790771484375 47.790771484375 0.5583816170692444 47.71392822265625 47.64226531982422 47.65659713745117 47.65659713745117 47.5562629699707 47.54193115234375 3840 1
7821.811 -2.5847040000000003 -1.3422660000000004 1.3616509999999997 -2.0764069999999997 -0.9269629999999998 -0.8488470000000001 0.0 0.0 0.0 0.0 0.0 0.0 0.0 0.0 0.0 0.0 0.0 0.0 -1.4663789424336475 -4.1718086661573475 -1.717509492930143 -0.3603250831889904 2.775308914653982e-06 0.0 -16.847454119944764 -44.442889627782456 -19.52376997850363 -2.6200661605189337 2.1420292323038248e-05 0.0 -2.5847166220294397 -1.3422562640956421 1.3616474310504358 -2.0764080486693324 -0.926950756703512 -0.8488352934466761 0.0 0.0 -0.0 -0.0 -0.0 -0.0 -1.28439199924469 -4.324530601501465 -2.0340189933776855 -0.33718791604042053 -0.038885489106178284 0.052882034331560135 -1.4663789424336475 -4.1718086661573475 -1.717509492930143 -0.3603250831889904 2.775308914653982e-06 0.0 0.4158058760371147 0.5957431397264883 0.43663324211775056 -2.3623913183416536 -0.014747614665244695 -0.00015655274066504513 0.0 0.0 0.0 0.0 0.0 0.0 4.458914320529372 -4.519548371506179 -0.1828628230971634 0.11732699049607594 -0.047405975123485156 0.10490470235583436 0.415797601814085 0.5957450246880538 0.43663590913558453 -2.3623976153453077 -0.014774556886481166 -0.00017089876894282188 0.0 0.0 0.0 0.0 0.0 0.0 0 30.9375 32.3125 30.75 34.75 37.0 37.25 0.581485 7 253 253 253 253 253 253 2 -0.17238251864910126 0.09576806426048279 -10.036493301391602 0.0 0.7 0.0 47.777339935302734 47.80152130126953 0.5986637473106384 47.670928955078125 47.64226531982422 47.64226531982422 47.6279296875 47.570594787597656 47.5562629699707 3840 1
7821.911 -2.5847040000000003 -1.3422660000000004 1.3616509999999997 -2.0764069999999997 -0.9269629999999998 -0.8488470000000001 0.0 0.0 0.0 0.0 0.0 0.0 0.0 0.0 0.0 0.0 0.0 0.0 -1.4662223533074614 -4.171896434949246 -1.7175345227833552 -0.3603352385706618 -2.239110907347903e-06 0.0 -16.845655043292226 -44.44382464159619 -19.524054505080468 -2.620140004314733 -1.7281827592542185e-05 0.0 -2.5847047011004847 -1.3422683042338868 1.3616474310504358 -2.076395650903219 -0.926950756703512 -0.8488109747516077 0.0 0.0 -0.0 -0.0 -0.0 -0.0 -1.2466367483139038 -4.301678657531738 -2.0267856121063232 -0.33937159180641174 -0.04479797184467316 0.05743001028895378 -1.4662223533074614 -4.171896434949246 -1.7175345227833552 -0.3603352385706618 -2.239110907347903e-06 0.0 0.41579460605930285 0.5957454762025379 0.43663904188796837 -2.3623916582174185 -0.014732766671064372 -0.0001386940408283022 0.0 0.0 0.0 0.0 0.0 0.0 3.8940391998000408 -4.413532397237957 -0.25389035097856816 0.12441469389702864 -0.05527334731211913 0.09677022776633573 0.415797601814085 0.5957450246880538 0.43663590913558453 -2.3623976153453077 -0.014774556886481166 -0.00017089876894282188 0.0 0.0 0.0 0.0 0.0 0.0 0 30.9375 32.3125 30.75 34.8125 37.0 37.25 0.58506 7 253 253 253 253 253 253 2 -0.17238251864910126 0.15322890877723694 -10.017339706420898 0.0 0.7 0.0 47.780025482177734 47.793460845947266 0.5628532767295837 47.71392822265625 47.64226531982422 47.65659713745117 47.64226531982422 47.570594787597656 47.51326370239258 3840 1
7822.0109999999995 -2.58464165509379 -1.3422929361323774 1.3616704672844355 -2.076419675751172 -0.9270021277965785 -0.8487939729707721 0.004618141200776998 -0.001995269064970966 0.0014420210693127215 -0.0009389445312746195 -0.002898355302133621 0.003927928090972511 0.24150993524471542 -0.10434442814261438 0.07541181612477252 -0.04910296655900436 -0.1515721522799471 0.20541460679830745 -1.0381039144689017 -4.513346410585355 -1.5854861688126618 -0.3841946831088061 -0.05650246369210728 0.08623985939356936 -15.842364264097291 -45.002792317329394 -19.433054556844912 -2.634620741250092 0.010322868151563587 0.04351344582647946 -2.584691588078634 -1.3422684532454987 1.3616588751422327 -2.0764194927611292 -0.9269755522357386 -0.8488338629352015 0.0018998574232682586 -0.0005406902055256069 -0.0 -0.0 -0.0029083439148962498 0.003489566268399358 -0.6075211763381958 -4.772432804107666 -1.8428360223770142 -0.39704856276512146 -0.12366849929094315 0.1657414734363556 -1.0381039144689017 -4.513346410585355 -1.5854861688126618 -0.3841946831088061 -0.05650246369210728 0.08623985939356936 0.4157921818437791 0.5957484734936345 0.43663365846796987 -2.3624032345913553 -0.014772667232034912 -0.0001754264199552907 -0.0007709905254132756 0.00032827720070556114 -2.0289388794964676e-05 -0.0018910216189045545 0.0006009130352844991 -0.0019419877538566469 4.210783576735386 -4.340521877583941 -0.35504286712438393 0.1269142884686161 -0.06134574768485492 0.09853827644348827 0.4157598325589141 0.5957613366017039 0.4366399314396431 -2.3624161704092903 -0.01478144766978602 -0.00016593463533824126 -0.002797736695213773 0.0012081921332198979 0.00029795359681781115 -0.0013782455670900925 0.00010852906576920042 0.0004728014360074026 0 30.9375 32.3125 30.75 34.8125 37.0 37.25 0.768684 7 253 253 253 253 253 253 2 -0.2106897532939911 0.07661445438861847 -9.921571731567383 1.0 0.7 0.024737207190845635 47.75763702392578 47.78718948364258 0.5583816170692444 47.6995964050293 47.65659713745117 47.64226531982422 47.6279296875 47.51326370239258 47.51326370239258 768 2
7822.111 -2.581351229488236 -1.3437145653411697 1.3626979072963208 -2.0770886737297047 -0.929067205949349 -0.8459953242059539 0.06773273761139591 -0.029263946286240804 0.02114964234991989 -0.013771186458694405 -0.04250921109795973 0.057609612000930094 0.6841690667817729 -0.2955954170327357 0.213632751009293 -0.1391028935221663 -0.4293859706864626 0.5819152727366654 -0.43206231252945937 -5.17675651995552 -0.970645953317967 -0.6001884302216499 -0.20724562509985453 0.23456759760817247 -13.894582582082423 -46.09123525179285 -19.272026746486098 -2.662559427148868 0.027574093870451982 0.12326839483879128 -2.581364456807272 -1.3438135993531723 1.3625062147723597 -2.077118059197897 -0.9290478865252894 -0.8459962050067347 0.06595669686794281 -0.03155229613184929 0.01992151513695717 -0.01298923697322607 -0.042479272931814194 0.053804490715265274 -0.22801469266414642 -5.053497314453125 -0.8658617734909058 -0.527338981628418 -0.15308605134487152 0.2947866916656494 -0.43206231252945937 -5.17675651995552 -0.970645953317967 -0.6001884302216499 -0.20724562509985453 0.23456759760817247 0.4137734399279447 0.5966175221982126 0.4370360333997895 -2.363208520308538 -0.015266650746109842 -0.00022065504710712896 -0.04047411326447327 0.016540471001038493 0.006471021696784787 -0.01858070923806591 -0.00346737747977012 0.007794580490815009 4.854495064619277 -4.809465270249095 -0.18709232205574278 0.12710039430317568 -0.09355789252646704 0.11998406541213409 0.4137659198516835 0.5966184977914909 0.4368524170169551 -2.3633922586898675 -0.015144004485362834 9.237178249756032e-05 -0.04105500931574964 0.0175688339173357 0.004377959174592081 -0.02008492098821931 0.001497236955590224 0.006854918978037708 0 30.9375 32.25 30.75 34.8125 37.0 37.25 0.762552 7 253 253 253 253 253 253 2 -0.3447650372982025 0.13407528400421143 -9.84495735168457 1.0 0.7 0.3859651900948613 47.72092056274414 47.76122283935547 0.5986637473106384 47.65659713745117 47.61359786987305 47.599266052246094 47.599266052246094 47.51326370239258 47.47026824951172 768 2
7822.210999999999 -2.571157110393188 -1.3481189370549576 1.3658810352863593 -2.0791613068431847 -0.9354650569125766 -0.8373247866421778 0.13614964428957368 -0.05882348798951438 0.0425129174508491 -0.027681475810910995 -0.08544780816660597 0.11580113927459694 0.6841690667817868 -0.2955954170327339 0.21363275100929474 -0.13910289352216976 -0.4293859706864592 0.5819152727366758 -0.3298999788362893 -5.210268129066858 -0.9445831273531134 -0.6041101303774195 -0.22249437660327165 0.2509049988395326 -13.55849399798731 -46.276484201412 -19.279693007745525 -2.664697292632854 0.021778246314277702 0.12326820766198693 -2.57107383409609 -1.3481966269067307 1.365694824849264 -2.079085489312643 -0.9354522863971155 -0.8373950163470667 0.134835347533226 -0.05636576563119888 0.04620610922574997 -0.027488047257065773 -0.08331755548715591 0.11512470990419388 -0.35799992084503174 -5.050083160400391 -0.9173938632011414 -0.6106462478637695 -0.19428125023841858 0.308841347694397 -0.3298999788362893 -5.210268129066858 -0.9445831273531134 -0.6041101303774195 -0.22249437660327165 0.2509049988395326 0.40752556767712356 0.599260123377227 0.43765951091926325 -2.36626479630211 -0.01651482998974035 0.0006750530504251506 -0.08211470373968355 0.03417950200805529 0.0053358132896239256 -0.04140132509317729 0.008344278090838084 0.013452116576910186 4.892285404366318 -4.708171050424581 -0.33787177394765555 0.11635687138312249 -0.10415691230637103 0.1007944126063469 0.40758210303917364 0.5992274395158129 0.43751318296786695 -2.366376135478074 -0.016253198382489002 0.0008470657094809658 -0.08265203267175493 0.034373581642599696 0.008849868069935957 -0.03956047308361804 0.002430903308841631 0.013288015890795271 0 30.9375 32.25 30.75 34.75 37.0 37.25 0.765133 7 253 253 253 253 253 253 2 -0.5363011956214905 0.05746084079146385 -9.806650161743164 1.0 0.7 0.7780429862651315 47.733455657958984 47.764801025390625 0.6456586718559265 47.65659713745117 47.599266052246094 47.584930419921875 47.54193115234375 47.51326370239258 47.4559326171875 768 2
7822.311 -2.5541213006303214 -1.3554792629390722 1.3712004907864905 -2.0826249688918868 -0.9461567675826696 -0.8228350963510342 0.204566550967752 -0.08838302969278819 0.06387619255177848 -0.04159176516312769 -0.12838640523525255 0.17399266654826423 0.6841690667817868 -0.2955954170327374 0.21363275100929474 -0.13910289352216457 -0.4293859706864661 0.5819152727366689 -0.20896617160258182 -5.255034737823762 -0.9189425962945821 -0.6082860169786592 -0.2382541043340588 0.2672423953126489 -13.002590692086592 -46.57320588074565 -19.292304132845885 -2.6686834482728976 0.012038599888509235 0.12326798284996132 -2.5541990439044397 -1.3554217529347916 1.3711369673358362 -2.0825725994505824 -0.9461420218097132 -0.8229401747332972 0.2038145512342453 -0.08791244029998779 0.06573052704334259 -0.04289077967405319 -0.12744703888893127 0.17431047558784485 -0.14369100332260132 -5.190086841583252 -0.9558929800987244 -0.6007238626480103 -0.18501053750514984 0.344570130109787 -0.20896617160258182 -5.255034737823762 -0.9189425962945821 -0.6082860169786592 -0.2382541043340588 0.2672423953126489 0.3972872682442502 0.6034109996249865 0.4386162371590698 -2.371240229275636 -0.0180775239325948 0.0019274051069558661 -0.12414272520072886 0.049147133760021264 0.012402639151430212 -0.05726046107507934 0.003798767564017397 0.018228800136775247 4.957238293710396 -4.796229004095784 -0.46893529576168547 0.1157071912869924 -0.11926600262740954 0.11381518943529226 0.3972280383084156 0.6034301553271895 0.4386257388010456 -2.3712255972306306 -0.01805902223571239 0.0019575931912989212 -0.12447101463629412 0.04928689317684364 0.013422239827654696 -0.05736737328467344 0.00225039447832312 0.01875290585061086 0 30.9375 32.25 30.6875 34.75 37.0 37.25 0.815736 7 253 253 253 253 253 253 2 -0.5746083855628967 0.0 -9.998186111450195 1.0 0.7 1.1665529714015492 47.748680114746094 47.76927947998047 0.7351769208908081 47.68526077270508 47.61359786987305 47.599266052246094 47.61359786987305 47.5275993347168 47.4559326171875 768 2
7822.411 -2.530243800199637 -1.3657955429935154 1.378656273796715 -2.087479659875811 -0.961142337959628 -0.802526253332525 0.2729834576459303 -0.117942571396062 0.08523946765270786 -0.055502054515344394 -0.17132500230389913 0.23218419382193153 0.6841690667817868 -0.2955954170327374 0.21363275100929474 -0.1391028935221715 -0.4293859706864661 0.5819152727366828 -0.06756859157402155 -5.312056286612343 -0.8942527285389642 -0.6128253349213508 -0.25435303070996934 0.2835798055315778 -12.207626388156758 -46.991152664252105 -19.31604745356565 -2.6753122569055736 -0.0003190376717813609 0.12326786676012268 -2.5302615801440638 -1.3658021104386826 1.378737751637594 -2.0874577961363734 -0.9610794226275843 -0.8027084509478968 0.27171897888183594 -0.11774682253599167 0.08427204191684723 -0.0560322180390358 -0.16971085965633392 0.23266255855560303 0.042915504425764084 -5.100791931152344 -0.9536293148994446 -0.5839027166366577 -0.18314658105373383 0.3912322223186493 -0.06756859157402155 -5.312056286612343 -0.8942527285389642 -0.6128253349213508 -0.25435303070996934 0.2835798055315778 0.38266620559920883 0.6089824316612081 0.44016379507839687 -2.3777371654645596 -0.020666250950815614 0.003259579569297248 -0.16584026246616876 0.06123950265580435 0.018867358860263694 -0.07072680413252433 0.0006169521784014642 0.022000225785456934 4.46383204796069 -4.532360330191809 -0.10378399981165387 0.10737802463042825 -0.09631925134104072 0.11087571420790074 0.382679527309325 0.6089904782430866 0.44020268395487894 -2.3777289333126514 -0.020488075004330215 0.003207997667594732 -0.1665377970964207 0.06137062541019071 0.018146212182608427 -0.0725877565655627 0.0005263563219784495 0.022814766285414845 0 31.0 32.25 30.6875 34.75 36.9375 37.25 0.826116 7 253 253 253 253 253 253 2 -0.4213795065879822 0.1149216815829277 -10.074800491333008 1.0 0.7 1.549715252168969 47.72629165649414 47.74778747558594 0.7060845494270325 47.61359786987305 47.570594787597656 47.584930419921875 47.5562629699707 47.51326370239258 47.427268981933594 768 2
7822.5109999999995 -2.499524609101135 -1.3790677772182853 1.3882483843170323 -2.0937253797949564 -0.9804217680434499 -0.7763982575866475 0.34140036432410864 -0.14750211309933584 0.10660274275363724 -0.06941234386756108 -0.21426359937254572 0.29037572109559884 0.6841690667817868 -0.2955954170327513 0.2136327510092878 -0.1391028935221611 -0.42938597068645223 0.5819152727366828 0.09284720690854632 -5.380051862142137 -0.8704647701122127 -0.6177399974832325 -0.2708581730875911 0.2999172498783724 -11.191360239884943 -47.51742337023569 -19.35035327764168 -2.6846703446840943 -0.015811917387279356 0.1232680206038481 -2.4996162096606653 -1.37900863707576 1.3882349173175257 -2.093658586541647 -0.9803713003741663 -0.7764475981341761 0.34111037850379944 -0.14454087615013123 0.10395266860723495 -0.07086014002561569 -0.21042625606060028 0.28581732511520386 -0.020364560186862946 -5.360670566558838 -0.692691445350647 -0.5903826355934143 -0.197601318359375 0.38425198197364807 0.09284720690854632 -5.380051862142137 -0.8704647701122127 -0.6177399974832325 -0.2708581730875911 0.2999172498783724 0.36396952162495205 0.6155578404431721 0.4422239686246249 -2.3856116903617033 -0.023358408351747822 0.004403339936026722 -0.20818447108398894 0.070929793804705 0.02338254377070529 -0.08088073994338696 -0.005002109368582919 0.030038131645577476 5.727445360704802 -4.662546825557284 0.29602584616251315 0.11113981716708604 -0.10870443557429574 0.12059118754273021 0.3639145853288851 0.6155792897305321 0.4422617473257418 -2.3855795967168576 -0.023434819983722828 0.0043188842841258394 -0.2087769873945798 0.06970568992209378 0.023073149056292225 -0.08422020779839819 -0.0030068977088032744 0.02510152635248039 0 31.0 32.25 30.6875 34.75 36.9375 37.25 0.826189 7 253 253 253 253 253 253 2 -0.6895301342010498 0.3447650372982025 -9.940725326538086 1.0 0.7 1.9257793030596209 47.705692291259766 47.71464920043945 0.8045620322227478 47.6279296875 47.5275993347168 47.5562629699707 47.51326370239258 47.4559326171875 47.44160079956055 768 2
7822.611 -2.4619637273348145 -1.395295965613382 1.3999768223474427 -2.101362128649323 -1.0039950578341372 -0.7444511091134043 0.40981727100228693 -0.17706165480260963 0.1279660178545666 -0.08332263321977779 -0.2572021964411923 0.3485672483692661 0.6841690667817868 -0.2955954170327374 0.2136327510092878 -0.13910289352216804 -0.42938597068648 0.581915272736655 0.27316443520542216 -5.45780130451275 -0.8482041938693909 -0.6232427774679636 -0.2875317135017358 0.31625476174512224 -9.944516914161543 -48.13970086197681 -19.402548386128082 -2.6983048667990275 -0.03260452094609574 0.12326870849509566 -2.462071720753805 -1.3952523481896897 1.399750057850973 -2.10131897548818 -1.0037716070758265 -0.7445128599749964 0.4112517535686493 -0.17624273896217346 0.12954579293727875 -0.08276684582233429 -0.25599637627601624 0.3454386591911316 0.12429338693618774 -5.257234573364258 -0.7333049178123474 -0.6394749283790588 -0.2674422860145569 0.3995186686515808 0.27316443520542216 -5.45780130451275 -0.8482041938693909 -0.6232427774679636 -0.2875317135017358 0.31625476174512224 0.34097969343724605 0.6227906982128885 0.4449465296757666 -2.3941303941983656 -0.0268301485433951 0.00495982697224434 -0.25216179011045126 0.07403000849184013 0.026823003482291163 -0.09221329189604287 -0.007468594113394955 0.029681163624143858 4.4977176127646965 -4.05567017735833 0.44743452654831595 0.11739662152937237 -0.07892126147562045 0.15116280805236879 0.3409251051483628 0.6227770429861832 0.4448257724669394 -2.3943677102910943 -0.02675905517058076 0.004972619601360133 -0.2509816129148041 0.07340522574604835 0.0282537735973741 -0.09117254256582377 -0.008387354064617686 0.025325451327463 0 31.0 32.3125 30.6875 34.75 36.9375 37.25 0.831216 7 253 253 253 253 253 253 2 -0.1149216815829277 0.4213795065879822 -10.20887565612793 1.0 0.7 2.2930383092168563 47.70658874511719 47.71375274658203 0.8247004151344299 47.6279296875 47.54193115234375 47.570594787597656 47.51326370239258 47.427268981933594 47.39860534667969 768 2
7822.710999999999 -2.417561154900677 -1.4144801081788074 1.413841587887946 -2.110389906438912 -1.031862207331689 -0.7066848079127936 0.4782341776804652 -0.20662119650588343 0.149329292955496 -0.09723292257199449 -0.3001407935098389 0.4067587756429334 0.6841690667817868 -0.2955954170327374 0.2136327510092878 -0.13910289352217498 -0.42938597068648 0.581915272736655 0.47205086893617454 -5.542570474094799 -0.8264853006555987 -0.6291220698073369 -0.30448045190408035 0.33259236653580115 -8.483907195450083 -48.8307190230218 -19.46109212655065 -2.714677159126025 -0.05152114800472071 0.12327013136600862 -2.4178288618670862 -1.4143609267524262 1.413985554371969 -2.1103316746153773 -1.03168231645693 -0.7070124785052698 0.4792012870311737 -0.20337644219398499 0.14663414657115936 -0.09707457572221756 -0.29911646246910095 0.4068586528301239 0.3605390787124634 -5.614838123321533 -0.8246424198150635 -0.6048223376274109 -0.2714533507823944 0.4757128357887268 0.47205086893617454 -5.542570474094799 -0.8264853006555987 -0.6291220698073369 -0.30448045190408035 0.33259236653580115 0.31387049665031186 0.6300190855503045 0.44776852091939534 -2.403664427945481 -0.03030595381683736 0.005029891240384288 -0.29263513544914127 0.07297075890567678 0.033264907187108304 -0.0922643669102148 -0.014204761512467245 0.02478299084771174 5.058089782284747 -3.932393137768053 0.514420041242367 0.10909312142281402 -0.08159918475195838 0.14675787717767447 0.31373139964706603 0.6300778656170445 0.44792257709293315 -2.403571320143243 -0.030282911698516605 0.004848078721623486 -0.29278606636016585 0.0716331775556035 0.03373648706117909 -0.09227335705688523 -0.015356151732210666 0.023304940553008302 0 31.0 32.3125 30.6875 34.75 36.9375 37.25 0.823728 7 253 253 253 253 253 253 2 -0.5363011956214905 0.6129156351089478 -10.170568466186523 1.0 0.7 2.6498472297181253 47.704795837402344 47.71464920043945 0.8873621225357056 47.61359786987305 47.54193115234375 47.5562629699707 47.498931884765625 47.427268981933594 47.38426971435547 768 2
7822.811 -2.3663168917987227 -1.4366202049145587 1.4298426809385416 -2.120808713163722 -1.0640232165361043 -0.6630993539848182 0.5466510843586412 -0.23618073820915628 0.17069256805642463 -0.11114321192421071 -0.343079390578484 0.4649503029165987 0.6841690667817035 -0.2955954170327374 0.21363275100927392 -0.1391028935221611 -0.42938597068645223 0.581915272736655 0.6707871144173907 -5.634572596258797 -0.8075955264610558 -0.6359955432580395 -0.3214326937769196 0.34893012019692726 -6.809186007312993 -49.592367922042136 -19.552780904782338 -2.7382785354351 -0.07046481542694391 0.12327273172428123 -2.3665438334094446 -1.4364972126534958 1.4295867125140589 -2.120688577691549 -1.063831631337301 -0.6633260885821741 0.5450466871261597 -0.23747128248214722 0.17067302763462067 -0.11081557720899582 -0.34156808257102966 0.46702665090560913 0.670634388923645 -5.323418140411377 -0.603454053401947 -0.6143696904182434 -0.28296902775764465 0.4216711223125458 0.6707871144173907 -5.634572596258797 -0.8075955264610558 -0.6359955432580395 -0.3214326937769196 0.34893012019692726 0.2825434844254871 0.6368899990148504 0.4516515713338005 -2.412423528760286 -0.033859455656429935 0.003629443927814496 -0.33324165975533077 0.06313430761814738 0.040497912981036416 -0.08481590119794254 -0.021630583748403487 0.016664935337887155 4.612322445661515 -4.082421698503993 0.5096331295651735 0.1176404613600983 -0.09772052823127134 0.1359207584104201 0.28239923924655735 0.6368958266736149 0.4515845953060003 -2.412549423082502 -0.033787664860085546 0.003666089587338842 -0.3336434625706694 0.06362912198425694 0.03956467135046595 -0.08630778825045109 -0.023285725619954012 0.018986215552701913 0 31.0 32.3125 30.6875 34.8125 36.9375 37.25 0.834085 7 253 253 253 253 253 253 2 -0.689530074596405 0.4596867263317108 -9.979032516479492 1.0 0.7 2.994645318641062 47.674346923828125 47.702110290527344 1.0037368535995483 47.5562629699707 47.48460006713867 47.498931884765625 47.44160079956055 47.38426971435547 47.35560607910156 768 2
7822.911 -2.3082309380289514 -1.4617162558206367 1.44798010149923 -2.1326185488237535 -1.1004780854473841 -0.6136947473294772 0.6150679910368169 -0.2657402799124289 0.1920558431573532 -0.12505350127642686 -0.38601798764712886 0.5231418301902637 0.684169066781759 -0.2955954170327235 0.2136327510092878 -0.1391028935221611 -0.4293859706864245 0.581915272736655 0.8776984133778241 -5.72778594522776 -0.7896757063108273 -0.6435537721987482 -0.3383769355882312 0.3628721039322867 -4.942129430979508 -50.365083573122625 -19.655846647367877 -2.766859039679749 -0.08934673705372873 0.12327675984122281 -2.3085010687457483 -1.4615802776864548 1.448129955922262 -2.1325489483275355 -1.1002686659442347 -0.6140411535846155 0.6146484017372131 -0.265023797750473 0.18983829021453857 -0.12531456351280212 -0.3857184648513794 0.520689070224762 1.0251436233520508 -5.721512317657471 -0.8548033237457275 -0.6795029044151306 -0.2535426914691925 0.5046009421348572 0.8776984133778241 -5.72778594522776 -0.7896757063108273 -0.6435537721987482 -0.3383769355882312 0.3628721039322867 0.24719652369696432 0.6425369155311318 0.4556769590264682 -2.4206798333946637 -0.03707247843546852 0.0014680635823414313 -0.3722450246971921 0.04915901323410541 0.04669419994200745 -0.07082730732638182 -0.03381753186030634 0.014119878803784014 5.280988768924111 -4.211622990762205 -0.3019603292831987 0.09274756503914801 -0.097405719346047 0.14253323381662392 0.24705888088884898 0.6425740233609052 0.4558481912484956 -2.420539569408161 -0.03701079411504019 0.0012461672323121644 -0.372808674998844 0.04873990524893163 0.045772784839642595 -0.07208269975317154 -0.031110159469517784 0.01246432349795884 0 31.0 32.3125 30.6875 34.8125 36.9375 37.25 0.816181 7 253 253 253 253 253 253 2 -0.8427590131759644 0.325611412525177 -10.055646896362305 1.0 0.7 3.325983696910105 47.66539001464844 47.694053649902344 1.1469734907150269 47.51326370239258 47.4559326171875 47.47026824951172 47.41293716430664 47.34127426147461 47.31260681152344 768 2
7823.0109999999995 -2.243303293591363 -1.4897682608970424 1.468253849570011 -2.145819413419007 -1.1412268140655275 -0.5584709879467686 0.6834848977149924 -0.2952998216157015 0.2134191182582817 -0.138963790628643 -0.42895658471577375 0.5813333574639287 0.684169066781759 -0.2955954170327235 0.2136327510092878 -0.1391028935221611 -0.4293859706864245 0.5819152727365995 1.0999955934049224 -5.821284501852682 -0.7752547050156993 -0.6525260960694189 -0.35516114230801094 0.37318333686455046 -2.902750112915041 -51.13971523617641 -19.799928923427608 -2.8057219873251293 -0.10699348142710803 0.12328276023751221 -2.2435954252826136 -1.4896968615106125 1.4680340925799769 -2.145726343194479 -1.1411274115191858 -0.558544937764303 0.6818777322769165 -0.29496821761131287 0.21636956930160522 -0.13890662789344788 -0.42804521322250366 0.5778321623802185 1.113437294960022 -5.592221260070801 -0.7578168511390686 -0.6117249727249146 -0.25064992904663086 0.4670862853527069 1.0999955934049224 -5.821284501852682 -0.7752547050156993 -0.6525260960694189 -0.35516114230801094 0.37318333686455046 0.20811561118015653 0.6463742740607518 0.46082805513844516 -2.4265736449505 -0.03943182133030743 -0.0025317578035890225 -0.4086811528701217 0.02611326984836856 0.050464848576912864 -0.050683766382104825 -0.036817539889205275 0.0055655322741768876 4.732280810197029 -3.8622916081656022 0.19148661353394125 0.10808411513446162 -0.05948170998080652 0.12978432195435477 0.20792545069244187 0.6463971851588756 0.46075251495073954 -2.426663618059925 -0.03964390089955574 -0.0024260693500368653 -0.4093284777607909 0.026458379822291662 0.05238108578640608 -0.0485255307953672 -0.03726558411610886 0.004002584105558815 0 31.0 32.3125 30.6875 34.8125 36.9375 37.25 0.842328 7 253 253 253 253 253 253 2 -0.2298433631658554 0.7661445140838623 -10.074800491333008 1.0 0.7 3.6425583935470067 47.67524337768555 47.686885833740234 1.1827785968780518 47.54193115234375 47.44160079956055 47.4559326171875 47.427268981933594 47.34127426147461 47.298274993896484 768 2
7823.111 -2.172626566738648 -1.5203041584739507 1.4903227566910247 -2.160189161610244 -1.185583679112562 -0.4983573862370463 0.7172072493749669 -0.3098695721148631 0.22394896987742977 -0.14582010278893928 -0.4501208047958477 0.6100156706761323 0.14284980691564586 -0.061718294933871265 0.044605052631332964 -0.029043729753111536 -0.08965284457151945 0.12149991630389101 1.142067410126609 -5.768800093466762 -0.7950809827214189 -0.6559377894059524 -0.3657527827419366 0.36593491102774756 -2.678002103503872 -50.551071420647126 -20.186703635203003 -2.817527993224198 -0.13358826797575535 0.02575569051252513 -2.1730054060565394 -1.5201850210181256 1.4900592009173792 -2.1601482830443324 -1.1853097120868128 -0.4985101858722132 0.7155378460884094 -0.31108415126800537 0.22453458607196808 -0.1479664444923401 -0.44895651936531067 0.6066115498542786 1.1546133756637573 -5.521456241607666 -0.593263566493988 -0.6216110587120056 -0.28416934609413147 0.49870678782463074 1.142067410126609 -5.768800093466762 -0.7950809827214189 -0.6559377894059524 -0.3657527827419366 0.36593491102774756 0.166181909058847 0.6476251392955702 0.46634810724532294 -2.4297160549864825 -0.041174793772872295 -0.007067602609861081 -0.4211119339381014 -0.0030563784478422965 0.05757442294908926 -0.011977172129244977 -0.04074783718475716 -0.003896295541891248 2.9512828947180214 -3.1286169630414946 0.5499021053557216 0.1326928529376165 -0.04935780270911122 0.20918681929775246 0.16596233502552346 0.6476132851421148 0.4662514760130736 -2.429923292793179 -0.04131630774534718 -0.007049908542213374 -0.42177992014729665 -0.002902387530102587 0.05662360314882213 -0.014693901529174942 -0.03787604916418824 -0.005537915569219065 0 31.0 32.3125 30.6875 34.8125 36.9375 37.25 0.812916 7 253 253 253 253 253 253 2 0.038307227194309235 1.0342950820922852 -9.979032516479492 0.9784035339374371 0.7 3.764120970075026 47.68061828613281 47.67703628540039 1.2253018617630005 47.5275993347168 47.44160079956055 47.47026824951172 47.427268981933594 47.369937896728516 47.26960754394531 768 2
7823.210999999999 -2.1001908921581904 -1.5516000098581344 1.5129408977078749 -2.1749165329831825 -1.2310444635183249 -0.4367477236902939 0.7319548856470763 -0.3162412920679544 0.22855393999470647 -0.1488185413002162 -0.4593764528856062 0.6225591708140054 0.15206792079791587 -0.065700983350514 0.04748342162434749 -0.030917924855031198 -0.09543815257423427 0.1293403193773357 1.3475222773260322 -5.822614770728565 -0.8051976759297554 -0.6641386497981837 -0.3690920017983774 0.3683680160214277 -0.4257786818956326 -51.049441732923846 -20.37288532211902 -2.8714736914771466 -0.13524100555687807 0.027421633503921683 -2.100607697163717 -1.551399602820613 1.5130613485919397 -2.174880167047018 -1.2308829466449183 -0.43686134019960576 0.7347726821899414 -0.3177322447299957 0.22505630552768707 -0.15076543390750885 -0.4579564332962036 0.6176179051399231 1.3661237955093384 -5.727581977844238 -0.8274872899055481 -0.633812665939331 -0.2909458875656128 0.4899079203605652 1.3475222773260322 -5.822614770728565 -0.8051976759297554 -0.6641386497981837 -0.3690920017983774 0.3683680160214277 0.12410972030769753 0.645779955764259 0.47185633258257026 -2.4298340662174884 -0.0413319716333875 -0.011676016192438415 -0.4222449258797134 -0.03300791636070207 0.06299512078886288 0.028855952352551076 -0.03859256823969187 -0.006725276718189788 3.8899137041952607 -2.715510519973652 0.3122389668136678 0.1256324151078078 -0.07145106944278257 0.2173007396285364 0.12385570400915158 0.6457823270170563 0.4720518805934251 -2.429584726778006 -0.04171161190152129 -0.011840458592302499 -0.4201515368406211 -0.03382555879837345 0.05941739752503271 0.022535183423801827 -0.032652010195059034 -0.01418168346345744 0 31.0 32.3125 30.6875 34.8125 36.9375 37.25 0.832369 7 253 253 253 253 253 253 2 -0.038307227194309235 1.2641384601593018 -10.228029251098633 0.9985220414656732 0.7 3.779469638647081 47.67255783081055 47.6627082824707 1.2991533279418945 47.498931884765625 47.4559326171875 47.427268981933594 47.369937896728516 47.298274993896484 47.25527572631836 768 2
7823.311 -2.0275279377113975 -1.5829940575656156 1.5356300071818676 -2.1896901141141782 -1.2766478892546633 -0.37494474982353676 0.7035412114156556 -0.3039651569843026 0.21968173035083438 -0.14304157111391647 -0.4415439701222208 0.5983921165103039 -0.6841690667818145 0.2955954170327513 -0.2136327510092878 0.1391028935221611 0.42938597068648 -0.581915272736655 1.2640439185530263 -5.6500839717977325 -0.8636316274041768 -0.6629824275860267 -0.3641659014629379 0.34503629213465514 -1.167058634058809 -49.41000825823519 -20.928358932251122 -2.8740213296588024 -0.1436913977843456 -0.12325203286943524 -2.027869526539938 -1.5829245052733363 1.5355938116656702 -2.1896096668639125 -1.2763436476336878 -0.3750188986407679 0.7027667164802551 -0.3024556636810303 0.2216489315032959 -0.14211829006671906 -0.4429674744606018 0.5948180556297302 1.3355298042297363 -5.514098644256592 -0.8743804693222046 -0.6618634462356567 -0.30264174938201904 0.43759384751319885 1.2640439185530263 -5.6500839717977325 -0.8636316274041768 -0.6629824275860267 -0.3641659014629379 0.34503629213465514 0.08290162581007891 0.6409485270577984 0.47800452117478265 -2.4255664287611856 -0.040529445600663135 -0.015825718702907627 -0.3910171751029859 -0.0608747697834275 0.056107787888090066 0.05232389892712488 -0.022549847982173132 -0.019180700293701336 2.1283323709439195 -3.2767476878953774 0.3963305029743116 0.12618017627714437 -0.04780703318621013 0.2688542945504949 0.08274736133315932 0.6409435662442431 0.4780262436509092 -2.4255638156903903 -0.040747073810500474 -0.01604518834496732 -0.39187057710561174 -0.06095820927648999 0.05855698946826977 0.05696768166903046 -0.021081600461877903 -0.020256257820949586 0 30.9375 32.3125 30.6875 34.8125 36.9375 37.25 0.816216 7 253 253 253 253 253 253 2 0.38307225704193115 0.9576806426048279 -9.940725326538086 1.0 0.7 3.5792572140994565 47.64747619628906 47.654640197753906 1.2141121625900269 47.498931884765625 47.427268981933594 47.427268981933594 47.41293716430664 47.32693862915039 47.28394317626953 768 2
7823.411 -1.9605946619037429 -1.6119125961788816 1.5565300164619043 -2.203298756757958 -1.3186553564134522 -0.31801511453619113 0.63512430473748 -0.27440561528103 0.19831845524990585 -0.12913128176170033 -0.39860537305357596 0.5402005892366388 -0.684169066781759 0.29559541703269576 -0.21363275100927392 0.1391028935221611 0.42938597068645223 -0.581915272736655 1.3903433564734196 -5.638791580385262 -0.9089374163880576 -0.6675455617161627 -0.34681444280205237 0.33472528607547647 0.8111463187729979 -49.44486700392171 -21.14660842475988 -2.933580049362177 -0.12166650929333736 -0.12325623881831138 -1.9609320799456995 -1.611751218835348 1.556246582661764 -2.203228612939352 -1.3184059301959437 -0.3183839956866663 0.6386563181877136 -0.27854597568511963 0.1969211846590042 -0.12713302671909332 -0.40047189593315125 0.5454251766204834 1.5370501279830933 -5.35681676864624 -0.790424108505249 -0.682064414024353 -0.2516893446445465 0.41452398896217346 1.3903433564734196 -5.638791580385262 -0.9089374163880576 -0.6675455617161627 -0.34681444280205237 0.33472528607547647 0.046240354742522596 0.6340127568207937 0.4837294254650732 -2.4185781124058643 -0.03879739999071829 -0.018893687269695612 -0.3446826264354856 -0.07869848196768345 0.056770459228035995 0.08232673020167593 -0.006184334394369828 -0.02409174368846667 3.5771107793103103 -4.726478795115159 0.44149083032051495 0.09778426598998767 -0.01308026179096676 0.2536646250153048 0.04605877251613502 0.6339480389658358 0.48365546369939355 -2.4186973526710114 -0.038643066728563255 -0.01883421651994049 -0.34226908131845085 -0.07753926052986397 0.05394777311327387 0.07968472726946436 -0.006974813913644129 -0.022536135639635968 0 30.9375 32.3125 30.6875 34.8125 36.9375 37.25 0.820152 7 253 253 253 253 253 253 2 0.26815056800842285 0.40222588181495667 -9.883264541625977 1.0 0.7 3.1839540724176474 47.63225173950195 47.66539001464844 1.2163479328155518 47.51326370239258 47.44160079956055 47.4559326171875 47.39860534667969 47.35560607910156 47.298274993896484 768 2
7823.5109999999995 -1.9005030767639024 -1.6378751806218217 1.5752936982318484 -2.215516370466518 -1.3563689638653784 -0.2669046319762094 0.5667073980593006 -0.2448460735777557 0.17695518014897615 -0.1152209924094834 -0.35566677598492874 0.48200906196297066 -0.6841690667818701 0.29559541703277903 -0.2136327510092878 0.13910289352217498 0.42938597068648 -0.581915272736655 1.4885060166674828 -5.61298001431326 -0.9516828645727816 -0.6712922310507148 -0.32941791178188795 0.3225499659796337 2.461513089476943 -49.3364772924206 -21.334856061981483 -2.9872019306882955 -0.09929374489333452 -0.1232612785536321 -1.9008548895465296 -1.6376711330809535 1.5753539244281214 -2.2153765163817347 -1.3561742941485804 -0.2673533598529261 0.567045271396637 -0.2438625991344452 0.17541445791721344 -0.11638331413269043 -0.35677406191825867 0.4833204746246338 1.602204442024231 -5.608306884765625 -0.934027373790741 -0.7079710960388184 -0.22742195427417755 0.44634634256362915 1.4885060166674828 -5.61298001431326 -0.9516828645727816 -0.6712922310507148 -0.32941791178188795 0.3225499659796337 0.014398125392294741 0.625740341070239 0.4886167243478935 -2.4103949200345305 -0.03590889607637614 -0.02002869433961844 -0.2949360330285701 -0.08567209699338514 0.04950837475859477 0.09388248168615942 0.005146394566724555 -0.023961585822481646 4.281406316801586 -4.688766620415881 -0.194236713000834 0.06048036846372479 -0.025013637111448217 0.2677641713152338 0.01421092062461249 0.6256955799754149 0.48880147789931927 -2.4100582703547957 -0.03575965585757644 -0.020048566582652874 -0.29513642916463434 -0.08632074037059936 0.048908752490794904 0.09267239702067759 0.0058649708476968265 -0.022611804967650362 0 30.9375 32.3125 30.6875 34.8125 36.9375 37.25 0.811753 7 253 253 253 253 253 253 2 -0.038307227194309235 0.3447650372982025 -9.998186111450195 1.0 0.7 2.8041079579633768 47.6367301940918 47.64299774169922 1.1469734907150269 47.48460006713867 47.44160079956055 47.427268981933594 47.39860534667969 47.298274993896484 47.26960754394531 768 2
7823.611 -1.8472531822918787 -1.660881810894434 1.5919210524917005 -2.226342955239856 -1.3897887116104402 -0.2216133021435942 0.4982904913811196 -0.21528653187448077 0.15559190504804593 -0.10131070305726617 -0.3127281789162804 0.4238175346893011 -0.6841690667818423 0.2955954170327374 -0.2136327510092878 0.13910289352217498 0.42938597068648 -0.581915272736655 1.5609853838011716 -5.578449752286144 -0.9941233464614807 -0.6748078264221055 -0.3121093265693147 0.3062118417189644 3.822387940258672 -49.14202237321417 -21.519575727483964 -3.039143581856419 -0.07759976075352161 -0.12326681016040188 -1.8475459257708948 -1.660800119439596 1.5917204062091272 -2.2262774906554164 -1.3897011915790003 -0.22184974351991826 0.49785116314888 -0.21326419711112976 0.15974096953868866 -0.10191464424133301 -0.3146856427192688 0.4259790778160095 1.7233848571777344 -5.445528984069824 -1.062071442604065 -0.6566172242164612 -0.201965793967247 0.36905696988105774 1.5609853838011716 -5.578449752286144 -0.9941233464614807 -0.6748078264221055 -0.3121093265693147 0.3062118417189644 -0.012893126713968816 0.6169441995046439 0.4934909978451833 -2.4004776750062273 -0.03239873433615862 -0.01999702432820243 -0.25001530411988737 -0.08824354002100797 0.03981711840883223 0.09165649188411024 0.017748083070044773 -0.024542688920060007 3.7234937336893834 -3.585567765788205 0.453903092524357 0.12970351146162323 -0.05764546092929579 0.2759894225639121 -0.013062594878322398 0.6169008639140467 0.4934259503812709 -2.4005436004548377 -0.032420686100668165 -0.019834624464974727 -0.2508181771034905 -0.08858892821750582 0.043531485353515295 0.09739873139115222 0.016178809610665423 -0.021218571811588705 0 30.9375 32.3125 30.6875 34.8125 36.9375 37.25 0.82824 7 253 253 253 253 253 253 2 0.07661445438861847 0.5171475410461426 -10.093954086303711 1.0 0.7 2.437608906659399 47.635833740234375 47.66360092163086 0.9903112649917603 47.51326370239258 47.427268981933594 47.427268981933594 47.41293716430664 47.369937896728516 47.22661209106445 768 2
7823.710999999999 -1.8008449784876737 -1.6809324869967197 1.6064120792414593 -2.2357785110779727 -1.4189145996486374 -0.18214112503834556 0.4298735847029387 -0.18572699017120575 0.1342286299471157 -0.08740041370504892 -0.26978958184763213 0.3656260074156314 -0.684169066781759 0.2955954170327374 -0.2136327510092878 0.1391028935221611 0.42938597068650775 -0.5819152727367383 1.5839502497087092 -5.537093464019181 -1.033269211544861 -0.6771655440948294 -0.2949454007514138 0.28987372244669946 4.923602228959301 -48.88011526020491 -21.665626599704435 -3.0826658464266226 -0.057022281700690194 -0.12327230231150214 -1.8010900656329554 -1.6808144054808558 1.6064770857440394 -2.2358018360533656 -1.4187515417682093 -0.18216354051698858 0.43260470032691956 -0.18661433458328247 0.13146810233592987 -0.08605363965034485 -0.2684965133666992 0.3611599802970886 1.4853990077972412 -5.344174861907959 -0.8748680949211121 -0.6596790552139282 -0.2619473934173584 0.37897810339927673 1.5839502497087092 -5.537093464019181 -1.033269211544861 -0.6771655440948294 -0.2949454007514138 0.28987372244669946 -0.03593309964246975 0.6082051287181567 0.497399053115396 -2.391036128457539 -0.028708247620138013 -0.01837736095002793 -0.2114819581564371 -0.0857232501098592 0.0398638006494996 0.09766389429638585 0.020516489569771063 -0.012050627328242913 2.212327931837811 -4.394525420822249 -0.1302599999280729 0.09903016221438285 -0.01268217110874742 0.33271103244051314 -0.03605018709723723 0.6081559456961976 0.4974992408038073 -2.390903252786633 -0.028913649400744236 -0.01848904490488066 -0.20941766162519396 -0.08550832156786795 0.037897781918242376 0.0953164215365495 0.023245875870805205 -0.018912629043148915 0 30.9375 32.3125 30.6875 34.8125 37.0 37.25 0.820224 7 253 253 253 253 253 253 2 0.7852981090545654 0.28730422258377075 -9.84495735168457 1.0 0.7 2.0824757843890875 47.681514739990234 47.6949462890625 0.9433110356330872 47.5275993347168 47.48460006713867 47.47026824951172 47.44160079956055 47.369937896728516 47.31260681152344 768 2
7823.811 -1.7612784653512872 -1.6980272089286768 1.6187667784811248 -2.2438230379808672 -1.4437466279799693 -0.14848810066046347 0.36145667802475756 -0.15616744846793074 0.11286535484618547 -0.07349012435283164 -0.2268509847789839 0.30743448014196184 -0.6841690667817868 0.29559541703277903 -0.21363275100929474 0.13910289352218191 0.42938597068643836 -0.581915272736655 1.586744716514209 -5.494111701764721 -1.071570524188129 -0.6789260407820218 -0.2781992787624201 0.2735356336347691 5.793308242456879 -48.6020493080945 -21.801782795593347 -3.121845481056399 -0.03966948156616662 -0.12327755353729124 -1.7616117636310022 -1.6979552708067835 1.6185162703143519 -2.2437249622740687 -1.4436305204974573 -0.14860517183412725 0.3635256290435791 -0.15575926005840302 0.11563561111688614 -0.07236413657665253 -0.22933273017406464 0.303300142288208 1.5338513851165771 -5.32381534576416 -0.7816856503486633 -0.7150058150291443 -0.22651945054531097 0.38675516843795776 1.586744716514209 -5.494111701764721 -1.071570524188129 -0.6789260407820218 -0.2781992787624201 0.2735356336347691 -0.054862862332283845 0.5999972224646601 0.5010948005622278 -2.3816565045985443 -0.02529076087564235 -0.016484865189618954 -0.1715483226221076 -0.0784575128977276 0.02976502077415158 0.08320342831535911 0.022971281940595084 -0.01272898623549637 3.4192215347308004 -4.728891284568549 -0.03578205535631085 0.09029927425436235 -0.05417677723402907 0.27882613605149315 -0.05504053881697314 0.5999427588482453 0.5009992952277228 -2.3817467027736354 -0.025487740074115132 -0.016388157373192307 -0.1708444553307328 -0.07811681254355628 0.0320772918426314 0.08778118966363602 0.0267897900288408 -0.016097106831228447 0 30.9375 32.3125 30.75 34.8125 37.0 37.25 0.821977 7 253 253 253 253 253 253 2 0.13407529890537262 0.2298433631658554 -9.806650161743164 1.0 0.7 1.7368554520370296 47.681514739990234 47.68240737915039 0.9343623518943787 47.5562629699707 47.498931884765625 47.498931884765625 47.47026824951172 47.39860534667969 47.34127426147461 768 2
7823.911 -1.7285536428827184 -1.712165976690308 1.6289851502106978 -2.2504765359485397 -1.4642847966044368 -0.12065422900994971 0.2930397713465765 -0.1266079067646558 0.09150207974525526 -0.059579835000614416 -0.18391238771033555 0.24924295286829226 -0.6841690667818701 0.2955954170327374 -0.2136327510092878 0.13910289352217844 0.42938597068650775 -0.5819152727366689 1.572585198985095 -5.450418954299771 -1.1069085374506107 -0.6795551757816305 -0.2617258112451402 0.2571976214721549 6.469002121075789 -48.31684151011168 -21.90312701540892 -3.1527985374898684 -0.024421073651354014 -0.1232821985070895 -1.728856388722555 -1.7121077976622523 1.6290290991412562 -2.250451227227682 -1.464165989552633 -0.12064773241151983 0.29340437054634094 -0.12769918143749237 0.09102242439985275 -0.0588604211807251 -0.18410779535770416 0.2475007325410843 1.5959709882736206 -5.164969444274902 -1.0957132577896118 -0.7017228007316589 -0.2078227400779724 0.30880746245384216 1.572585198985095 -5.450418954299771 -1.1069085374506107 -0.6795551757816305 -0.2617258112451402 0.2571976214721549 -0.0701533148305839 0.5926824983598646 0.5038449083748054 -2.3736732207093554 -0.022034648981326965 -0.013909138361729611 -0.1351120925831928 -0.06772801134167886 0.026876035634211044 0.07679447224643368 0.02534106647497089 -0.011571158947770721 3.2945410445058076 -4.095194910194175 0.07274950778529554 0.12339817901090422 -0.06756399428331518 0.28126677552229407 -0.07030537203774755 0.5926456563348376 0.5039103732303295 -2.3735558806016925 -0.02235343408867926 -0.013931867734546046 -0.1348562115678963 -0.06732933400269321 0.026126594528547313 0.07600748313973028 0.026888014834826363 -0.01304737163458547 0 30.9375 32.3125 30.75 34.8125 37.0 37.25 0.812857 7 253 253 253 253 253 253 2 0.07661445438861847 0.13407528400421143 -9.653421401977539 1.0 0.7 1.3990158111419495 47.70658874511719 47.71017074584961 0.8426030278205872 47.584930419921875 47.51326370239258 47.54193115234375 47.498931884765625 47.427268981933594 47.38426971435547 768 2
7824.0109999999995 -1.702670511081969 -1.7233487902816105 1.637067194430177 -2.25573900498099 -1.480529105522038 -0.09863951008680338 0.2246228646683956 -0.09704836506138079 0.07013880464432504 -0.045669545648397175 -0.14097379064168733 0.19105142559462254 -0.6841690667817729 0.2955954170327374 -0.2136327510092878 0.1391028935221611 0.42938597068643836 -0.5819152727367521 1.543590585707333 -5.410266974822484 -1.140709885098325 -0.6793648292633493 -0.24563762857269686 0.24085970235795237 6.975359678878221 -48.06651629183862 -21.98641784807479 -3.1777928197653136 -0.01214635776788911 -0.1232861075126301 -1.7028301397906702 -1.723307271996969 1.6370952765094202 -2.2557250461974085 -1.4804709593402308 -0.09877378145326787 0.22828899323940277 -0.0970616415143013 0.06737310439348221 -0.04487033933401108 -0.13952681422233582 0.19195958971977234 1.5434421300888062 -5.177586078643799 -1.0369337797164917 -0.706314742565155 -0.21298779547214508 0.27071067690849304 1.543590585707333 -5.410266974822484 -1.140709885098325 -0.6793648292633493 -0.24563762857269686 0.24085970235795237 -0.08200551700920754 0.5865876929105416 0.5061775845142861 -2.3667792363095663 -0.01967628045443903 -0.011560833787108909 -0.10360051053816094 -0.05409232233999413 0.02167756826320175 0.06312512276605163 0.025263331709384926 -0.005914006903680963 2.4706865404631007 -4.452129338702836 -0.42615141382067856 0.0980210047557821 -0.06517213122938413 0.3095847819312898 -0.08208608740917724 0.5865632395875195 0.5062217475608397 -2.3667005384187427 -0.019682940187861903 -0.011500975501666321 -0.10109429976954468 -0.05394817473402006 0.02008951476137308 0.06105333388669231 0.023889908965602752 -0.009935001380396213 0 30.9375 32.3125 30.75 34.8125 37.0 37.25 0.828588 7 253 253 253 253 253 253 2 0.325611412525177 0.05746084079146385 -9.959878921508789 1.0 0.7 1.067333912893495 47.731666564941406 47.72987747192383 0.7642692923545837 47.6279296875 47.54193115234375 47.5562629699707 47.5275993347168 47.48460006713867 47.427268981933594 768 2
7824.111 -1.6836290699490375 -1.7315756497025845 1.643012911139563 -2.259610445078219 -1.4924795547327747 -0.08244394389102361 0.15620595799021436 -0.06748882335810577 0.04877552954339481 -0.03175925629617991 -0.09803519357303896 0.132859898320953 -0.6841690667818562 0.2955954170327721 -0.2136327510092878 0.13910289352217844 0.4293859706865147 -0.5819152727367383 1.5013952016932044 -5.375645949594052 -1.1728880276132174 -0.6783383012641676 -0.22990244795800188 0.22452189681473103 7.331335279204803 -47.870793693700996 -22.050630535186844 -3.1967068958481444 -0.0025961700361127604 -0.12328911823112418 -1.6836841742144983 -1.7314940891661585 1.642860237752096 -2.2595960102477015 -1.4924023787127894 -0.08258372942079717 0.15545859932899475 -0.06791041046380997 0.04878251999616623 -0.03200524300336838 -0.1014794111251831 0.13499732315540314 1.5014976263046265 -5.207438945770264 -1.0041522979736328 -0.6981244087219238 -0.1475757360458374 0.2854425609111786 1.5013952016932044 -5.375645949594052 -1.1728880276132174 -0.6783383012641676 -0.22990244795800188 0.22452189681473103 -0.09056664907146829 0.5819625173725425 0.5079746097675581 -2.361391099659015 -0.017750998078667132 -0.009437660058614952 -0.06784156431466944 -0.03877014793903169 0.014255709155202821 0.044248378672160804 0.017339248789519382 -0.011529404882743774 2.8122473694058447 -4.486225510964175 -0.3858123536570548 0.09978695554354254 -0.06609833609989635 0.28700046979389765 -0.09058368032678794 0.581918886935289 0.507926485796319 -2.3614534635582354 -0.017611043130398817 -0.009425986495540347 -0.06911381643625845 -0.03867844275065351 0.013998406286733864 0.04382702023128206 0.01834585267478063 -0.006850182848815223 0 30.9375 32.3125 30.75 34.8125 37.0 37.25 0.802296 7 253 253 253 253 253 253 2 0.13407529890537262 0.0 -9.787496566772461 1.0 0.7 0.7402801313904066 47.70748519897461 47.733455657958984 0.7888899445533752 47.6279296875 47.54193115234375 47.570594787597656 47.570594787597656 47.47026824951172 47.41293716430664 768 2
7824.210999999999 -1.6714293194839245 -1.7368465549532317 1.6468223003388562 -2.262090856240226 -1.500136144236647 -0.07206753042261127 0.08778905131203345 -0.03792928165483084 0.027412254442464586 -0.017848966943962666 -0.055096596504390735 0.07466837104728342 -0.6841690667818562 0.2955954170327339 -0.21363275100929127 0.1391028935221611 0.42938597068643486 -0.5819152727366689 1.4471608843823447 -5.346884319450557 -1.2028764099603224 -0.6763261242931595 -0.21467296937921682 0.20818422229596023 7.550366134479524 -47.73297033405271 -22.089096259506043 -3.208453928509028 0.0030509259063684208 -0.12329109261476053 -1.6715682188617151 -1.7368117771544398 1.6467269102679651 -2.262062212029928 -1.5000847021686 -0.07218534151186162 0.08743419498205185 -0.03746919333934784 0.029934944584965706 -0.017408018931746483 -0.05578986182808876 0.07646504789590836 1.482965350151062 -5.175994873046875 -1.0669169425964355 -0.6997333765029907 -0.1932370811700821 0.22984082996845245 1.4471608843823447 -5.346884319450557 -1.2028764099603224 -0.6763261242931595 -0.21467296937921682 0.20818422229596023 -0.09588223822867571 0.5788992274498855 0.5090548877193769 -2.3579693186710604 -0.016237393171120315 -0.00803399449315212 -0.038039885631614645 -0.022187666038415585 0.00589399410906335 0.021662257245387874 0.012066805428713641 -0.005942192138072101 2.956499861767598 -4.703201069678931 -0.4103670467674032 0.10985245914947685 -0.06636013251060625 0.2980089589092144 -0.09595140825686534 0.5788695331139617 0.5090203990104867 -2.3580038139198214 -0.016236016790734796 -0.007965299793302998 -0.038408742207802646 -0.022147381376063664 0.007876172288405743 0.025109315525565265 0.01094756998970755 -0.003822530963927963 0 30.9375 32.3125 30.75 34.8125 37.0 37.25 0.754297 7 253 253 253 253 253 253 2 0.26815059781074524 0.0 -9.730035781860352 1.0 0.7 0.41639927436140883 47.6707649230957 47.711063385009766 0.6367100477218628 47.584930419921875 47.51326370239258 47.54193115234375 47.5275993347168 47.4559326171875 47.38426971435547 768 2
7824.311 -1.66607125968663 -1.7391615060335504 1.648495362028056 -2.2631802384670117 -1.503498874033654 -0.06751026968156637 0.019372144633852527 -0.008369739951555821 0.006048979341534366 -0.003938677591745393 -0.012157999435742362 0.01647684377361387 -0.6841690667817035 0.295595417032773 -0.2136327510092904 0.1391028935221806 0.42938597068651296 -0.5819152727366654 1.3821538198077798 -5.215319605759521 -1.4971804501727022 -0.5336475618099756 -0.19983182626235232 0.1918466870021773 7.646968339515874 -47.669961243636436 -22.105203678049843 -3.2133454479639147 0.005700784651281918 -0.12329196580157897 -1.6661461035357874 -1.7391511402525843 1.6484339872943323 -2.2630888424315394 -1.503463093434469 -0.06754190126527959 0.020029200240969658 -0.008383688516914845 0.003675656858831644 -0.002650697948411107 -0.012920808978378773 0.017025450244545937 1.3911898136138916 -5.054875373840332 -1.1924219131469727 -0.7054067254066467 -0.16513057053089142 0.20388151705265045 1.3821538198077798 -5.215319605759521 -1.4971804501727022 -0.5336475618099756 -0.19983182626235232 0.1918466870021773 -0.0982555007190696 0.5775183167189113 0.5095122320391199 -2.356506117394772 -0.01558493968234119 -0.007296673436659277 -0.00861836653083038 -0.004969454708675959 0.0029331076622382294 0.006638688514771761 0.0022147082087927046 -0.0011153623740812434 3.027376317053279 -4.636134321309237 -0.542669612503901 0.10507150492899447 -0.06976549529521255 0.28648822905124505 -0.09828976973905997 0.5775123712739754 0.5095012207326962 -2.356467525825363 -0.01562040848135263 -0.0072908409391430765 -0.00843318884333212 -0.004926433226877363 0.00173881888705329 0.0055863080731902715 0.002478211144614611 -0.0008405240173074199 0 30.9375 32.3125 30.75 34.8125 37.0 37.25 0.749628 7 253 253 253 253 253 253 2 0.15322890877723694 -0.019153613597154617 -9.806650161743164 1.0 0.7 0.09428941757204234 47.6976318359375 47.73524856567383 0.5941867828369141 47.61359786987305 47.5562629699707 47.584930419921875 47.5562629699707 47.498931884765625 47.47026824951172 768 2
7824.411 -1.6657969999999995 -1.73928 1.6485809999999999 -2.263236 -1.5036709999999998 -0.06727699999999981 0.0 0.0 0.0 0.0 0.0 0.0 0.0 0.0 0.0 0.0 0.0 0.0 0.8523045933809839 -4.616124183084367 -1.9196128550778326 -0.4495146792902307 8.733994063394023e-06 0.0 9.792259093255524 -49.17624800034831 -21.821177690481964 -3.2685989813457446 6.741040790008986e-05 0.0 -1.6659134070025843 -1.7391840420165003 1.6484201590167444 -2.263196130792135 -1.5035789648639124 -0.06733256975282842 -7.280987483682111e-05 0.00011624943726928905 -9.93836292764172e-05 -0.0018066217890009284 -0.0007116433698683977 -5.066773883299902e-05 1.050247073173523 -4.721877098083496 -1.4065344333648682 -0.6729847192764282 -0.1725195348262787 0.15801303088665009 0.8523045933809839 -4.616124183084367 -1.9196128550778326 -0.4495146792902307 8.733994063394023e-06 0.0 -0.09836105905749094 0.5774953917597568 0.5095650280700451 -2.3563588601223575 -0.01556270955773315 -0.007234625767284651 0.0002390612640230499 0.00024017846709644682 0.0004366172366834516 0.0017441099250104695 -0.000699734038660763 -0.0005284421849376667 3.491684852261821 -4.414957954980007 -0.1683069162535582 0.11602058646629762 -0.061107303179863445 0.2820606539320032 -0.09840914659740613 0.5774426115021309 0.5095258382166512 -2.3563885441095627 -0.015588705836319246 -0.0072557728748750445 0.0 0.0 0.0 0.0 0.0 0.0 0 30.9375 32.3125 30.75 34.8125 37.0 37.25 0.578556 7 253 253 253 253 253 253 2 0.05746084079146385 0.07661445438861847 -9.787496566772461 0.0 0.7 0.0 47.762115478515625 47.77913284301758 0.6165663003921509 47.6995964050293 47.61359786987305 47.6279296875 47.599266052246094 47.570594787597656 47.498931884765625 768 1
7824.5109999999995 -1.6657969999999995 -1.73928 1.6485809999999999 -2.263236 -1.5036709999999998 -0.06727699999999981 0.0 0.0 0.0 0.0 0.0 0.0 0.0 0.0 0.0 0.0 0.0 0.0 0.852317103430937 -4.616198391226048 -1.9195945372490586 -0.44950977899848055 -1.2136653855205841e-05 0.0 9.79240282315134 -49.17703855056623 -21.820969462767966 -3.2685633493867434 -9.367269784972772e-05 0.0 -1.6659014860736292 -1.7391721210875453 1.6485279242144983 -2.2632438145079554 -1.5036619345294397 -0.0672839323626917 8.28409829409793e-05 -0.00010833993292180821 0.00016460609913337976 -0.00010026740346802399 -0.00031863315962255 0.0007382069015875459 1.3212052583694458 -4.931402206420898 -1.2126591205596924 -0.6619032025337219 -0.15187092125415802 0.20077098906040192 0.852317103430937 -4.616198391226048 -1.9195945372490586 -0.44950977899848055 -1.2136653855205841e-05 0.0 -0.09834712248223365 0.5774948771447724 0.5095006387385206 -2.356435703775759 -0.01547641189405842 -0.007293826839619447 2.795264883661484e-05 -4.9773218751184206e-05 -2.1808406867210006e-05 2.715902266869071e-05 0.0002929643399315822 -0.0006636123987897938 2.8677260186700213 -4.48445343629819 -0.678360195332125 0.1148602251519931 -0.08319584729472679 0.26086637534649026 -0.09840914659740613 0.5774426115021309 0.5095258382166512 -2.3563885441095627 -0.015588705836319246 -0.0072557728748750445 0.0 0.0 0.0 0.0 0.0 0.0 0 30.9375 32.3125 30.6875 34.8125 37.0 37.25 0.571009 7 253 253 253 253 253 253 2 0.07661445438861847 0.038307227194309235 -9.864110946655273 0.0 0.7 0.0 47.74061965942383 47.756744384765625 0.5919508934020996 47.670928955078125 47.584930419921875 47.61359786987305 47.570594787597656 47.51326370239258 47.48460006713867 768 1
7824.611 -1.6657969999999995 -1.73928 1.6485809999999999 -2.263236 -1.5036709999999998 -0.06727699999999981 0.0 0.0 0.0 0.0 0.0 0.0 0.0 0.0 0.0 0.0 0.0 0.0 0.8523624253023371 -4.615976103104176 -1.9195420141253796 -0.44950487967396224 -5.647635034152567e-06 0.0 9.792923533130832 -49.17467048259944 -21.82037240674616 -3.2685277244608675 -4.358937944767954e-05 0.0 -1.6658652464496058 -1.7391959629454554 1.64856464067568 -2.2632438145079554 -1.5036738554583948 -0.0672844091998499 0.0008007665746845305 -0.0006070605595596135 0.001662575639784336 -6.386308148975672e-10 -0.00010318818385712802 0.00012752845941577107 1.5189427137374878 -5.188523292541504 -1.141300916671753 -0.6598029732704163 -0.14343982934951782 0.16909737884998322 0.8523624253023371 -4.615976103104176 -1.9195420141253796 -0.44950487967396224 -5.647635034152567e-06 0.0 -0.09836609131110532 0.577480326109996 0.5094906283511225 -2.3564488975221614 -0.015513339156327846 -0.0072889024349000065 -0.000467211209452494 -0.00040888579013145484 -0.0007164519619528793 -0.0010562306028044696 0.00011733273625852249 0.000636489760098111 3.5492765773306463 -4.021484324115564 -0.3040149357978619 0.11399185016473105 -0.08005331480152265 0.2590455398192827 -0.09840914659740613 0.5774426115021309 0.5095258382166512 -2.3563885441095627 -0.015588705836319246 -0.0072557728748750445 0.0 0.0 0.0 0.0 0.0 0.0 0 30.9375 32.3125 30.6875 34.8125 37.0 37.25 0.571032 7 253 253 253 253 253 253 2 -0.13407528400421143 0.2106897532939911 -9.864110946655273 0.0 0.7 0.0 47.73883056640625 47.75763702392578 0.6232790946960449 47.670928955078125 47.584930419921875 47.599266052246094 47.584930419921875 47.51326370239258 47.48460006713867 768 1
7824.710999999999 -1.6657969999999995 -1.73928 1.6485809999999999 -2.263236 -1.5036709999999998 -0.06727699999999981 0.0 0.0 0.0 0.0 0.0 0.0 0.0 0.0 0.0 0.0 0.0 0.0 0.8524772469613967 -4.615669345393585 -1.9195208085800737 -0.44949551395385384 4.420388092433316e-06 0.0 9.794242736903476 -49.17140254771431 -21.820131352946735 -3.2684596226065423 3.411728497006043e-05 0.0 -1.6657937208758753 -1.7392322025694789 1.6485641638385218 -2.2632438145079554 -1.5036380926715296 -0.06729633012880498 0.00013409752864390612 -3.002403769204829e-19 2.256906736874953e-05 -8.137966363714636e-20 -1.7194366559789446e-39 5.027057454753958e-07 1.360737681388855 -5.108626365661621 -1.3043534755706787 -0.666799783706665 -0.11938527226448059 0.1596236675977707 0.8524772469613967 -4.615669345393585 -1.9195208085800737 -0.44949551395385384 4.420388092433316e-06 0.0 -0.09841751678719153 0.5774611538422889 0.50951176495177 -2.356409448908099 -0.015630477963940737 -0.007222081909350524 -7.757960668558242e-05 -1.4819343160732406e-05 -1.4373479392998733e-05 -2.246713534676778e-05 2.4950164823648447e-06 0.00013372484627601348 3.6274652261788645 -3.86527528409293 -0.24321393831007576 0.11429407618175946 -0.07673213199281079 0.25560823130596744 -0.09840914659740613 0.5774426115021309 0.5095258382166512 -2.3563885441095627 -0.015588705836319246 -0.0072557728748750445 0.0 0.0 0.0 0.0 0.0 0.0 0 30.9375 32.3125 30.6875 34.8125 37.0 37.25 0.576468 7 253 253 253 253 253 253 2 -0.15322890877723694 0.09576806426048279 -9.998186111450195 0.0 0.7 0.0 47.72808074951172 47.762115478515625 0.5807611346244812 47.65659713745117 47.584930419921875 47.599266052246094 47.5562629699707 47.54193115234375 47.498931884765625 768 1
7824.811 -1.6657969999999995 -1.73928 1.6485809999999999 -2.263236 -1.5036709999999998 -0.06727699999999981 0.0 0.0 0.0 0.0 0.0 0.0 0.0 0.0 0.0 0.0 0.0 0.0 0.8524581041205314 -4.615729476720807 -1.9195398230464067 -0.4495002511912255 1.2394954421141251e-06 0.0 9.794022801848579 -49.172043135563065 -21.820347499680405 -3.2684940689326822 9.566630425524475e-06 0.0 -1.6657937208758753 -1.739267965356344 1.648588005696432 -2.2632318935790003 -1.5036738554583948 -0.06729633012880498 4.684711166191846e-05 0.0 1.0013702194555663e-05 -0.0 -0.0 0.0 1.3436897993087769 -5.103760719299316 -1.319206953048706 -0.6593145728111267 -0.1117226630449295 0.15491001307964325 0.8524581041205314 -4.615729476720807 -1.9195398230464067 -0.4495002511912255 1.2394954421141251e-06 0.0 -0.09841000929851965 0.5774454759700589 0.5095135300572705 -2.35641160945292 -0.015613023429152145 -0.0072642710929964275 -2.711531525715009e-05 -5.329759381516496e-06 -6.377390790050147e-06 -9.968597014009059e-06 9.493405501578605e-07 4.683951341445284e-05 3.579353870380664 -4.152784203752217 -0.5317559183696163 0.10739390183015397 -0.0645915857986416 0.26637317821238227 -0.09840914659740613 0.5774426115021309 0.5095258382166512 -2.3563885441095627 -0.015588705836319246 -0.0072557728748750445 0.0 0.0 0.0 0.0 0.0 0.0 0 30.9375 32.3125 30.75 34.8125 37.0 37.25 0.578365 7 253 253 253 253 253 253 2 0.1149216815829277 0.09576806426048279 -10.113107681274414 0.0 0.7 0.0 47.733455657958984 47.754947662353516 0.6232790946960449 47.6279296875 47.584930419921875 47.584930419921875 47.570594787597656 47.51326370239258 47.498931884765625 768 1
7824.911 -1.6657969999999995 -1.73928 1.6485809999999999 -2.263236 -1.5036709999999998 -0.06727699999999981 0.0 0.0 0.0 0.0 0.0 0.0 0.0 0.0 0.0 0.0 0.0 0.0 0.8524000018132004 -4.615757267803758 -1.9196196922558801 -0.4495241539486885 -6.975422966545362e-06 0.0 9.793355255467016 -49.17233919804605 -21.821255412027057 -3.268667875333884 -5.383746588760013e-05 0.0 -1.6657937208758753 -1.7392798862852992 1.6486004034625452 -2.2632438145079554 -1.5036738554583948 -0.0672844091998499 0.0 0.0 -0.0 -0.0 -0.0 0.0 1.33749520778656 -5.042026996612549 -1.3061420917510986 -0.6524865627288818 -0.09379445016384125 0.15140756964683533 0.8524000018132004 -4.615757267803758 -1.9196196922558801 -0.4495241539486885 -6.975422966545362e-06 0.0 -0.09841038254437845 0.5774417396281538 0.5095153177939297 -2.356400285440421 -0.01559946898107829 -0.007259707316471694 0.0 0.0 0.0 0.0 0.0 0.0 3.3187948037923136 -4.1555561594892545 -0.5424256715024189 0.10776052583821649 -0.07847674597551332 0.25585739484134995 -0.09840914659740613 0.5774426115021309 0.5095258382166512 -2.3563885441095627 -0.015588705836319246 -0.0072557728748750445 0.0 0.0 0.0 0.0 0.0 0.0 0 30.9375 32.3125 30.75 34.8125 37.0 37.25 0.582336 7 253 253 253 253 253 253 2 -0.2106897532939911 0.038307227194309235 -9.998186111450195 0.0 0.7 0.0 47.704795837402344 47.744205474853516 0.5829969644546509 47.65659713745117 47.584930419921875 47.584930419921875 47.5562629699707 47.4559326171875 47.4559326171875 768 1
7825.0109999999995 -1.6657969999999995 -1.73928 1.6485809999999999 -2.263236 -1.5036709999999998 -0.06727699999999981 0.0 0.0 0.0 0.0 0.0 0.0 0.0 0.0 0.0 0.0 0.0 0.0 0.8523922084188646 -4.615763766861156 -1.9195851483228064 -0.44949537816141405 -1.599279899113351e-05 0.0 9.793265715955972 -49.172408433457775 -21.820862734253655 -3.2684586352060174 -0.00012343506254199516 0.0 -1.6658175627337855 -1.7393042049803675 1.648552719746725 -2.263219495812887 -1.503686253224508 -0.06726056734193975 0.0 0.0 -0.0 -0.0 -0.0 0.0 1.3554996252059937 -5.083505153656006 -1.353811502456665 -0.648156464099884 -0.10381118953227997 0.14255841076374054 0.8523922084188646 -4.615763766861156 -1.9195851483228064 -0.44949537816141405 -1.599279899113351e-05 0.0 -0.09839421442778408 0.5774364008137471 0.5095533229022873 -2.356353946191526 -0.015539070210957694 -0.007280108376457818 0.0 0.0 0.0 0.0 0.0 0.0 3.2320378017660056 -4.21791312668726 -0.4930084783609867 0.10356186661596105 -0.07597792128276633 0.2606941670238167 -0.09840914659740613 0.5774426115021309 0.5095258382166512 -2.3563885441095627 -0.015588705836319246 -0.0072557728748750445 0.0 0.0 0.0 0.0 0.0 0.0 0 30.9375 32.3125 30.75 34.75 37.0 37.25 0.575232 7 253 253 253 253 253 253 2 -0.019153613597154617 0.05746084079146385 -10.036493301391602 0.0 0.7 0.0 47.705692291259766 47.733455657958984 0.6008995771408081 47.6279296875 47.570594787597656 47.584930419921875 47.570594787597656 47.498931884765625 47.47026824951172 768 1
7825.111 -1.6657969999999995 -1.73928 1.6485809999999999 -2.263236 -1.5036709999999998 -0.06727699999999981 0.0 0.0 0.0 0.0 0.0 0.0 0.0 0.0 0.0 0.0 0.0 0.0 0.852459235785738 -4.615686936246179 -1.9195405904606837 -0.44950044175430376 -3.269184318835467e-06 0.0 9.7940358037249 -49.17158994564716 -21.82035622325363 -3.2684954545921774 -2.5232104216434278e-05 0.0 -1.6658294836627405 -1.739267965356344 1.648588005696432 -2.2632438145079554 -1.5036619345294397 -0.06732017198671514 0.0 0.0 -0.0 -0.0 -0.0 0.0 1.3395756483078003 -5.082683563232422 -1.3693053722381592 -0.6433958411216736 -0.1018955409526825 0.14142310619354248 0.852459235785738 -4.615686936246179 -1.9195405904606837 -0.44950044175430376 -3.269184318835467e-06 0.0 -0.09839223809445088 0.5774503808732517 0.5095165834268757 -2.356399205550368 -0.015605293032130525 -0.0072806275857317335 0.0 0.0 0.0 0.0 0.0 0.0 3.4510903094141456 -4.2806389715183055 -0.7065768635852436 0.11161103284372474 -0.07821974234448233 0.25967659559162 -0.09840914659740613 0.5774426115021309 0.5095258382166512 -2.3563885441095627 -0.015588705836319246 -0.0072557728748750445 0.0 0.0 0.0 0.0 0.0 0.0 0 30.9375 32.3125 30.75 34.75 37.0 37.25 0.580668 7 253 253 253 253 253 253 2 -0.17238251864910126 0.13407529890537262 -10.036493301391602 0.0 0.7 0.0 47.744205474853516 47.744205474853516 0.5829969644546509 47.65659713745117 47.584930419921875 47.61359786987305 47.5562629699707 47.498931884765625 47.48460006713867 768 1
7825.210999999999 -1.6657969999999995 -1.73928 1.6485809999999999 -2.263236 -1.5036709999999998 -0.06727699999999981 0.0 0.0 0.0 0.0 0.0 0.0 0.0 0.0 0.0 0.0 0.0 0.0 0.852456499634092 -4.615794962106361 -1.919601193277584 -0.44951949866541135 -3.269171488271586e-06 0.0 9.794004367656099 -49.17274076098055 -21.821045125097886 -3.2686340249283723 -2.5232005188024305e-05 0.0 -1.6657937208758753 -1.7393042049803675 1.6485641638385218 -2.263219495812887 -1.5037100950824183 -0.06727248827089483 0.0 0.0 -0.0 -0.0 -0.0 0.0 1.3234068155288696 -5.086185455322266 -1.4322335720062256 -0.6224591135978699 -0.08526171743869781 0.1385469287633896 0.852456499634092 -4.615794962106361 -1.919601193277584 -0.44951949866541135 -3.269171488271586e-06 0.0 -0.09840209922500842 0.5774330031912578 0.5095458106396288 -2.356366477062225 -0.015569158450123424 -0.007300996925616181 0.0 0.0 0.0 0.0 0.0 0.0 3.51755741145759 -4.0744946622983695 -0.4424549364952679 0.10513980102149625 -0.0718565915305722 0.26081879636901295 -0.09840914659740613 0.5774426115021309 0.5095258382166512 -2.3563885441095627 -0.015588705836319246 -0.0072557728748750445 0.0 0.0 0.0 0.0 0.0 0.0 0 30.9375 32.3125 30.75 34.75 37.0 37.25 0.576301 7 253 253 253 253 253 253 2 0.0 0.09576806426048279 -9.979032516479492 0.0 0.7 0.0 47.74061965942383 47.74778747558594 0.5964226126670837 47.64226531982422 47.584930419921875 47.584930419921875 47.570594787597656 47.51326370239258 47.47026824951172 768 1
7825.311 -1.6657969999999995 -1.73928 1.6485809999999999 -2.263236 -1.5036709999999998 -0.06727699999999981 0.0 0.0 0.0 0.0 0.0 0.0 0.0 0.0 0.0 0.0 0.0 0.0 0.852420733320399 -4.6157776574472855 -1.9195509359545766 -0.44949085861899585 -9.631016556965519e-06 0.0 9.793593442954752 -49.172556411909234 -21.82047382553991 -3.268425771825966 -7.433377557681487e-05 0.0 -1.6658056418048304 -1.739244123498434 1.648588005696432 -2.2632438145079554 -1.503686253224508 -0.06732017198671514 0.0 0.0 -0.0 -0.0 -0.0 0.0 1.3359991312026978 -5.073155403137207 -1.4004653692245483 -0.6272574067115784 -0.08874574303627014 0.1365797221660614 0.852420733320399 -4.6157776574472855 -1.9195509359545766 -0.44949085861899585 -9.631016556965519e-06 0.0 -0.09839914736077346 0.5774560334565285 0.5095028705950366 -2.3564241809082644 -0.015620629757405913 -0.007294793742438797 0.0 0.0 0.0 0.0 0.0 0.0 3.4342246209346317 -4.202469308542862 -0.5957651906314889 0.10960496389618704 -0.07880964229148507 0.2586300666465092 -0.09840914659740613 0.5774426115021309 0.5095258382166512 -2.3563885441095627 -0.015588705836319246 -0.0072557728748750445 0.0 0.0 0.0 0.0 0.0 0.0 0 30.9375 32.3125 30.75 34.8125 37.0 37.25 0.572484 7 253 253 253 253 253 253 2 -0.09576806426048279 0.019153613597154617 -10.017339706420898 0.0 0.7 0.0 47.74061965942383 47.744205474853516 0.6277561187744141 47.65659713745117 47.599266052246094 47.599266052246094 47.599266052246094 47.5275993347168 47.4559326171875 768 1
7825.411 -1.6657969999999995 -1.73928 1.6485809999999999 -2.263236 -1.5036709999999998 -0.06727699999999981 0.0 0.0 0.0 0.0 0.0 0.0 0.0 0.0 0.0 0.0 0.0 0.0 0.8524254095363376 -4.615738385934597 -1.9195954011491332 -0.449509915992063 -1.4320003710270654e-05 0.0 9.793647168721808 -49.17213804672434 -21.820979283142414 -3.2685643455212516 -0.00011052415243628223 0.0 -1.6658294836627405 -1.739267965356344 1.6485756079303187 -2.2632318935790003 -1.5036738554583948 -0.0672844091998499 0.0 0.0 -0.0 -0.0 -0.0 0.0 1.3498317003250122 -5.0759406089782715 -1.453812599182129 -0.636384904384613 -0.07979601621627808 0.1325296312570572 0.8524254095363376 -4.615738385934597 -1.9195954011491332 -0.449509915992063 -1.4320003710270654e-05 0.0 -0.0983892793294998 0.5774498858070595 0.5095214257838862 -2.356399676762357 -0.015557340536667835 -0.007277359664514951 0.0 0.0 0.0 0.0 0.0 0.0 3.1228008643123903 -4.093619414803022 -0.57207129911815 0.10452578929851603 -0.07982363934152642 0.2509328437408127 -0.09840914659740613 0.5774426115021309 0.5095258382166512 -2.3563885441095627 -0.015588705836319246 -0.0072557728748750445 0.0 0.0 0.0 0.0 0.0 0.0 0 30.9375 32.3125 30.75 34.8125 37.0 37.25 0.578532 7 253 253 253 253 253 253 2 -0.05746084079146385 0.13407529890537262 -9.940725326538086 0.0 0.7 0.0 47.73524856567383 47.75763702392578 0.6322330832481384 47.670928955078125 47.61359786987305 47.6279296875 47.599266052246094 47.5275993347168 47.498931884765625 3840 1
