sagilar/Flex-cell_RoboSim/tests/runtimeFMUs/(NORMQ)mappingFMU_URInterface_UR5e5027595015760366108/resources/mapping_urinterface.csv
timestamp target_q_0 target_q_1 target_q_2 target_q_3 target_q_4 target_q_5 target_qd_0 target_qd_1 target_qd_2 target_qd_3 target_qd_4 target_qd_5 target_qdd_0 target_qdd_1 target_qdd_2 target_qdd_3 target_qdd_4 target_qdd_5 target_current_0 target_current_1 target_current_2 target_current_3 target_current_4 target_current_5 target_moment_0 target_moment_1 target_moment_2 target_moment_3 target_moment_4 target_moment_5 actual_q_0 actual_q_1 actual_q_2 actual_q_3 actual_q_4 actual_q_5 actual_qd_0 actual_qd_1 actual_qd_2 actual_qd_3 actual_qd_4 actual_qd_5 actual_current_0 actual_current_1 actual_current_2 actual_current_3 actual_current_4 actual_current_5 joint_control_output_0 joint_control_output_1 joint_control_output_2 joint_control_output_3 joint_control_output_4 joint_control_output_5 actual_TCP_pose_0 actual_TCP_pose_1 actual_TCP_pose_2 actual_TCP_pose_3 actual_TCP_pose_4 actual_TCP_pose_5 actual_TCP_speed_0 actual_TCP_speed_1 actual_TCP_speed_2 actual_TCP_speed_3 actual_TCP_speed_4 actual_TCP_speed_5 actual_TCP_force_0 actual_TCP_force_1 actual_TCP_force_2 actual_TCP_force_3 actual_TCP_force_4 actual_TCP_force_5 target_TCP_pose_0 target_TCP_pose_1 target_TCP_pose_2 target_TCP_pose_3 target_TCP_pose_4 target_TCP_pose_5 target_TCP_speed_0 target_TCP_speed_1 target_TCP_speed_2 target_TCP_speed_3 target_TCP_speed_4 target_TCP_speed_5 actual_digital_input_bits joint_temperatures_0 joint_temperatures_1 joint_temperatures_2 joint_temperatures_3 joint_temperatures_4 joint_temperatures_5 actual_execution_time robot_mode joint_mode_0 joint_mode_1 joint_mode_2 joint_mode_3 joint_mode_4 joint_mode_5 safety_mode actual_tool_accelerometer_0 actual_tool_accelerometer_1 actual_tool_accelerometer_2 speed_scaling target_speed_fraction actual_momentum actual_main_voltage actual_robot_voltage actual_robot_current actual_joint_voltage_0 actual_joint_voltage_1 actual_joint_voltage_2 actual_joint_voltage_3 actual_joint_voltage_4 actual_joint_voltage_5 actual_digital_output_bits runtime_state
8041.2029999999995 -2.5847040000000003 -1.3422660000000004 1.3616509999999997 -2.0764069999999997 -0.9269629999999998 -0.8488470000000001 0.0 0.0 0.0 0.0 0.0 0.0 0.0 0.0 0.0 0.0 0.0 0.0 -1.4661927672297195 -4.171938920990774 -1.7175451938030102 -0.3603376526663411 1.3393839217832637e-05 0.0 -16.845315124276123 -44.44427725162831 -19.524175807777215 -2.620157558159005 0.00010337586200184097 0.0 -2.5847166220294397 -1.3422683042338868 1.3616474310504358 -2.076383729974264 -0.9269626776324671 -0.8488829771624964 0.0 0.0 -0.0 -0.0 -0.0 -0.0 -1.3306337594985962 -4.522335529327393 -2.015165090560913 -0.3081621825695038 -0.02515639364719391 0.049311328679323196 -1.4661927672297195 -4.171938920990774 -1.7175451938030102 -0.3603376526663411 1.3393839217832637e-05 0.0 0.4158023870771147 0.5957381054919569 0.4366353226447631 -2.362406466297575 -0.014795010537496153 -0.0001768424128130029 0.0 0.0 0.0 0.0 0.0 0.0 4.072923082021597 -4.934357470974193 0.07696663260828407 0.12551918942412468 -0.06333336153248739 0.10549275556334405 0.415797601814085 0.5957450246880538 0.43663590913558453 -2.3623976153453077 -0.014774556886481166 -0.00017089876894282188 0.0 0.0 0.0 0.0 0.0 0.0 0 31.0625 32.4375 30.8125 34.875 37.0625 37.375 0.592608 7 253 253 253 253 253 253 2 -0.17238251864910126 0.09576806426048279 -9.864110946655273 0.0 0.7 0.0 47.74688720703125 47.77196502685547 0.5516634583473206 47.670928955078125 47.61359786987305 47.6279296875 47.61359786987305 47.5562629699707 47.498931884765625 3840 1
8041.303 -2.5847040000000003 -1.3422660000000004 1.3616509999999997 -2.0764069999999997 -0.9269629999999998 -0.8488470000000001 0.0 0.0 0.0 0.0 0.0 0.0 0.0 0.0 0.0 0.0 0.0 0.0 -1.4663300761629192 -4.171835508554842 -1.7174763569934857 -0.3603208491392128 -6.537278974505335e-06 0.0 -16.846892687814034 -44.44317558378013 -19.523393306113764 -2.620035373068762 -5.0455798232685955e-05 0.0 -2.58476430574526 -1.3422683042338868 1.3616836706744593 -2.076395650903219 -0.9269745985614222 -0.848846737538473 0.0 0.0 -0.0 -0.0 -0.0 -0.0 -1.3269381523132324 -4.512665748596191 -2.0559561252593994 -0.30609625577926636 -0.022932004183530807 0.05169117823243141 -1.4663300761629192 -4.171835508554842 -1.7174763569934857 -0.3603208491392128 -6.537278974505335e-06 0.0 0.41582980728298 0.5957148558871579 0.43661519687981976 -2.36242874586802 -0.014682155941746128 -0.000167234676579502 0.0 0.0 0.0 0.0 0.0 0.0 4.1390625909987895 -4.995254995579241 -0.04987245928504391 0.1293552823679648 -0.061076832814737476 0.1000658096213924 0.415797601814085 0.5957450246880538 0.43663590913558453 -2.3623976153453077 -0.014774556886481166 -0.00017089876894282188 0.0 0.0 0.0 0.0 0.0 0.0 0 31.0625 32.4375 30.8125 34.875 37.0625 37.375 0.587988 7 253 253 253 253 253 253 2 -0.1149216741323471 0.19153612852096558 -9.940725326538086 0.0 0.7 0.0 47.756744384765625 47.78718948364258 0.6210432648658752 47.670928955078125 47.61359786987305 47.599266052246094 47.6279296875 47.5562629699707 47.498931884765625 3840 1
8041.402999999999 -2.5847040000000003 -1.3422660000000004 1.3616509999999997 -2.0764069999999997 -0.9269629999999998 -0.8488470000000001 0.0 0.0 0.0 0.0 0.0 0.0 0.0 0.0 0.0 0.0 0.0 0.0 -1.4663319105602368 -4.1718815787384065 -1.7175195320896048 -0.3603269720786337 -6.537145192751066e-06 0.0 -16.846913763488097 -44.443666376203055 -19.523884098536687 -2.6200798953824394 -5.0454765683023185e-05 0.0 -2.5847166220294397 -1.3422562640956421 1.361671272908346 -2.0764080486693324 -0.9269269148456019 -0.848846737538473 0.0 0.0 -0.0 -0.0 -0.0 -0.0 -1.3377827405929565 -4.50946044921875 -2.024771213531494 -0.3036121428012848 -0.005070457700639963 0.06394872069358826 -1.4663319105602368 -4.1718815787384065 -1.7175195320896048 -0.3603269720786337 -6.537145192751066e-06 0.0 0.41579906101234626 0.595744510502809 0.43662273884271574 -2.362385937482065 -0.01475890660129937 -0.00011936492656217794 0.0 0.0 0.0 0.0 0.0 0.0 4.237925336616784 -4.817751368234193 0.050170357150304934 0.12354694438252457 -0.06071241926183579 0.10284026881711208 0.415797601814085 0.5957450246880538 0.43663590913558453 -2.3623976153453077 -0.014774556886481166 -0.00017089876894282188 0.0 0.0 0.0 0.0 0.0 0.0 0 31.0625 32.4375 30.8125 34.875 37.0625 37.375 0.598597 7 253 253 253 253 253 253 2 -0.038307227194309235 0.1149216815829277 -9.940725326538086 0.0 0.7 0.0 47.76032257080078 47.78718948364258 0.5964226126670837 47.68526077270508 47.6279296875 47.65659713745117 47.599266052246094 47.570594787597656 47.54193115234375 3840 1
8041.503 -2.5847040000000003 -1.3422660000000004 1.3616509999999997 -2.0764069999999997 -0.9269629999999998 -0.8488470000000001 0.0 0.0 0.0 0.0 0.0 0.0 0.0 0.0 0.0 0.0 0.0 0.0 -1.4663577596627426 -4.1718345723889465 -1.717445368252151 -0.3603024788293322 -1.1046979762937179e-05 0.0 -16.847210747818618 -44.44316561066752 -19.523041041942747 -2.619901795281586 -8.526241333329356e-05 0.0 -2.58474046388735 -1.3422562640956421 1.3617189566241663 -2.0764318905272425 -0.9269984404193323 -0.8488228956805628 0.0 0.0 -0.0 -0.0 -0.0 -0.0 -1.3395236730575562 -4.547078609466553 -2.070396661758423 -0.32778796553611755 -0.00983456987887621 0.05665307864546776 -1.4663577596627426 -4.1718345723889465 -1.717445368252151 -0.3603024788293322 -1.1046979762937179e-05 0.0 0.41582220813813825 0.5957233095827946 0.43659040893239526 -2.3624522461744686 -0.014670186281150613 -0.000151499443962156 0.0 0.0 0.0 0.0 0.0 0.0 4.069141468232129 -4.747652817527997 -0.0012639007825070436 0.12208967274641304 -0.06570145722999818 0.10191296321273133 0.415797601814085 0.5957450246880538 0.43663590913558453 -2.3623976153453077 -0.014774556886481166 -0.00017089876894282188 0.0 0.0 0.0 0.0 0.0 0.0 0 31.0625 32.4375 30.8125 34.875 37.0625 37.375 0.58794 7 253 253 253 253 253 253 2 -0.13407529890537262 0.15322890877723694 -9.998186111450195 0.0 0.7 0.0 47.775550842285156 47.796146392822266 0.5650944113731384 47.6995964050293 47.64226531982422 47.65659713745117 47.64226531982422 47.599266052246094 47.5275993347168 3840 1
8041.603 -2.5847040000000003 -1.3422660000000004 1.3616509999999997 -2.0764069999999997 -0.9269629999999998 -0.8488470000000001 0.0 0.0 0.0 0.0 0.0 0.0 0.0 0.0 0.0 0.0 0.0 0.0 -1.4663509685375322 -4.171756420159512 -1.7174909431112817 -0.3603125005543777 -6.242399325164847e-06 0.0 -16.847132723532333 -44.44233304350424 -19.523559113644904 -2.6199746672072077 -4.8179868423345876e-05 0.0 -2.584728542958395 -1.3422323030284424 1.361706558858053 -2.0764318905272425 -0.9269865194903772 -0.8488710562335413 0.0 0.0 -0.0 -0.0 -0.0 -0.0 -1.3400543928146362 -4.487451553344727 -2.0382449626922607 -0.31792983412742615 -0.014144863933324814 0.057276222854852676 -1.4663509685375322 -4.171756420159512 -1.7174909431112817 -0.3603125005543777 -6.242399325164847e-06 0.0 0.41582015419606855 0.5957342293870853 0.4365830560801557 -2.3624489615931314 -0.014740208166337436 -0.00014805035329688564 0.0 0.0 0.0 0.0 0.0 0.0 4.207398986144574 -4.842771352239716 0.094495345110849 0.1234842566222153 -0.06054710733252937 0.10466363356208055 0.415797601814085 0.5957450246880538 0.43663590913558453 -2.3623976153453077 -0.014774556886481166 -0.00017089876894282188 0.0 0.0 0.0 0.0 0.0 0.0 0 31.0625 32.4375 30.8125 34.875 37.0625 37.375 0.598776 7 253 253 253 253 253 253 2 -0.07661445438861847 0.2106897532939911 -10.036493301391602 0.0 0.7 0.0 47.77196502685547 47.788089752197266 0.5606174468994141 47.670928955078125 47.64226531982422 47.6279296875 47.61359786987305 47.584930419921875 47.5275993347168 3840 1
8041.7029999999995 -2.5847040000000003 -1.3422660000000004 1.3616509999999997 -2.0764069999999997 -0.9269629999999998 -0.8488470000000001 0.0 0.0 0.0 0.0 0.0 0.0 0.0 0.0 0.0 0.0 0.0 0.0 -1.4661845046634085 -4.171758018429335 -1.7175552015007165 -0.3603362478235151 6.9889013994300266e-06 0.0 -16.845220194375806 -44.4423500701071 -19.52428957016912 -2.6201473429913102 5.394149465748644e-05 0.0 -2.5847166220294397 -1.3422323030284424 1.3616474310504358 -2.0764080486693324 -0.9269745985614222 -0.8488591353045862 0.0 0.0 -0.0 -0.0 -0.0 -0.0 -1.339674949645996 -4.490773677825928 -2.0686864852905273 -0.308278888463974 -0.016661733388900757 0.0508011095225811 -1.4661845046634085 -4.171758018429335 -1.7175552015007165 -0.3603362478235151 6.9889013994300266e-06 0.0 0.41581543761478607 0.5957434673086703 0.43661411109766235 -2.3624215849140175 -0.014758389159014194 -0.00016274640222230252 0.0 0.0 0.0 0.0 0.0 0.0 4.1488876407854445 -5.102285561288253 -0.014321921698304152 0.12879852702590244 -0.06386422131581024 0.10253978171247631 0.415797601814085 0.5957450246880538 0.43663590913558453 -2.3623976153453077 -0.014774556886481166 -0.00017089876894282188 0.0 0.0 0.0 0.0 0.0 0.0 0 31.0625 32.4375 30.75 34.875 37.0625 37.375 0.589285 7 253 253 253 253 253 253 2 -0.07661445438861847 0.17238251864910126 -9.998186111450195 0.0 0.7 0.0 47.77644348144531 47.79793930053711 0.5919508934020996 47.6995964050293 47.64226531982422 47.65659713745117 47.6279296875 47.584930419921875 47.54193115234375 3840 1
8041.803 -2.5847040000000003 -1.3422660000000004 1.3616509999999997 -2.0764069999999997 -0.9269629999999998 -0.8488470000000001 0.0 0.0 0.0 0.0 0.0 0.0 0.0 0.0 0.0 0.0 0.0 0.0 -1.4663559502548773 -4.171812963449147 -1.71748437430037 -0.36031819022263833 -8.644131354117198e-06 0.0 -16.84718995925223 -44.442935407462315 -19.523484442760232 -2.6200160390349536 -6.671683267627022e-05 0.0 -2.5847166220294397 -1.3422562640956421 1.3616588751422327 -2.0764194927611292 -0.9269626776324671 -0.8488228956805628 0.0 0.0 -0.0 -0.0 -0.0 -0.0 -1.3201359510421753 -4.544814109802246 -2.0258629322052 -0.3000650107860565 -0.006244269665330648 0.06410235166549683 -1.4663559502548773 -4.171812963449147 -1.71748437430037 -0.36031819022263833 -8.644131354117198e-06 0.0 0.4158077765743274 0.5957415268655397 0.4366272056375377 -2.3624002764888603 -0.01472923169049751 -0.00015985230147995815 0.0 0.0 0.0 0.0 0.0 0.0 4.114708372065329 -5.118857233400426 -0.029870874752744747 0.13211414878377412 -0.06317202403727608 0.10280199396326092 0.415797601814085 0.5957450246880538 0.43663590913558453 -2.3623976153453077 -0.014774556886481166 -0.00017089876894282188 0.0 0.0 0.0 0.0 0.0 0.0 0 31.0 32.4375 30.75 34.875 37.0625 37.375 0.589164 7 253 253 253 253 253 253 2 -0.15322890877723694 0.15322890877723694 -9.979032516479492 0.0 0.7 0.0 47.75226593017578 47.780025482177734 0.5628532767295837 47.65659713745117 47.61359786987305 47.6279296875 47.61359786987305 47.5562629699707 47.51326370239258 3840 1
8041.902999999999 -2.5847040000000003 -1.3422660000000004 1.3616509999999997 -2.0764069999999997 -0.9269629999999998 -0.8488470000000001 0.0 0.0 0.0 0.0 0.0 0.0 0.0 0.0 0.0 0.0 0.0 0.0 -1.4662994454959508 -4.171801764062961 -1.717534403721234 -0.36033365025342445 -4.135263038610964e-06 0.0 -16.846540767350994 -44.44281609875858 -19.524053151643137 -2.620128455032044 -3.191664273911864e-05 0.0 -2.5847166220294397 -1.3422323030284424 1.361706558858053 -2.076395650903219 -0.926950756703512 -0.8488352934466761 0.0 0.0 -0.0 -0.0 -0.0 -0.0 -1.3641332387924194 -4.535669326782227 -2.0289647579193115 -0.314942330121994 -0.0098782479763031 0.057763729244470596 -1.4662994454959508 -4.171801764062961 -1.717534403721234 -0.36033365025342445 -4.135263038610964e-06 0.0 0.4158030706488962 0.5957413386133306 0.436581193332786 -2.3624416093827203 -0.01470837047839069 -6.054190194357102e-05 0.0 0.0 0.0 0.0 0.0 0.0 4.475340321396279 -5.195131577580689 0.004157488289202593 0.13359540004151996 -0.060338666256207846 0.10944254978069676 0.415797601814085 0.5957450246880538 0.43663590913558453 -2.3623976153453077 -0.014774556886481166 -0.00017089876894282188 0.0 0.0 0.0 0.0 0.0 0.0 0 31.0 32.4375 30.8125 34.875 37.0625 37.375 0.579696 7 253 253 253 253 253 253 2 -0.15322890877723694 0.17238251864910126 -9.940725326538086 0.0 0.7 0.0 47.7191276550293 47.74151611328125 0.5695713758468628 47.6279296875 47.599266052246094 47.599266052246094 47.61359786987305 47.51326370239258 47.48460006713867 3840 1
8042.003 -2.5847040000000003 -1.3422660000000004 1.3616509999999997 -2.0764069999999997 -0.9269629999999998 -0.8488470000000001 0.0 0.0 0.0 0.0 0.0 0.0 0.0 0.0 0.0 0.0 0.0 0.0 -1.4662736654251314 -4.171893397274019 -1.7174711514633305 -0.36031365510649094 6.777627115406553e-06 0.0 -16.84624457613618 -44.44379228079644 -19.523334132307866 -2.619983062412159 5.2310844858385555e-05 0.0 -2.5847047011004847 -1.3422562640956421 1.3616474310504358 -2.0764194927611292 -0.9269745985614222 -0.848846737538473 0.0 0.0 -0.0 -0.0 -0.0 -0.0 -1.299416184425354 -4.511402606964111 -2.0451598167419434 -0.31553417444229126 0.0068503753282129765 0.06431619822978973 -1.4662736654251314 -4.171893397274019 -1.7174711514633305 -0.36031365510649094 6.777627115406553e-06 0.0 0.4158040257576525 0.595745762795181 0.4366321847992349 -2.36240291204162 -0.014772391457643402 -0.00018652275304098878 0.0 0.0 0.0 0.0 0.0 0.0 4.214361489426631 -4.840773100664601 0.0547617052440903 0.12411377429104124 -0.06201974503946723 0.10165912182700157 0.415797601814085 0.5957450246880538 0.43663590913558453 -2.3623976153453077 -0.014774556886481166 -0.00017089876894282188 0.0 0.0 0.0 0.0 0.0 0.0 0 31.0 32.4375 30.8125 34.875 37.0625 37.375 0.595224 7 253 253 253 253 253 253 2 -0.15322890877723694 0.13407529890537262 -9.90241813659668 0.0 0.7 0.0 47.734352111816406 47.74778747558594 0.5919508934020996 47.64226531982422 47.61359786987305 47.599266052246094 47.570594787597656 47.5275993347168 47.47026824951172 3840 1
8042.103 -2.5847040000000003 -1.3422660000000004 1.3616509999999997 -2.0764069999999997 -0.9269629999999998 -0.8488470000000001 0.0 0.0 0.0 0.0 0.0 0.0 0.0 0.0 0.0 0.0 0.0 0.0 -1.466244693097302 -4.171810419477174 -1.7175437828673652 -0.3603332784792967 -2.028435119690138e-06 0.0 -16.8459117085876 -44.442908306155736 -19.52415976898203 -2.620125751715353 -1.5655797087185523e-05 0.0 -2.5847047011004847 -1.342244343166687 1.3616951147662562 -2.0764194927611292 -0.9269626776324671 -0.8488829771624964 0.0 0.0 -0.0 -0.0 -0.0 -0.0 -1.3047372102737427 -4.539400577545166 -2.0090579986572266 -0.3061215281486511 -0.008823149837553501 0.06667770445346832 -1.466244693097302 -4.171810419477174 -1.7175437828673652 -0.3603332784792967 -2.028435119690138e-06 0.0 0.4157991509457985 0.5957455165853004 0.4365985254049897 -2.362425083487219 -0.014794512533751405 -0.0001347481852795872 0.0 0.0 0.0 0.0 0.0 0.0 4.113612651857466 -4.99335643388096 0.030950580114061932 0.129778515307684 -0.06658219923236804 0.10251236504597849 0.415797601814085 0.5957450246880538 0.43663590913558453 -2.3623976153453077 -0.014774556886481166 -0.00017089876894282188 0.0 0.0 0.0 0.0 0.0 0.0 0 31.0 32.4375 30.8125 34.875 37.0625 37.375 0.581629 7 253 253 253 253 253 253 2 -0.19153612852096558 0.19153612852096558 -9.883264541625977 0.0 0.7 0.0 47.77375411987305 47.78450393676758 0.5762841701507568 47.68526077270508 47.6279296875 47.6279296875 47.64226531982422 47.5562629699707 47.48460006713867 3840 1
8042.2029999999995 -2.5847040000000003 -1.3422660000000004 1.3616509999999997 -2.0764069999999997 -0.9269629999999998 -0.8488470000000001 0.0 0.0 0.0 0.0 0.0 0.0 0.0 0.0 0.0 0.0 0.0 0.0 -1.4662754624639325 -4.171880181258815 -1.7175194897385895 -0.3603266002654783 7.835211182397027e-08 0.0 -16.846265222592475 -44.44365148864799 -19.523883617111995 -2.6200771917819634 6.047345326262802e-07 0.0 -2.5847166220294397 -1.3422802251628418 1.3617189566241663 -2.076395650903219 -0.9269626776324671 -0.8488591353045862 0.0 0.0 -0.0 -0.0 -0.0 -0.0 -1.2896660566329956 -4.536231517791748 -2.0501644611358643 -0.3080551326274872 0.002334371441975236 0.05962641164660454 -1.4662754624639325 -4.171880181258815 -1.7175194897385895 -0.3603266002654783 7.835211182397027e-08 0.0 0.41579245087452965 0.5957319057870126 0.4366045496599437 -2.362431679019125 -0.014747303445655153 -0.00011724696196008972 0.0 0.0 0.0 0.0 0.0 0.0 4.2236388615971405 -4.911315990739087 0.02820143986069379 0.12751762971385558 -0.06314298897693543 0.10258529270602734 0.415797601814085 0.5957450246880538 0.43663590913558453 -2.3623976153453077 -0.014774556886481166 -0.00017089876894282188 0.0 0.0 0.0 0.0 0.0 0.0 0 31.0 32.4375 30.8125 34.875 37.0625 37.375 0.586764 7 253 253 253 253 253 253 2 -0.1149216815829277 0.19153612852096558 -10.017339706420898 0.0 0.7 0.0 47.76032257080078 47.78181838989258 0.6210432648658752 47.6995964050293 47.64226531982422 47.6279296875 47.61359786987305 47.54193115234375 47.51326370239258 3840 1
8042.303 -2.5847040000000003 -1.3422660000000004 1.3616509999999997 -2.0764069999999997 -0.9269629999999998 -0.8488470000000001 0.0 0.0 0.0 0.0 0.0 0.0 0.0 0.0 0.0 0.0 0.0 0.0 -1.4662772991731057 -4.171933594625175 -1.7175088227805615 -0.3603259012720388 2.2694574437619594e-06 0.0 -16.84628632482781 -44.44422050907432 -19.52376236058575 -2.620072109124267 1.7516047169883132e-05 0.0 -2.5847166220294397 -1.3422683042338868 1.3616588751422327 -2.0764194927611292 -0.9269388357745569 -0.8488228956805628 0.0 0.0 -0.0 -0.0 -0.0 -0.0 -1.2940131425857544 -4.53747034072876 -2.0214784145355225 -0.30244749784469604 0.01013483852148056 0.07701167464256287 -1.4662772991731057 -4.171933594625175 -1.7175088227805615 -0.3603259012720388 2.2694574437619594e-06 0.0 0.41580098734558296 0.5957429256656588 0.4366383743664526 -2.362376103931417 -0.014741733240097612 -0.00015322051537437924 0.0 0.0 0.0 0.0 0.0 0.0 4.228355211574743 -4.954173361299473 -0.04249550737629848 0.1314487048417912 -0.0625423869053294 0.102105337723407 0.415797601814085 0.5957450246880538 0.43663590913558453 -2.3623976153453077 -0.014774556886481166 -0.00017089876894282188 0.0 0.0 0.0 0.0 0.0 0.0 0 31.0 32.4375 30.8125 34.875 37.0625 37.375 0.581784 7 253 253 253 253 253 253 2 -0.13407529890537262 0.1149216815829277 -9.979032516479492 0.0 0.7 0.0 47.77375411987305 47.77913284301758 0.5986637473106384 47.68526077270508 47.6279296875 47.6279296875 47.61359786987305 47.584930419921875 47.5275993347168 3840 1
8042.503 -2.5847040000000003 -1.3422660000000004 1.3616509999999997 -2.0764069999999997 -0.9269629999999998 -0.8488470000000001 0.0 0.0 0.0 0.0 0.0 0.0 0.0 0.0 0.0 0.0 0.0 0.0 -1.4663029764377282 -4.171875821399752 -1.7174849911030896 -0.36032007929206483 7.817233720283613e-08 0.0 -16.846581334886352 -44.4436050424299 -19.523491454258256 -2.6200297752057344 6.033470024250027e-07 0.0 -2.5846803824054163 -1.3422683042338868 1.3616474310504358 -2.0764080486693324 -0.9269745985614222 -0.8488228956805628 0.0 0.0 -0.0 -0.0 -0.0 -0.0 -1.3390545845031738 -4.524580955505371 -2.0895824432373047 -0.28371885418891907 0.011471802368760109 0.09650104492902756 -1.4663029764377282 -4.171875821399752 -1.7174849911030896 -0.36032007929206483 7.817233720283613e-08 0.0 0.415785475017586 0.5957533214709722 0.43663815703424297 -2.362402650093984 -0.014773146210967071 -0.00016383724835365384 0.0 0.0 0.0 0.0 0.0 0.0 4.161859569710538 -4.714864278121325 -0.04525846337148476 0.12182449911757379 -0.06408827651338965 0.10396538788972078 0.415797601814085 0.5957450246880538 0.43663590913558453 -2.3623976153453077 -0.014774556886481166 -0.00017089876894282188 0.0 0.0 0.0 0.0 0.0 0.0 0 31.0 32.4375 30.8125 34.875 37.0625 37.375 0.581688 7 253 253 253 253 253 253 2 -0.15322890877723694 0.07661445438861847 -9.940725326538086 0.0 0.7 0.0 47.786293029785156 47.80062484741211 0.5986637473106384 47.7282600402832 47.65659713745117 47.65659713745117 47.670928955078125 47.584930419921875 47.5275993347168 3840 1
8042.603 -2.5847040000000003 -1.3422660000000004 1.3616509999999997 -2.0764069999999997 -0.9269629999999998 -0.8488470000000001 0.0 0.0 0.0 0.0 0.0 0.0 0.0 0.0 0.0 0.0 0.0 0.0 -1.466403796173463 -4.171727991472521 -1.7174630340000985 -0.3603133626225959 -3.840372964920774e-06 0.0 -16.847739668399623 -44.4420301885319 -19.523241857135236 -2.6199809356461032 -2.9640632472926815e-05 0.0 -2.5847047011004847 -1.3422562640956421 1.3616350332843226 -2.0764194927611292 -0.9269745985614222 -0.8488109747516077 0.0 0.0 -0.0 -0.0 -0.0 -0.0 -1.3312727212905884 -4.529430389404297 -2.0519816875457764 -0.2877301275730133 0.01327420212328434 0.07027158886194229 -1.466403796173463 -4.171727991472521 -1.7174630340000985 -0.3603133626225959 -3.840372964920774e-06 0.0 0.41580549526420174 0.5957466841226702 0.4366392726340525 -2.362396650839252 -0.014735239711150566 -0.0001816521255196296 0.0 0.0 0.0 0.0 0.0 0.0 4.0592890973928 -4.8248977643560345 0.05200736349935786 0.12321094928409874 -0.06749501081608411 0.1054455573737452 0.415797601814085 0.5957450246880538 0.43663590913558453 -2.3623976153453077 -0.014774556886481166 -0.00017089876894282188 0.0 0.0 0.0 0.0 0.0 0.0 0 31.0 32.4375 30.8125 34.8125 37.0625 37.375 0.587544 7 253 253 253 253 253 253 2 -0.13407528400421143 0.09576806426048279 -10.055646896362305 0.0 0.7 0.0 47.78450393676758 47.79256820678711 0.5583816170692444 47.7282600402832 47.6279296875 47.6279296875 47.65659713745117 47.584930419921875 47.5275993347168 3840 1
8042.7029999999995 -2.5847040000000003 -1.3422660000000004 1.3616509999999997 -2.0764069999999997 -0.9269629999999998 -0.8488470000000001 0.0 0.0 0.0 0.0 0.0 0.0 0.0 0.0 0.0 0.0 0.0 0.0 -1.466319793179217 -4.1716930098735405 -1.717521189738902 -0.36032848569602755 -3.84010634110681e-06 0.0 -16.846774545026292 -44.44165752442698 -19.52390294184656 -2.6200909014930285 -2.9638574626319095e-05 0.0 -2.584728542958395 -1.3422683042338868 1.3616474310504358 -2.076395650903219 -0.9269745985614222 -0.8488710562335413 0.0 0.0 -0.0 -0.0 -0.0 -0.0 -1.2853599786758423 -4.5350189208984375 -2.1248161792755127 -0.27429839968681335 0.010670418851077557 0.05676410719752312 -1.466319793179217 -4.1716930098735405 -1.717521189738902 -0.36032848569602755 -3.84010634110681e-06 0.0 0.4158127984869264 0.5957324199648447 0.4366359149907483 -2.362409235231169 -0.01476800714666827 -0.0001981449082516788 0.0 0.0 0.0 0.0 0.0 0.0 4.103031655638274 -4.870904786666985 -0.09179158889510575 0.12305153771633343 -0.06592282663253236 0.1027635796245496 0.415797601814085 0.5957450246880538 0.43663590913558453 -2.3623976153453077 -0.014774556886481166 -0.00017089876894282188 0.0 0.0 0.0 0.0 0.0 0.0 0 31.0 32.4375 30.8125 34.8125 37.0625 37.375 0.584292 7 253 253 253 253 253 253 2 -0.13407529890537262 0.1149216815829277 -9.90241813659668 0.0 0.7 0.0 47.77017593383789 47.77644348144531 0.5449506640434265 47.670928955078125 47.599266052246094 47.6279296875 47.599266052246094 47.5562629699707 47.51326370239258 3840 1
8042.803 -2.5847040000000003 -1.3422660000000004 1.3616509999999997 -2.0764069999999997 -0.9269629999999998 -0.8488470000000001 0.0 0.0 0.0 0.0 0.0 0.0 0.0 0.0 0.0 0.0 0.0 0.0 -1.4662173394901648 -4.171840846659852 -1.7175431522936426 -0.3603327536524227 4.587094578691667e-06 0.0 -16.84559743877103 -44.443232451395765 -19.52415260094228 -2.6201219354916234 3.540395314921182e-05 0.0 -2.5846684614764612 -1.342244343166687 1.361706558858053 -2.0764080486693324 -0.9269626776324671 -0.8488710562335413 0.0 0.0 -0.0 -0.0 -0.0 -0.0 -1.3526350259780884 -4.534238815307617 -2.0779337882995605 -0.28847208619117737 0.005565923638641834 0.06640739738941193 -1.4662173394901648 -4.171840846659852 -1.7175431522936426 -0.3603327536524227 4.587094578691667e-06 0.0 0.41577494156120076 0.5957589247669703 0.4365899134504427 -2.3624369986440845 -0.014813794805081184 -8.842954741084082e-05 0.0 0.0 0.0 0.0 0.0 0.0 4.278189522564264 -4.698426065678653 -0.027746237469041368 0.12329790164491888 -0.06230466583918988 0.10224120672567844 0.415797601814085 0.5957450246880538 0.43663590913558453 -2.3623976153453077 -0.014774556886481166 -0.00017089876894282188 0.0 0.0 0.0 0.0 0.0 0.0 0 31.0 32.4375 30.8125 34.8125 37.0625 37.375 0.584808 7 253 253 253 253 253 253 2 -0.09576806426048279 0.09576806426048279 -10.055646896362305 0.0 0.7 0.0 47.7639045715332 47.77017593383789 0.5494276285171509 47.670928955078125 47.6279296875 47.6279296875 47.599266052246094 47.584930419921875 47.5275993347168 3840 1
8042.902999999999 -2.5847040000000003 -1.3422660000000004 1.3616509999999997 -2.0764069999999997 -0.9269629999999998 -0.8488470000000001 0.0 0.0 0.0 0.0 0.0 0.0 0.0 0.0 0.0 0.0 0.0 0.0 -1.4661911737439326 -4.171911623477396 -1.71751961168736 -0.36032834615920434 1.3393751398944791e-05 0.0 -16.84529681647184 -44.44398644721437 -19.52388500336328 -2.620089886865611 0.00010337518420116832 0.0 -2.584728542958395 -1.3422683042338868 1.3616951147662562 -2.0764194927611292 -0.9269865194903772 -0.8488591353045862 0.0 0.0 -0.0 -0.0 -0.0 -0.0 -1.30675208568573 -4.531340599060059 -2.0669291019439697 -0.28230857849121094 -0.00011645308404695243 0.060164157301187515 -1.4661911737439326 -4.171911623477396 -1.71751961168736 -0.36032834615920434 1.3393751398944791e-05 0.0 0.41581177091472193 0.5957289901283757 0.43661140241616214 -2.3624306771419996 -0.014740444471520212 -0.00017761978105718964 0.0 0.0 0.0 0.0 0.0 0.0 3.981721801512302 -4.789143282395572 -0.013570548551465222 0.12401412277549628 -0.06431147656905205 0.10064350522384308 0.415797601814085 0.5957450246880538 0.43663590913558453 -2.3623976153453077 -0.014774556886481166 -0.00017089876894282188 0.0 0.0 0.0 0.0 0.0 0.0 0 31.0 32.4375 30.8125 34.8125 37.0625 37.375 0.578964 7 253 253 253 253 253 253 2 -0.15322890877723694 0.19153612852096558 -9.940725326538086 0.0 0.7 0.0 47.796146392822266 47.79704284667969 0.5941867828369141 47.68526077270508 47.64226531982422 47.64226531982422 47.6279296875 47.584930419921875 47.5275993347168 3840 1
8043.003 -2.5847040000000003 -1.3422660000000004 1.3616509999999997 -2.0764069999999997 -0.9269629999999998 -0.8488470000000001 0.0 0.0 0.0 0.0 0.0 0.0 0.0 0.0 0.0 0.0 0.0 0.0 -1.4661939318185082 -4.171868227774713 -1.7175385014714293 -0.3603259623414816 -6.747901402597057e-06 0.0 -16.845328504416564 -44.44352414642855 -19.524099732772715 -2.620072553184334 -5.208141690010384e-05 0.0 -2.5847166220294397 -1.3422323030284424 1.3616474310504358 -2.076383729974264 -0.9269388357745569 -0.848846737538473 0.0 0.0 -0.0 -0.0 -0.0 -0.0 -1.3451329469680786 -4.498466491699219 -2.061821222305298 -0.27535730600357056 -0.0011477291118353605 0.061850521713495255 -1.4661939318185082 -4.171868227774713 -1.7175385014714293 -0.3603259623414816 -6.747901402597057e-06 0.0 0.41580677120763754 0.5957464623107112 0.43661440388411776 -2.362407822391974 -0.014745011857787578 -0.00010427635525930115 0.0 0.0 0.0 0.0 0.0 0.0 4.1465299359158765 -5.022836966005211 -0.17760868042692346 0.12953337782304464 -0.06145442602924718 0.10485496327163464 0.415797601814085 0.5957450246880538 0.43663590913558453 -2.3623976153453077 -0.014774556886481166 -0.00017089876894282188 0.0 0.0 0.0 0.0 0.0 0.0 0 31.0 32.4375 30.8125 34.8125 37.0625 37.375 0.58338 7 253 253 253 253 253 253 2 -0.15322890877723694 0.038307227194309235 -10.113107681274414 0.0 0.7 0.0 47.74061965942383 47.75315856933594 0.5628532767295837 47.670928955078125 47.61359786987305 47.6279296875 47.599266052246094 47.570594787597656 47.498931884765625 3840 1
8043.103 -2.5847040000000003 -1.3422660000000004 1.3616509999999997 -2.0764069999999997 -0.9269629999999998 -0.8488470000000001 0.0 0.0 0.0 0.0 0.0 0.0 0.0 0.0 0.0 0.0 0.0 0.0 -1.4662784104424973 -4.171922702642662 -1.7174986152590033 -0.3603259011913515 -2.239222737159615e-06 0.0 -16.84629909237346 -44.44410447518701 -19.52364632669844 -2.6200721085375576 -1.7282690713488705e-05 0.0 -2.5847047011004847 -1.3422562640956421 1.361671272908346 -2.076395650903219 -0.9269745985614222 -0.8488352934466761 0.0 0.0 -0.0 -0.0 -0.0 -0.0 -1.31867516040802 -4.501046180725098 -2.065707206726074 -0.27262648940086365 -0.0007332347449846566 0.05792330577969551 -1.4662784104424973 -4.171922702642662 -1.7174986152590033 -0.3603259011913515 -2.239222737159615e-06 0.0 0.4157985690078522 0.5957423054479039 0.43661424288021305 -2.3624281974432013 -0.014739199782426528 -0.00013313295084284126 0.0 0.0 0.0 0.0 0.0 0.0 4.0103677932717705 -4.793899178977371 -0.056289201857187 0.1253572350468014 -0.06454422240198174 0.10157639527499784 0.415797601814085 0.5957450246880538 0.43663590913558453 -2.3623976153453077 -0.014774556886481166 -0.00017089876894282188 0.0 0.0 0.0 0.0 0.0 0.0 0 31.0 32.4375 30.8125 34.8125 37.0625 37.375 0.578617 7 253 253 253 253 253 253 2 -0.1149216815829277 0.2106897532939911 -10.055646896362305 0.0 0.7 0.0 47.745994567871094 47.75226593017578 0.6143304705619812 47.64226531982422 47.61359786987305 47.61359786987305 47.570594787597656 47.51326370239258 47.48460006713867 3840 1
8043.2029999999995 -2.5847040000000003 -1.3422660000000004 1.3616509999999997 -2.0764069999999997 -0.9269629999999998 -0.8488470000000001 0.0 0.0 0.0 0.0 0.0 0.0 0.0 0.0 0.0 0.0 0.0 0.0 -1.4663013079902945 -4.171786694161626 -1.7175202808246381 -0.36032752761785264 -1.315261920945736e-05 0.0 -16.84656216583613 -44.44265555688925 -19.523892609773817 -2.620083934927773 -0.00010151408615905757 0.0 -2.5847047011004847 -1.3422323030284424 1.3616588751422327 -2.076383729974264 -0.9269388357745569 -0.848846737538473 0.0 0.0 -0.0 -0.0 -0.0 -0.0 -1.3218616247177124 -4.484117031097412 -2.073052167892456 -0.26680073142051697 -0.0005298250471241772 0.04922286793589592 -1.4663013079902945 -4.171786694161626 -1.7175202808246381 -0.36032752761785264 -1.315261920945736e-05 0.0 0.4157983126427726 0.5957505684804829 0.436607861408025 -2.362413755520986 -0.014754393056227819 -8.698167166568572e-05 0.0 0.0 0.0 0.0 0.0 0.0 3.9782202517059417 -4.784709485966024 0.09049785601055138 0.12036521659746535 -0.06745008620055896 0.10151283151248856 0.415797601814085 0.5957450246880538 0.43663590913558453 -2.3623976153453077 -0.014774556886481166 -0.00017089876894282188 0.0 0.0 0.0 0.0 0.0 0.0 0 31.0 32.4375 30.8125 34.8125 37.0625 37.375 0.583176 7 253 253 253 253 253 253 2 -0.2106897532939911 0.07661445438861847 -10.074800491333008 0.0 0.7 0.0 47.7639045715332 47.78361129760742 0.6098535060882568 47.65659713745117 47.6279296875 47.6279296875 47.599266052246094 47.54193115234375 47.498931884765625 3840 1
8043.303 -2.58470390182523 -1.3422660424164343 1.3616510306552094 -2.0764070199605555 -0.9269630616146962 -0.8488469164981272 3.926990816987241e-05 -1.6966573681725893e-05 1.2262083922727214e-05 -7.984222204716146e-06 -2.4645878419503564e-05 3.340074907289548e-05 0.008726646259971643 -0.0037703497070501984 0.0027249075383838253 -0.001774271601048032 -0.005476861871000792 0.007422388682865662 -1.4419970563793418 -4.324699669937272 -1.6910284533701316 -0.36058514614675136 -0.0004372060864634799 0.0008835989818037512 -16.810578277494802 -44.463269368869646 -19.520606260310483 -2.6206085389669944 0.00041200649384195314 0.0015723015699532238 -2.584728542958395 -1.3422447007945557 1.3617189566241663 -2.0764318905272425 -0.9269149939166468 -0.848846737538473 0.0 -0.0012673652963712811 -0.0 -0.0 -0.0 -0.0 -1.3222841024398804 -4.673343658447266 -2.027906894683838 -0.27489086985588074 0.004713068250566721 0.06094278767704964 -1.4419970563793418 -4.324699669937272 -1.6910284533701316 -0.36058514614675136 -0.0004372060864634799 0.0008835989818037512 0.4158038350172306 0.5957409408762734 0.43659363021639047 -2.362395618095909 -0.014734168433026319 -8.00110155459167e-05 -0.0002947251769819722 -0.0001835301719917558 0.0008464867861482866 0.0006698364196278108 -0.001075887523459148 -4.744893969023224e-08 4.239613010138026 -4.586706762796157 0.08002858054535089 0.12084233365519155 -0.06293543105492233 0.10148592049645602 0.41579754233900934 0.5957450503766659 0.4366359154694136 -2.3623976445658146 -0.014774567738046272 -0.0001708909498537538 -2.3790038807399064e-05 1.0275402602310623e-05 2.5335316066684636e-06 -1.1721190924273292e-05 9.239072611918578e-07 4.021294116069594e-06 0 31.0 32.4375 30.8125 34.875 37.0625 37.375 0.743892 7 253 253 253 253 253 253 2 -0.13407528400421143 0.07661445438861847 -9.998186111450195 1.0 0.7 0.00015709957633103217 47.780921936035156 47.77823257446289 0.5449506640434265 47.6995964050293 47.61359786987305 47.6279296875 47.54193115234375 47.54193115234375 47.5275993347168 768 2
8043.402999999999 -2.583669194286493 -1.3427130880682627 1.3619741195359012 -2.076617393126452 -0.927612446280663 -0.8479668531499858 0.037629298672997726 -0.016257747936800446 0.01174980130551105 -0.007650659143719113 -0.023616228387755404 0.03200534000051671 0.9959285044192634 -0.4302911603171035 0.31098007281805345 -0.20248874646960596 -0.6250468610279648 0.8470801084320394 -0.3607197375825264 -5.237608882968681 -0.9732691122411448 -0.5463512178388439 -0.1985051926642836 0.2339442375980701 -12.679123002995496 -46.77034385532431 -19.15122975201118 -2.6804368640635676 0.04179354903002219 0.1794389005064426 -2.583766047154562 -1.342754842048027 1.3618910948382776 -2.0765911541380824 -0.9276765028582972 -0.8479488531695765 0.03874265030026436 -0.01961715705692768 0.01123119331896305 -0.009726855903863907 -0.02118820883333683 0.02773226797580719 -0.15246759355068207 -5.182528495788574 -1.1137874126434326 -0.4901570677757263 -0.14720672369003296 0.25721657276153564 -0.3607197375825264 -5.237608882968681 -0.9732691122411448 -0.5463512178388439 -0.1985051926642836 0.2339442375980701 0.4152363362321886 0.5959650369687678 0.43676490826233283 -2.362702255429547 -0.014773100603857734 -0.00027676920565146673 -0.024359749930602984 0.010302100270491894 0.005663228775951649 -0.0062211759541020714 -0.006012570017022097 0.009138378929057653 5.441270695407344 -5.0985666753677235 -0.2341329988940446 0.10696994819904652 -0.10912890903964409 0.08639692277012587 0.4151706555947925 0.5960154294559759 0.43670268965285314 -2.3627053015149944 -0.014888828245585812 -8.884073381438072e-05 -0.022799940285201815 0.009819680216078635 0.002429078795177786 -0.011208942323996446 0.0008687463144318036 0.0038393843896472393 0 31.0 32.4375 30.8125 34.875 37.0625 37.375 0.751609 7 253 253 253 253 253 253 2 -0.7086837291717529 -0.019153613597154617 -9.806650161743164 1.0 0.7 0.20905287543645878 47.77196502685547 47.790771484375 0.6546126008033752 47.68526077270508 47.64226531982422 47.6279296875 47.599266052246094 47.5562629699707 47.51326370239258 768 2
8043.503 -2.576485419085284 -1.3458168399471067 1.3642172634214988 -2.078077973508435 -0.9321209989728709 -0.8418567427862511 0.10604620535117538 -0.04581728964007398 0.03311307640644022 -0.021560948495935678 -0.06655482545640157 0.09019686727418345 0.6841690667817798 -0.2955954170327374 0.2136327510092878 -0.1391028935221663 -0.4293859706864592 0.5819152727366689 -0.37699055757340977 -5.19263169525559 -0.9574355694977235 -0.6017981957133992 -0.21518678412282893 0.24313859058688012 -13.731444155668951 -46.177974217758695 -19.278120264410024 -2.6639228093078837 0.024654708433954772 0.12326830884739684 -2.5764859358416956 -1.3460225623897095 1.3639753500567835 -2.0780307255186976 -0.9321320692645472 -0.8418076674090784 0.10673172026872635 -0.04198383167386055 0.03366794064640999 -0.022273682057857513 -0.06641985476016998 0.08844588696956635 -0.2960345149040222 -5.099864959716797 -0.7932774424552917 -0.5686816573143005 -0.1505756378173828 0.26115790009498596 -0.37699055757340977 -5.19263169525559 -0.9574355694977235 -0.6017981957133992 -0.21518678412282893 0.24313859058688012 0.4107932083951696 0.5978554389745097 0.4374330624582202 -2.364619691831904 -0.01577677923223944 7.419069353912133e-05 -0.06385629760839467 0.028025904753900023 0.004144746818288196 -0.032969182773050686 0.004091541978604202 0.012539672218715811 5.196544642403193 -5.226017810249351 -0.07393416827978072 0.12234190511456415 -0.10792827721682287 0.10743210185410546 0.410815478494697 0.5978725801524045 0.43716734635014975 -2.364824105809902 -0.015676095383902734 0.0004611475613575047 -0.06432637790807721 0.027156594914594545 0.006872857551334935 -0.031145094924695988 0.0021275472052308675 0.010549288605297899 0 31.0 32.4375 30.8125 34.875 37.0625 37.375 0.746712 7 253 253 253 253 253 253 2 -0.5171475410461426 0.038307227194309235 -9.825803756713867 1.0 0.7 0.6058622945995084 47.77196502685547 47.79166793823242 0.6478998064994812 47.670928955078125 47.599266052246094 47.64226531982422 47.6279296875 47.51326370239258 47.498931884765625 768 2
8043.603 -2.5624599532162575 -1.3518765459962774 1.3685967348171895 -2.0809295828256396 -0.9409234113719434 -0.829927479695149 0.17446311202935352 -0.07537683134334772 0.05447635150736955 -0.03547123784815234 -0.10949342252504805 0.14838839454785063 0.6841690667817729 -0.2955954170327374 0.21363275100929474 -0.13910289352216804 -0.4293859706864592 0.5819152727366828 -0.26450902933773096 -5.232834806213246 -0.9314207999302293 -0.6058016401319852 -0.2306518451980495 0.25943459713738504 -13.274465222826523 -46.42976396092996 -19.28581064153949 -2.6667231513955354 0.01690525014883751 0.12326808160613165 -2.5624595324145716 -1.3518340599587937 1.368495289479391 -2.0809060535826625 -0.9409173170672815 -0.8301461378680628 0.17122004926204681 -0.07306260615587234 0.057848118245601654 -0.034822046756744385 -0.10641840100288391 0.15180283784866333 -0.15305699408054352 -5.23082971572876 -0.8337652087211609 -0.6246697902679443 -0.20236045122146606 0.3200417459011078 -0.26450902933773096 -5.232834806213246 -0.9314207999302293 -0.6058016401319852 -0.2306518451980495 0.25943459713738504 0.40231682832140203 0.6014109869342135 0.43810624929595454 -2.3688478376918787 -0.0174582549895433 0.0013016434433863319 -0.10454734161342974 0.04215952535935426 0.008196456827030378 -0.05103925105639169 0.011700596327368001 0.012258621042390852 5.263890396921816 -5.163023793530507 -0.15169394617947685 0.11184551775322318 -0.1103083309195443 0.09636765568362021 0.4022990911994991 0.6013975731084324 0.4380798645250614 -2.3688734574318815 -0.01718262076111507 0.001437267102180421 -0.10603968553843969 0.04301848412613268 0.011394753704195458 -0.04979497077452944 0.002497681744996455 0.016496700256358104 0 31.0 32.375 30.8125 34.875 37.0625 37.375 0.81264 7 253 253 253 253 253 253 2 -0.49799394607543945 0.038307227194309235 -9.959878921508789 1.0 0.7 0.9961626958921035 47.77375411987305 47.78898239135742 0.6993717551231384 47.670928955078125 47.599266052246094 47.64226531982422 47.599266052246094 47.5275993347168 47.48460006713867 768 2
8043.7029999999995 -2.541592796679413 -1.3608922062157758 1.3751125337229728 -2.085172221078065 -0.9540196834778811 -0.8121790638766804 0.24288001870753187 -0.10493637304662153 0.07583962660829893 -0.04938152720036904 -0.15243201959369465 0.20657992182151794 0.6841690667817868 -0.2955954170327374 0.21363275100929474 -0.13910289352216457 -0.4293859706864661 0.5819152727366828 -0.1322391724107917 -5.284117140107665 -0.9064871728075584 -0.610202929448925 -0.24658740171191051 0.27573061019615214 -12.586046403954988 -46.79120495790206 -19.306160715280736 -2.672416381055949 0.0055244304036969755 0.12326790584181538 -2.5417912642108362 -1.3609179568341752 1.3750994841205042 -2.085146566430563 -0.9539521376239222 -0.8120701948748987 0.2448279857635498 -0.10544641315937042 0.07632468640804291 -0.04894190654158592 -0.15168729424476624 0.20056574046611786 -0.0003879130817949772 -5.035895824432373 -0.8703173398971558 -0.5848202109336853 -0.20281726121902466 0.33739137649536133 -0.1322391724107917 -5.284117140107665 -0.9064871728075584 -0.610202929448925 -0.24658740171191051 0.27573061019615214 0.38970060904323295 0.606322023810734 0.439478935840664 -2.37462783255488 -0.019010592510593446 0.002656885390108005 -0.14952123308498394 0.05719099963333796 0.0161143188790044 -0.06593608117260136 -0.0019366100068734515 0.027865308254534066 4.864340150451813 -5.253589259508697 0.22164627992909747 0.1187436685006894 -0.1229671559327386 0.11051637197309913 0.38959921055607144 0.606395643346602 0.43945059807907827 -2.374681064290916 -0.019348502836441867 0.0026572776722779395 -0.14800000729812665 0.05646183927258124 0.016045694978532865 -0.06627151187855865 0.0014966203142914025 0.021225937900048564 0 31.0 32.375 30.8125 34.875 37.0625 37.375 0.811956 7 253 253 253 253 253 253 2 -0.5937620401382446 0.15322890877723694 -9.749189376831055 1.0 0.7 1.3818956621859684 47.77017593383789 47.777339935302734 0.6926589012145996 47.670928955078125 47.570594787597656 47.61359786987305 47.61359786987305 47.51326370239258 47.47026824951172 768 2
8043.803 -2.513883949474751 -1.3728638206056019 1.3837646601388494 -2.090805888265713 -0.9714098152906825 -0.7886114953308452 0.3112969253857102 -0.13449591474989536 0.09720290170922831 -0.06329181655258574 -0.19537061666234123 0.2647714490951852 0.6841690667817868 -0.2955954170327513 0.21363275100929474 -0.13910289352216804 -0.42938597068648 0.581915272736655 0.019542781566706687 -5.347207419958224 -0.8820966940331986 -0.6148776603119621 -0.2629192009107914 0.292026644982527 -11.670146168966735 -47.26933154746645 -19.33287170961188 -2.6800979123229807 -0.008914655792134615 0.12326790193150898 -2.514097515736715 -1.3728035402349015 1.3838756720172327 -2.090762277642721 -0.971295181904928 -0.7886822859393519 0.3113733232021332 -0.13463380932807922 0.09393434226512909 -0.0636070966720581 -0.19566114246845245 0.26466798782348633 0.11766140162944794 -4.965108871459961 -0.9529304504394531 -0.5695738196372986 -0.19640639424324036 0.3106008470058441 0.019542781566706687 -5.347207419958224 -0.8820966940331986 -0.6148776603119621 -0.2629192009107914 0.292026644982527 0.372798519748933 0.6125105044082715 0.44119676373898237 -2.3820285565830903 -0.02186772062609126 0.00403735196722966 -0.18979722450773137 0.06685581866166268 0.02287346344644772 -0.0776983579445199 -0.004459242333818586 0.024377189308714464 5.499256255419097 -5.204335839297585 0.41888024057227735 0.11345241458530154 -0.11866646271599716 0.09531497334527478 0.37269162225422486 0.6125783347007826 0.44129501613532496 -2.381983083107307 -0.022082621196709097 0.0038671110878475494 -0.1901803900211509 0.0665578475969454 0.020877011856593065 -0.07961187179614614 -0.001220890082108017 0.024334679694528266 0 31.0625 32.375 30.8125 34.875 37.0625 37.375 0.820333 7 253 253 253 253 253 253 2 -0.689530074596405 0.13407529890537262 -9.883264541625977 1.0 0.7 1.7612961695687568 47.75584411621094 47.754947662353516 0.7329410910606384 47.6279296875 47.584930419921875 47.584930419921875 47.5562629699707 47.48460006713867 47.427268981933594 768 2
8043.902999999999 -2.4793334116022705 -1.3877913891657556 1.3945531140648186 -2.097830584388582 -0.9930938068103492 -0.7592247740576425 0.3797138320638885 -0.16405545645316916 0.11856617681015769 -0.07720210590480243 -0.23830921373098782 0.3229629763688525 0.6841690667817868 -0.2955954170327374 0.21363275100929474 -0.13910289352216804 -0.42938597068648 0.5819152727366828 0.19113307756450393 -5.420800393728269 -0.8593641281309277 -0.6201350860150826 -0.27952384072780384 0.3083227344553276 -10.524257243468995 -47.850985270991764 -19.378999198486213 -2.6920164481829194 -0.025459570916457133 0.1232683305622216 -2.479594055806295 -1.3877976101687928 1.394346062337057 -2.0977775059142054 -0.9930537382708948 -0.75940448442568 0.3774489164352417 -0.16111120581626892 0.11776118725538254 -0.07860223203897476 -0.2389642298221588 0.3246617317199707 0.41047346591949463 -5.408648490905762 -0.6160657405853271 -0.5858561992645264 -0.18345436453819275 0.38749176263809204 0.19113307756450393 -5.420800393728269 -0.8593641281309277 -0.6201350860150826 -0.27952384072780384 0.3083227344553276 0.3517299705187372 0.6194907346869625 0.443752708208095 -2.390291994336703 -0.025236215392459255 0.004437244983053243 -0.23001729770401827 0.07228284425013118 0.02466173919048664 -0.08963819486685919 -0.004345842680287509 0.021665455256188154 6.257581758968323 -5.58175572848831 0.24203688847723948 0.12296453460549912 -0.1351570783481983 0.10266541875334012 0.35156048396203265 0.6195654892743948 0.44363371979036126 -2.390416203239363 -0.025260373527822934 0.004762272043668107 -0.23243530823313377 0.07240352137841698 0.02593986366182914 -0.08876361610286267 -0.005801270795614155 0.025495405201369503 0 31.0625 32.4375 30.8125 34.875 37.0625 37.375 0.817452 7 253 253 253 253 253 253 2 -0.9002197980880737 0.09576806426048279 -9.749189376831055 1.0 0.7 2.1326361835276604 47.72987747192383 47.745994567871094 0.831413209438324 47.599266052246094 47.54193115234375 47.54193115234375 47.5275993347168 47.4559326171875 47.41293716430664 768 2
8044.003 -2.4379411830619726 -1.4056749118962362 1.407477895500881 -2.1062463094466732 -1.0190716580368804 -0.7240189000570743 0.44813073874206677 -0.19361499815644295 0.13992945191108708 -0.09111239525701913 -0.2812478107996344 0.38115450364251985 0.6841690667817868 -0.2955954170327374 0.21363275100930168 -0.1391028935221611 -0.42938597068648 0.5819152727367105 0.38193361739050896 -5.502955501000425 -0.8373170818933287 -0.6258098270070735 -0.2963463936465414 0.32461890383970615 -9.156546932185076 -48.51672471702307 -19.433158694599847 -2.7069694485240987 -0.04368637533077064 0.12326939125170924 -2.4381895701037806 -1.40552972376857 1.4074690977679651 -2.1062518558897914 -1.0190370718585413 -0.724098030720846 0.44418108463287354 -0.19430021941661835 0.14322495460510254 -0.09050192683935165 -0.28111889958381653 0.3803536295890808 0.6013099551200867 -5.281371116638184 -0.8924024105072021 -0.6076869964599609 -0.18724127113819122 0.3815908432006836 0.38193361739050896 -5.502955501000425 -0.8373170818933287 -0.6258098270070735 -0.2963463936465414 0.32461890383970615 0.32639364041671043 0.6268395381808294 0.4464074130838029 -2.39957177674803 -0.02848343565737485 0.005017840041089353 -0.27256307749316455 0.07147890203507465 0.029706658248888115 -0.09463647953122668 -0.010146239119658396 0.021194026074092986 6.059141060362188 -5.450982914500299 0.3753622228783273 0.11166840725642387 -0.14627376068619735 0.09518493903044038 0.3262116420441283 0.6268885882832366 0.4464923670059311 -2.399508804006981 -0.028720854381816506 0.005018228320186574 -0.27447203198594133 0.0731377778706855 0.03128394093417959 -0.09258734921604121 -0.012125049069861893 0.024477126107768088 0 31.0625 32.4375 30.8125 34.875 37.0625 37.375 0.818004 7 253 253 253 253 253 253 2 -0.8810662031173706 0.15322890877723694 -9.691728591918945 1.0 0.7 2.494240987080302 47.72987747192383 47.73524856567383 0.932121217250824 47.599266052246094 47.54193115234375 47.5562629699707 47.54193115234375 47.47026824951172 47.38426971435547 768 2
8044.103 -2.3897072638538575 -1.4265143887970435 1.422539004447036 -2.1160530634399866 -1.049343368970276 -0.6829938733291394 0.516547645420244 -0.2231745398597163 0.16129272701201608 -0.10502268460923561 -0.32418640786828024 0.4393460309161861 0.684169066781759 -0.2955954170327374 0.2136327510092878 -0.1391028935221611 -0.4293859706864245 0.581915272736655 0.5852030947355469 -5.592154693081058 -0.8172432572894169 -0.6322319578275313 -0.31319326468148373 0.3409151974128893 -7.568946001029064 -49.25131823458572 -19.510435313917043 -2.727357015842827 -0.062100870980140783 0.12327143420967351 -2.3899241129504603 -1.4264620256474991 1.4224169890033167 -2.116030355493063 -1.0491326490985315 -0.6830280462848108 0.5187090635299683 -0.2229483425617218 0.15725383162498474 -0.10491393506526947 -0.3236728310585022 0.43457168340682983 0.40695664286613464 -5.374952793121338 -0.6635163426399231 -0.6071232557296753 -0.2665182054042816 0.42326080799102783 0.5852030947355469 -5.592154693081058 -0.8172432572894169 -0.6322319578275313 -0.31319326468148373 0.3409151974128893 0.29680513646791146 0.6339746739336466 0.4499567571110816 -2.408511776315849 -0.032133519626811005 0.004372008173449085 -0.31687981484996997 0.06913174182925687 0.03921019974389207 -0.08703883127395032 -0.02525370020358081 0.027182487808016187 4.241893554493518 -3.5725980483487225 0.9767090613324712 0.13179123642664878 -0.09967274194255663 0.16291423114984657 0.29668862588314676 0.6339959895516393 0.4499014230107598 -2.408672903990845 -0.03226370462081865 0.004331029631875634 -0.31582589517961673 0.06796343033870475 0.03695523955165401 -0.0898811525541541 -0.019735747156906625 0.021167177503045476 0 31.0625 32.4375 30.8125 34.875 37.0 37.375 0.807433 7 253 253 253 253 253 253 2 -0.09576806426048279 0.8044517636299133 -10.20887565612793 1.0 0.7 2.844509658078642 47.69136428833008 47.71196365356445 0.9679316878318787 47.570594787597656 47.51326370239258 47.51326370239258 47.48460006713867 47.41293716430664 47.35560607910156 768 2
8044.2029999999995 -2.334631653977926 -1.4503098198681785 1.4397364409032836 -2.1272508463685202 -1.0839089396105352 -0.6361496938738389 0.5849645520984196 -0.25273408156298893 0.1826560021129446 -0.11893297396145175 -0.3671250049369252 0.4975375581898511 0.684169066781759 -0.2955954170327235 0.21363275100927392 -0.1391028935221611 -0.42938597068648 0.5819152727366272 0.7848323471910055 -5.685442904865155 -0.7989586985921312 -0.6394644569147837 -0.33014696766884455 0.3572116573126172 -5.784137360769662 -50.02541188576891 -19.608682349240386 -2.753637091267283 -0.0813399132730106 0.1232747927235962 -2.3349021116839808 -1.450180136864521 1.4396889845477503 -2.127178808251852 -1.0837915579425257 -0.6364849249469202 0.5830482244491577 -0.2533361315727234 0.18311528861522675 -0.11969728022813797 -0.3650336265563965 0.5013967752456665 0.9430376291275024 -5.492974758148193 -0.7630521655082703 -0.6337511539459229 -0.23428387939929962 0.48401394486427307 0.7848323471910055 -5.685442904865155 -0.7989586985921312 -0.6394644569147837 -0.33014696766884455 0.3572116573126172 0.263263819673264 0.6402266740804534 0.45383701653704156 -2.417239434524444 -0.03571836595747126 0.0024376507933203256 -0.35514029987481405 0.0559023814569912 0.043462093723711286 -0.07773473716074043 -0.024561021186480514 0.011946191484740909 4.878303247454997 -4.102174110457023 0.6295510913283959 0.1094650176897059 -0.10152199402537038 0.13707993777475688 0.26309087084877925 0.6402606894753485 0.45389563344300665 -2.417199353835858 -0.03564599720594452 0.002469061159438134 -0.35584066707876666 0.056175777355417136 0.04299270974251691 -0.07943222188784342 -0.027768477420476112 0.015592611458227212 0 31.0625 32.4375 30.8125 34.875 37.0 37.375 0.817656 7 253 253 253 253 253 253 2 -0.7086837291717529 0.6129156351089478 -10.15141487121582 1.0 0.7 3.1819403562312063 47.679718017578125 47.692256927490234 1.0843064785003662 47.5562629699707 47.48460006713867 47.48460006713867 47.427268981933594 47.35560607910156 47.32693862915039 768 2
8044.303 -2.2727143534341767 -1.4770612051096403 1.4590702048696238 -2.139839658232276 -1.122768369957659 -0.5834863616911719 0.6533814587765951 -0.28229362326626156 0.20401927721387314 -0.1328432633136679 -0.41006360200557007 0.5557290854635161 0.684169066781759 -0.2955954170327235 0.2136327510092878 -0.1391028935221611 -0.42938597068648 0.5819152727365995 1.0003371588705416 -5.779548069279953 -0.7830438858920311 -0.6477955460184774 -0.34694190318672 0.3677519125943442 -3.8206554654342106 -50.80665461953974 -19.734711130106753 -2.787905449108513 -0.0993535620286754 0.12327987281241715 -2.2730539480792444 -1.4768926215222855 1.4588096777545374 -2.1397677860655726 -1.1225841681109827 -0.5837810675250452 0.6499810814857483 -0.2804284393787384 0.20358741283416748 -0.12988446652889252 -0.4072363078594208 0.5487200021743774 1.3030369281768799 -5.627957344055176 -0.7307378649711609 -0.6767318844795227 -0.27626413106918335 0.5065683722496033 1.0003371588705416 -5.779548069279953 -0.7830438858920311 -0.6477955460184774 -0.34694190318672 0.3677519125943442 0.2258209274943706 0.644988780991973 0.4585627786554125 -2.424145393745712 -0.03859976642535254 -0.0007802594180931279 -0.3919602875769041 0.03701482355130884 0.04813212395881829 -0.06199343786843938 -0.034774566170018506 0.01140788280334859 4.910969278556027 -4.86966439192839 -0.1103975281014713 0.07331323249182067 -0.11579742243872862 0.16298482496564576 0.2255935932005033 0.6449912919198292 0.458513098587481 -2.424259519597921 -0.03857969162099034 -0.0006640567549195893 -0.3936553811116523 0.03719819724688698 0.04942360150521779 -0.060100485832421585 -0.03488475762166854 0.007940456945273788 0 31.0625 32.4375 30.8125 34.875 37.0 37.375 0.80724 7 253 253 253 253 253 253 2 -0.8810662031173706 0.4596867263317108 -9.940725326538086 1.0 0.7 3.505160918295792 47.687782287597656 47.699424743652344 1.164876103401184 47.5275993347168 47.4559326171875 47.47026824951172 47.44160079956055 47.34127426147461 47.31260681152344 768 2
8044.402999999999 -2.2040517499089525 -1.506726900197351 1.4805101991557623 -2.153799901819509 -1.165861166893393 -0.5250858586618019 0.7109993913502927 -0.3071874654971009 0.22201055749944176 -0.1445579425193017 -0.4462247398124557 0.6047356199241576 0.13919571585824242 -0.060139543975351595 0.04346405757188476 -0.028300792569976863 -0.08735952920282952 0.11839195440160877 1.049978816491031 -5.7385509589959875 -0.7916487683905875 -0.6516595407621854 -0.3633141019367958 0.36399942781422256 -3.693081762969387 -50.28009407433579 -20.098834451592374 -2.7938446319619326 -0.13172144635407515 0.025095198562373314 -2.204420868550436 -1.5064966094544907 1.4806163946734827 -2.1536418400206507 -1.1655696074115198 -0.5252664724933069 0.7127747535705566 -0.3073272705078125 0.2196103036403656 -0.147752046585083 -0.44571980834007263 0.6008210182189941 1.0913519859313965 -5.651366233825684 -0.8135453462600708 -0.6537409424781799 -0.28619834780693054 0.4412226676940918 1.049978816491031 -5.7385509589959875 -0.7916487683905875 -0.6516595407621854 -0.3633141019367958 0.36399942781422256 0.18472177832202064 0.6474315143433862 0.46356614442806526 -2.429171491412455 -0.04048351132876198 -0.004527545577794297 -0.42269577976188194 0.011587086339898264 0.0576446086240224 -0.025999775371793342 -0.044448819202962786 0.0037366008592488176 3.455333286206927 -3.3338391377485452 -0.20305203107974212 0.1253263883985716 -0.039776341585398 0.17897483170256423 0.18452577812602963 0.6474454721780303 0.463786298413347 -2.4289132165959786 -0.04072817182873148 -0.004950676990867843 -0.4218034101305419 0.01050731475411049 0.05541344801795341 -0.030523578148104694 -0.03863828776796502 -0.00138985564916283 0 31.0625 32.4375 30.75 34.875 37.0 37.375 0.812377 7 253 253 253 253 253 253 2 0.0 0.7469909191131592 -10.5344877243042 0.9851635003801446 0.7 3.761605002908174 47.702110290527344 47.700321197509766 1.2387275695800781 47.54193115234375 47.47026824951172 47.47026824951172 47.41293716430664 47.34127426147461 47.298274993896484 768 2
8044.503 -2.132244370586047 -1.5377512964578042 1.5029321540969276 -2.1683995303689922 -1.2109276318507334 -0.4640105883053849 0.725352056502134 -0.3133885380785407 0.22649219733026021 -0.14747607686549055 -0.45523250318174996 0.6169431801045945 0.14790121640712028 -0.06390075767259695 0.046182362332322646 -0.030070764897999203 -0.09282311998029535 0.12579635774601083 1.2577240155863285 -5.799298154825664 -0.8024338536093535 -0.6597891096999242 -0.36679569558214153 0.3663558328435146 -1.4080112870827255 -50.847813227511026 -20.290907147990143 -2.8474385066489294 -0.13517863243976724 0.026668617570162836 -2.1326282660113733 -1.5376407218030472 1.5028780142413538 -2.1684090099730433 -1.2107155958758753 -0.46414262453188115 0.7268797755241394 -0.3130413591861725 0.22729723155498505 -0.14757207036018372 -0.45576241612434387 0.6121987700462341 1.225344181060791 -5.525928497314453 -0.7900885939598083 -0.6291738152503967 -0.24021317064762115 0.47726064920425415 1.2577240155863285 -5.799298154825664 -0.8024338536093535 -0.6597891096999242 -0.36679569558214153 0.3663558328435146 0.14258428694861172 0.6469661861918875 0.46944602153672954 -2.430145180637115 -0.041471159149738056 -0.009724695070375705 -0.4220442755596728 -0.019789875396053643 0.05744977988721197 0.004706372515638815 -0.03845817397977619 -0.005670669844914156 4.098733149470023 -3.3042376147658574 0.5376660414926011 0.1364058652065838 -0.07065479691114641 0.18578546346292166 0.14236200883452174 0.6469690156117047 0.46946527736116206 -2.430191406944181 -0.04170281744236364 -0.009755751528161636 -0.4211438109273877 -0.020144712564454555 0.058181306308170276 0.005953144792274575 -0.03556875857467412 -0.010517019704140151 0 31.0625 32.4375 30.75 34.875 37.0 37.3125 0.807457 7 253 253 253 253 253 253 2 -0.1149216890335083 1.1300631761550903 -9.959878921508789 0.9895145594930264 0.7 3.77242271941292 47.68867492675781 47.690467834472656 1.2297788858413696 47.51326370239258 47.48460006713867 47.47026824951172 47.44160079956055 47.35560607910156 47.28394317626953 768 2
8044.603 -2.0591457579663324 -1.569333570388249 1.5257572984466545 -2.1832616880162057 -1.256804477588866 -0.4018370683896695 0.7330382858376183 -0.3167093753922166 0.22889223322424132 -0.14903881448803472 -0.46005639716406643 0.6234806493607156 0.0 0.0 0.0 0.0 0.0 0.0 1.4076023216848759 -5.8062290224146915 -0.8223875834432666 -0.6668049299643003 -0.36860600513092745 0.36414255820778124 0.25623786900023665 -50.899674769540994 -20.560113235752752 -2.8954975071662776 -0.13661191225882488 2.427849521714198e-05 -2.0594452063189905 -1.5692152673476194 1.5253780523883265 -2.183195253411764 -1.2565558592425745 -0.4020193258868616 0.7301290035247803 -0.3163442313671112 0.23086173832416534 -0.14445100724697113 -0.4638236165046692 0.620816171169281 1.4801913499832153 -5.620788097381592 -0.6912736296653748 -0.6600396633148193 -0.2748030722141266 0.46217167377471924 1.4076023216848759 -5.8062290224146915 -0.8223875834432666 -0.6668049299643003 -0.36860600513092745 0.36414255820778124 0.10065023889504096 0.6434592839634476 0.4755684721464452 -2.427499437147475 -0.04133463885296797 -0.01438315862143603 -0.4116295640645835 -0.0518519178290054 0.05769038725880242 0.03593445831068679 -0.028224303059906697 -0.021490027150289248 3.4141053516195115 -4.04882096045857 0.4167877201958361 0.10753202989415252 -0.050695436416742845 0.209192217342982 0.10048230427898727 0.6434097681455426 0.4754082963043499 -2.4277603164344974 -0.04133520351342192 -0.014331149595194272 -0.41398141056677634 -0.050794133310669995 0.06037398627460709 0.04349647283568649 -0.02720636549345934 -0.018305441736276462 0 31.0625 32.4375 30.75 34.875 37.0625 37.3125 0.817632 7 253 253 253 253 253 253 2 0.05746084079146385 0.9768342971801758 -9.864110946655273 1.0 0.7 3.7520515405230617 47.668975830078125 47.67613983154297 1.2767738103866577 47.498931884765625 47.427268981933594 47.44160079956055 47.38426971435547 47.298274993896484 47.25527572631836 768 2
8044.7029999999995 -1.989202406968836 -1.599552612742829 1.5475972079279314 -2.1974823287595147 -1.3007010743794707 -0.34234723444661164 0.6652277436758773 -0.28741181363046997 0.2077182962943144 -0.13525180907667544 -0.41749835576377975 0.5658048612370515 -0.684169066781759 0.2955954170327235 -0.21363275100927392 0.1391028935221611 0.4293859706864245 -0.581915272736655 1.3381219238163085 -5.644103907705033 -0.8901706995616345 -0.6647052203651421 -0.35366117631447885 0.33836317688264295 -0.020047348589018688 -49.44653569553729 -21.04541268412407 -2.906306791258056 -0.1318884951015668 -0.12325421863723487 -1.989615265523092 -1.5993100605406703 1.5476740042315882 -2.197355409661764 -1.3005316893206995 -0.342442814503805 0.6654542684555054 -0.28938934206962585 0.20579004287719727 -0.13533663749694824 -0.41550931334495544 0.5625202655792236 1.3803166151046753 -5.475050449371338 -0.9162980318069458 -0.7209630012512207 -0.25325071811676025 0.40468689799308777 1.3381219238163085 -5.644103907705033 -0.8901706995616345 -0.6647052203651421 -0.35366117631447885 0.33836317688264295 0.061835627313637974 0.6372606131810414 0.48102003825691036 -2.4223575341556303 -0.03929751499228939 -0.0176140891130535 -0.3646675292801784 -0.07136589885812171 0.05854356176896661 0.07499602723193927 -0.015769060060616347 -0.017895822910213355 2.6212203134500633 -4.102709236668254 -1.2834341579963522 0.07113270556618394 -0.0625261736943553 0.2540083621880046 0.06159104506068593 0.6372279076598905 0.48123553488643944 -2.4219953229333444 -0.03968522728029232 -0.017802264854423943 -0.36382007809228645 -0.07128465864004582 0.056034454580046925 0.07097242461727729 -0.01312182117229127 -0.02185513993769178 0 31.0625 32.4375 30.75 34.875 37.0625 37.3125 0.808692 7 253 253 253 253 253 253 2 0.19153612852096558 0.49799394607543945 -10.362105369567871 1.0 0.7 3.3558538381300984 47.66360092163086 47.67255783081055 1.1335372924804688 47.498931884765625 47.427268981933594 47.4559326171875 47.41293716430664 47.25527572631836 47.26960754394531 768 2
8044.803 -1.926100477935158 -1.626815817020712 1.5673008738023162 -2.2103119951995716 -1.3403039801024157 -0.2886763246865902 0.5968108369977002 -0.25785227192719673 0.18635502119338543 -0.12134151972445899 -0.3745597586951339 0.5076133339633853 -0.6841690667818701 0.2955954170327235 -0.21363275100931556 0.13910289352218191 0.42938597068650775 -0.5819152727367105 1.4487647341563241 -5.624424265456846 -0.9346805109697052 -0.6690404101814202 -0.33624484343635097 0.3280782209027265 1.7753897849245197 -49.39840102094207 -21.25489341200919 -2.9641399559758494 -0.10907879894552679 -0.1232589839300133 -1.9264033476458948 -1.626688142816061 1.567237679158346 -2.2102209530272425 -1.3400633970843714 -0.28904611269106084 0.5953561663627625 -0.255754292011261 0.1876995712518692 -0.12347272038459778 -0.37313827872276306 0.5132219791412354 1.6302099227905273 -5.529298305511475 -0.9868343472480774 -0.6442384719848633 -0.27284717559814453 0.38034436106681824 1.4487647341563241 -5.624424265456846 -0.9346805109697052 -0.6690404101814202 -0.33624484343635097 0.3280782209027265 0.0277891591560991 0.629470124791891 0.4865510387072919 -2.4141003948305855 -0.03726693917859632 -0.019665576490144533 -0.3147443760098847 -0.08246087681611353 0.04962054422129216 0.08706960060764476 0.005594480890810216 -0.0275017429545803 3.566496663827069 -4.194086032014052 0.5955612896458833 0.11516218112182115 -0.025036143504239994 0.28666123903836427 0.027643879115584163 0.6294327662332818 0.4865994298963319 -2.414016975947899 -0.0371028288220879 -0.01970322893097814 -0.315542321338218 -0.0833327008195185 0.051172821120112406 0.08806327248277739 0.0004656641494620306 -0.022798536734990715 0 31.0625 32.4375 30.75 34.875 37.0625 37.3125 0.815029 7 253 253 253 253 253 253 2 0.325611412525177 0.5363011360168457 -10.074800491333008 1.0 0.7 2.9694740509537283 47.668975830078125 47.68598937988281 1.1089218854904175 47.5275993347168 47.4559326171875 47.47026824951172 47.41293716430664 47.369937896728516 47.298274993896484 768 2
8044.902999999999 -1.8698402395692941 -1.6511230671282693 1.5848682121666093 -2.2217506327044063 -1.375613026118499 -0.24082456765393268 0.5283939303195193 -0.2282927302239217 0.1649917460924552 -0.10743123037224175 -0.3316211616264857 0.44942180668971565 -0.6841690667818145 0.29559541703276515 -0.2136327510092878 0.13910289352218191 0.42938597068648 -0.581915272736655 1.5326139769640603 -5.593614254320525 -0.9775159132006394 -0.6727828072325144 -0.3188971959807527 0.3125671591665784 3.2597556860248664 -49.24043178785862 -21.444770254549418 -3.0176626900943826 -0.0867992282184674 -0.12326436749792141 -1.8700793425189417 -1.6510292492308558 1.5846555868731897 -2.2216841183104457 -1.375458065663473 -0.24103004137148076 0.5277028679847717 -0.23016831278800964 0.16569511592388153 -0.10907823592424393 -0.33263275027275085 0.4457903206348419 1.7220357656478882 -5.453891754150391 -0.8248167634010315 -0.6333456635475159 -0.21889334917068481 0.3974596858024597 1.5326139769640603 -5.593614254320525 -0.9775159132006394 -0.6727828072325144 -0.3188971959807527 0.3125671591665784 -0.0014843130691962652 0.6208443517666857 0.4915248008573644 -2.4047048724692157 -0.03396222709021199 -0.020132437762353177 -0.2694772447601049 -0.08876449279259202 0.046959315422114296 0.09865196977795442 0.008029459267614225 -0.020618983184500506 4.84208638464387 -4.870109619305234 0.6902146568622332 0.11156234136000133 -0.05680437053708233 0.26426906952844686 -0.0016075570985129243 0.6207967330227804 0.4914575239008867 -2.404786531187908 -0.033926669314673245 -0.020088281357672547 -0.26995987208976646 -0.08831584980692102 0.045933652578884 0.09624235884037596 0.012009404074962815 -0.02197310975086486 0 31.0 32.4375 30.75 34.875 37.0625 37.3125 0.810312 7 253 253 253 253 253 253 2 0.038307227194309235 0.5746084451675415 -9.710882186889648 1.0 0.7 2.597354044244839 47.674346923828125 47.6680793762207 1.0775883197784424 47.5275993347168 47.427268981933594 47.4559326171875 47.427268981933594 47.369937896728516 47.298274993896484 768 2
8045.003 -1.8204216918712488 -1.6724743630654988 1.6002992230208088 -2.2317982412740207 -1.4066282124277159 -0.19879196334864258 0.45997702364133825 -0.19873318852064678 0.14362847099152495 -0.09352094102002452 -0.2886825645578373 0.3912302794160461 -0.6841690667817868 0.2955954170327374 -0.21363275100932944 0.1391028935221611 0.42938597068650775 -0.581915272736655 1.5762471051933555 -5.554338454747649 -1.017592575901884 -0.6755373061213559 -0.3017206126164439 0.2962704246596513 4.466697439403024 -48.99885555883158 -21.602282948266016 -3.064002026037998 -0.06583995838549915 -0.12326989801111747 -1.8207038084613245 -1.6723844013609828 1.6003630797015589 -2.2317596874632777 -1.406410042439596 -0.19914180437196904 0.46286067366600037 -0.19777268171310425 0.14443564414978027 -0.09344492107629776 -0.29096928238868713 0.3968130946159363 1.5752980709075928 -5.465914726257324 -1.1152867078781128 -0.6754685640335083 -0.2440798580646515 0.3491405248641968 1.5762471051933555 -5.554338454747649 -1.017592575901884 -0.6755373061213559 -0.3017206126164439 0.2962704246596513 -0.02632110629703856 0.6119978639243943 0.4956803885143107 -2.3952669449811532 -0.03062248272628483 -0.019178121763454972 -0.22845287008574997 -0.08731296645775358 0.0392398368257495 0.09473284960741478 0.023048632887708087 -0.022756008749204637 3.1438579816778955 -4.398268305022631 0.36725051504904727 0.1113656651265003 -0.028184835942118375 0.30887308311757683 -0.026444960795857512 0.6119643102062046 0.49577647187034035 -2.3951183377066054 -0.030460593238034604 -0.01919751532673394 -0.22727627271162 -0.08745335566049296 0.0404034446214947 0.09698169152646607 0.020563223267414804 -0.0200106375760134 0 31.0 32.4375 30.75 34.875 37.0625 37.3125 0.809004 7 253 253 253 253 253 253 2 0.5171475410461426 0.3447650372982025 -9.959878921508789 1.0 0.7 2.2374556913446826 47.71196365356445 47.711063385009766 0.9903112649917603 47.5562629699707 47.498931884765625 47.5275993347168 47.498931884765625 47.39860534667969 47.34127426147461 768 2
8045.103 -1.777844834841022 -1.6908697048323997 1.6135939063649154 -2.240454820908413 -1.4333495390300692 -0.1625785117707199 0.3915601169631572 -0.16917364681737176 0.12226519589059473 -0.07961065166780724 -0.2457439674891891 0.33303875214237655 -0.6841690667818701 0.2955954170327374 -0.21363275100932944 0.13910289352218191 0.42938597068650775 -0.581915272736655 1.587750504798638 -5.51200083336616 -1.0565393060399852 -0.6776364067462072 -0.28482006305594526 0.27997370618451106 5.436251454602317 -48.72695382522786 -21.746552761194504 -3.1055757020449093 -0.04701116301518633 -0.12327530172126609 -1.7781556288348597 -1.6907359562315882 1.6133597532855433 -2.2404099903502406 -1.4331687132464808 -0.16277581850160772 0.3938141167163849 -0.1714003086090088 0.12142383307218552 -0.08034117519855499 -0.24715948104858398 0.33702585101127625 1.664222240447998 -5.169049263000488 -0.8279948234558105 -0.64305579662323 -0.24143534898757935 0.31262362003326416 1.587750504798638 -5.51200083336616 -1.0565393060399852 -0.6776364067462072 -0.28482006305594526 0.27997370618451106 -0.04700422148344062 0.6035422061753037 0.4995945756349775 -2.3856047832628344 -0.026924485920031254 -0.01742160939687764 -0.18866594258581307 -0.08251512703301905 0.03662878872289884 0.09518248969690989 0.026603011132996762 -0.018974624723842287 3.445418795234475 -4.395062412224411 0.637453345259885 0.10884829035438097 -0.05065666143114221 0.29535523999881014 -0.047159270486082615 0.6034643227595664 0.4995310324422166 -2.3856823420120232 -0.02697077088216496 -0.017379961783865475 -0.18748081296207278 -0.081838823365847 0.034657391945038224 0.09168713134615131 0.0256667002963753 -0.017378419477184714 0 31.0 32.4375 30.75 34.875 37.0625 37.3125 0.807169 7 253 253 253 253 253 253 2 0.15322890877723694 0.3064578175544739 -9.730035781860352 1.0 0.7 1.887870059965598 47.69136428833008 47.704795837402344 0.9634547233581543 47.570594787597656 47.498931884765625 47.5275993347168 47.48460006713867 47.427268981933594 47.369937896728516 768 2
8045.2029999999995 -1.742109668478613 -1.7063090924289739 1.6247522621989292 -2.247720371607583 -1.4557770059255564 -0.1321842129201647 0.3231432102849763 -0.13961410511409675 0.1009019207896645 -0.06570036231559001 -0.20280537042054073 0.27484722486870683 -0.6841690667817868 0.29559541703276515 -0.21363275100932944 0.1391028935221611 0.4293859706865216 -0.5819152727367383 1.581108821411667 -5.468180005229074 -1.0930506428381754 -0.6787621749723849 -0.2682320015111115 0.26367704633812145 6.197888124420598 -48.440286963216224 -21.86222298445526 -3.1400718933035163 -0.030594201732115953 -0.12328024170866891 -1.7421768347369593 -1.7062670193114222 1.6246679464923304 -2.2476593456664027 -1.4556706587420862 -0.13241511980165654 0.32222607731819153 -0.13843204081058502 0.10676009207963943 -0.06813166290521622 -0.2024720013141632 0.2782437205314636 1.603928565979004 -5.278716087341309 -1.0758811235427856 -0.6313692927360535 -0.23432204127311707 0.2983989119529724 1.581108821411667 -5.468180005229074 -1.0930506428381754 -0.6787621749723849 -0.2682320015111115 0.26367704633812145 -0.06401544209865538 0.5957431098698152 0.5027191436903693 -2.377019695244096 -0.0239281394645393 -0.015044575714250816 -0.14990779853401384 -0.07217199035091479 0.024960584637991313 0.07712121775468694 0.030630794847885695 -0.017533174410153618 2.618010378750855 -4.8342792070629805 0.11599839028881931 0.11204776378773712 -0.0384383698952194 0.3252127023687883 -0.06403153146210723 0.5957225443562763 0.5027028486416921 -2.377014775140807 -0.023684697261875266 -0.015031166283645822 -0.15039324458468997 -0.07244037351463672 0.02875785222936842 0.08163869535419728 0.027252301928998468 -0.014404996798678571 0 31.0 32.4375 30.75 34.875 37.0625 37.3125 0.822816 7 253 253 253 253 253 253 2 0.5937620401382446 0.2106897532939911 -9.864110946655273 1.0 0.7 1.5468129916341582 47.690467834472656 47.711063385009766 0.8896032571792603 47.584930419921875 47.5275993347168 47.5275993347168 47.498931884765625 47.41293716430664 47.38426971435547 768 2
8045.303 -1.7132161927840235 -1.7187925258552212 1.6337742905228494 -2.253594893371531 -1.473910613114179 -0.10760906679697602 0.2547263036067952 -0.1100545634108218 0.07953864568873428 -0.051790072963372735 -0.1598667733518925 0.21665569759503725 -0.6841690667817868 0.2955954170327374 -0.21363275100932944 0.13910289352217844 0.4293859706865216 -0.5819152727366689 1.558230649984241 -5.426158218505279 -1.1272624561054418 -0.67888995349142 -0.25197932029215003 0.24738047516576972 6.774019944802803 -48.171279506380245 -21.950875647174694 -3.1673113067738865 -0.016765761165296975 -0.12328448033082301 -1.7132862249957483 -1.7187158070006312 1.6339190641986292 -2.2535325489439906 -1.4737871328936976 -0.10788518587221319 0.2559642195701599 -0.11076797544956207 0.07688253372907639 -0.05225958675146103 -0.16208519041538239 0.22219935059547424 1.4369187355041504 -5.141580581665039 -1.1559574604034424 -0.6717312335968018 -0.2130221426486969 0.30325448513031006 1.558230649984241 -5.426158218505279 -1.1272624561054418 -0.67888995349142 -0.25197932029215003 0.24738047516576972 -0.07730607365060069 0.5890893947248678 0.5051299278612494 -2.3698007252104007 -0.021077787756320045 -0.012516464851100416 -0.11588453053338683 -0.06021491890976069 0.024926912898289362 0.07154739029476789 0.027220392472087296 -0.015583854532962155 3.2586270872592378 -4.873736077481318 -0.17853527852201667 0.1031747567855471 -0.04226871087644804 0.299073236674039 -0.0773179089029567 0.5890739212746938 0.5052791445945095 -2.3695328153260355 -0.020791328935117072 -0.012544808143195186 -0.11570208768063797 -0.06010822542406118 0.02275415575507897 0.06796354972348305 0.025559163841921362 -0.011304759196631348 0 31.0 32.4375 30.75 34.875 37.0625 37.3125 0.81732 7 253 253 253 253 253 253 2 0.26815059781074524 0.09576806426048279 -10.055646896362305 1.0 0.7 1.2126152501517393 47.692256927490234 47.711063385009766 0.7911257743835449 47.570594787597656 47.51326370239258 47.498931884765625 47.48460006713867 47.427268981933594 47.38426971435547 768 2
8045.402999999999 -1.6911644077572516 -1.72832000511114 1.640659991336677 -2.258078386200258 -1.4877503605959372 -0.08885307340115478 0.18630939692861428 -0.0804950217075468 0.05817537058780406 -0.037879783611155494 -0.1169281762832443 0.1584641703213677 -0.6841690667817035 0.29559541703273046 -0.21363275100932944 0.13910289352218191 0.4293859706864314 -0.5819152727366689 1.5214058145482283 -5.389024113093224 -1.160279079332464 -0.6783064689365181 -0.23620188096425732 0.23108400488369207 7.191150276865859 -47.950492700055186 -22.025485703237734 -3.189378845184226 -0.006605315961839511 -0.12328792096368978 -1.6912949720965784 -1.7282473049559535 1.6405704657184046 -2.258087297479147 -1.4876464048968714 -0.08883458772768194 0.18930093944072723 -0.08255623281002045 0.05816313624382019 -0.039016082882881165 -0.11610441654920578 0.15424002707004547 1.571947693824768 -5.154453754425049 -1.0861742496490479 -0.6590922474861145 -0.20363594591617584 0.29113274812698364 1.5214058145482283 -5.389024113093224 -1.160279079332464 -0.6783064689365181 -0.23620188096425732 0.23108400488369207 -0.08718407051103215 0.58381902184594 0.5072704789929141 -2.363517912838657 -0.018317132069755535 -0.010212215259593217 -0.08503404858470935 -0.04641143543187155 0.018154137703739564 0.05485936879885432 0.018296864954142664 -0.001616292642751621 3.085190836749016 -4.58175665893811 -0.01620332675299041 0.1282148428252966 -0.06211033223769227 0.3076167282544604 -0.08723823141044372 0.5837737361147074 0.5072514592448137 -2.3635501297819856 -0.01844180306068434 -0.010276716110817206 -0.08299703236250304 -0.04558806727167893 0.016683493178676994 0.051633916220944424 0.021057212586395285 -0.0082010498548679 0 31.0 32.4375 30.75 34.875 37.0625 37.3125 0.828373 7 253 253 253 253 253 253 2 0.2106897532939911 0.1149216815829277 -9.787496566772461 1.0 0.7 0.8837083125492436 47.72270965576172 47.73524856567383 0.7777001857757568 47.6279296875 47.5562629699707 47.570594787597656 47.5275993347168 47.47026824951172 47.427268981933594 768 2
8045.503 -1.6759543133982984 -1.7348915301967311 1.6454093646404109 -2.2611708500937624 -1.4972962483708292 -0.07591623273270098 0.11789249025043307 -0.05093548000427178 0.036812095486873836 -0.02396949425893826 -0.07398957921459592 0.10027264304769798 -0.6841690667818562 0.2955954170327721 -0.21363275100929127 0.1391028935221611 0.42938597068650775 -0.5819152727367451 1.472417611888635 -5.357503146206072 -1.191218962438275 -0.67672019521296 -0.22076232533253293 0.2147876615716287 7.4698360077944175 -47.78514925945046 -22.075680805202605 -3.2041547070238465 0.0009472871001900557 -0.12329035733016784 -1.6760218779193323 -1.7348853550352992 1.6452425161944788 -2.261176725427145 -1.4972136656390589 -0.07608396211733037 0.11730261892080307 -0.05120623856782913 0.03946037217974663 -0.024052564054727554 -0.0753730908036232 0.10342182219028473 1.4904708862304688 -5.162269592285156 -1.1511561870574951 -0.6918760538101196 -0.18250772356987 0.2488192468881607 1.472417611888635 -5.357503146206072 -1.191218962438275 -0.67672019521296 -0.22076232533253293 0.2147876615716287 -0.09394745455425053 0.5800293907924257 0.5087195258518546 -2.3591195392558233 -0.01691587208085366 -0.00855802280130263 -0.051140826534192045 -0.029776061475602727 0.009046212365200423 0.031115158459430053 0.01588262677092113 -0.00894210303956497 2.9304355178496277 -4.926405251289108 -0.022354644988171746 0.1097566310407172 -0.06357839872459062 0.2954771422801227 -0.09396750742637487 0.5800072039564909 0.5086145125201725 -2.3592912001288777 -0.016750350671049685 -0.008519186227709608 -0.05179612505046662 -0.029538823605494 0.010572638466135827 0.033483149956912706 0.014382660709766112 -0.005147665428312881 0 31.0 32.4375 30.75 34.875 37.0625 37.3125 0.756433 7 253 253 253 253 253 253 2 0.3064578175544739 0.07661445438861847 -9.825803756713867 1.0 0.7 0.5586067260617117 47.71554183959961 47.731666564941406 0.6747510433197021 47.61359786987305 47.5562629699707 47.5562629699707 47.54193115234375 47.47026824951172 47.41293716430664 768 2
8045.603 -1.6675859097071646 -1.7385071011119946 1.6480224104340517 -2.2628722850520457 -1.5025482764388567 -0.06879854479161462 0.049475583572252145 -0.021375938300996843 0.015448820385943618 -0.010059204906720985 -0.0310509821459477 0.04208111577402842 -0.6841690667818596 0.2955954170327339 -0.2136327510092904 0.13910289352218105 0.42938597068643664 -0.5819152727366654 1.4120510375796302 -5.332863411224229 -1.2198640189638068 -0.6741450663472427 -0.20578460427713743 0.19849145526386516 7.619165755667861 -47.68783385327546 -22.098890324381355 -3.2117402121092375 0.004935374667164677 -0.12329171006430928 -1.6676467100726526 -1.7384969196715296 1.6479700247394007 -2.2628513775267542 -1.5024870077716272 -0.06881553331484014 0.05151014029979706 -0.02158074826002121 0.015372232533991337 -0.010331718251109123 -0.03254934400320053 0.04147658124566078 1.3433456420898438 -5.16671895980835 -1.081273078918457 -0.696204423904419 -0.17631714046001434 0.20620130002498627 1.4120510375796302 -5.332863411224229 -1.2198640189638068 -0.6741450663472427 -0.20578460427713743 0.19849145526386516 -0.09760959395137703 0.5779087190535703 0.5093883060649012 -2.356878624754462 -0.015774090032257222 -0.007452111744969027 -0.022375315297973018 -0.012802416096895766 0.004657545801559851 0.014700808148328534 0.004745660786481063 -0.0007410634193819668 2.8046546725056185 -4.739901157397947 -0.378103768383677 0.10825119924331998 -0.06705829146055317 0.3008377851816999 -0.09762993505425951 0.5778971220319851 0.5093652764492822 -2.3569031138247625 -0.01579515575746587 -0.007483553364268588 -0.02156860946480194 -0.012553635485588771 0.004440291326478954 0.014234453202496685 0.006284046815781732 -0.00214886615527898 0 31.0 32.4375 30.75 34.875 37.0625 37.3125 0.768804 7 253 253 253 253 253 253 2 0.2106897532939911 -0.038307227194309235 -9.768342971801758 1.0 0.7 0.23588785159296588 47.72987747192383 47.742408752441406 0.6098535060882568 47.670928955078125 47.61359786987305 47.599266052246094 47.570594787597656 47.51326370239258 47.47026824951172 768 2
8045.7029999999995 -1.6657969999999995 -1.73928 1.6485809999999999 -2.263236 -1.5036709999999998 -0.06727699999999981 0.0 0.0 0.0 0.0 0.0 0.0 0.0 0.0 0.0 0.0 0.0 0.0 0.852310058647349 -4.616230902629069 -1.9196283054501324 -0.4494861208191526 2.8974697137380545e-06 0.0 9.792321884544783 -49.177384899311285 -21.821353322416524 -3.2683913214098728 2.236314953543005e-05 0.0 -1.665877644215719 -1.739148279229635 1.6484077612506312 -2.2631360493102015 -1.5036142508136194 -0.06733256975282842 -0.0003553318092599511 0.0004945201799273491 -0.00021060869039501995 -0.0014549283077940345 0.00014315382577478886 4.825363353986272e-21 1.0580509901046753 -4.635373592376709 -1.5630040168762207 -0.6749427914619446 -0.10214859247207642 0.08471419662237167 0.852310058647349 -4.616230902629069 -1.9196283054501324 -0.4494861208191526 2.8974697137380545e-06 0.0 -0.09837213463742682 0.5774983692112723 0.5095375395654491 -2.3564437514286403 -0.015584159997397566 -0.007249355852824249 0.0001989844333638629 0.00037737324764926586 0.00021474850302341224 0.0011740825357175104 -2.7627444470745912e-06 -0.00024571932046651095 3.837083587513904 -3.91185022987863 -0.39895547796817366 0.10734679971497303 -0.06610982135582485 0.26014003893170995 -0.09840914659740613 0.5774426115021309 0.5095258382166512 -2.3563885441095627 -0.015588705836319246 -0.0072557728748750445 0.0 0.0 0.0 0.0 0.0 0.0 0 31.0 32.4375 30.75 34.875 37.0625 37.3125 0.590112 7 253 253 253 253 253 253 2 -0.2298433631658554 0.19153612852096558 -10.170568466186523 0.0 0.7 0.0 47.786293029785156 47.80509948730469 0.6188021302223206 47.6995964050293 47.64226531982422 47.65659713745117 47.6279296875 47.584930419921875 47.5275993347168 768 1
8045.803 -1.6657969999999995 -1.73928 1.6485809999999999 -2.263236 -1.5036709999999998 -0.06727699999999981 0.0 0.0 0.0 0.0 0.0 0.0 0.0 0.0 0.0 0.0 0.0 0.0 0.8522946435600318 -4.616143556306711 -1.9195903794117637 -0.44950476985880283 -4.972397141856291e-06 0.0 9.792144778226072 -49.17645438612753 -21.820922198598954 -3.26852692595142 -3.837778193354055e-05 0.0 -1.6659134070025843 -1.7391239605345667 1.648480240498678 -2.2632438145079554 -1.5036261717425745 -0.06729585329164678 -1.5705702026025392e-05 1.7873138858703896e-05 9.206385584548116e-05 -0.00023864452668931335 -0.0005330732092261314 0.0006728331791236997 1.2393250465393066 -4.885075092315674 -1.3584619760513306 -0.6767325401306152 -0.18009164929389954 0.18137745559215546 0.8522946435600318 -4.616143556306711 -1.9195903794117637 -0.44950476985880283 -4.972397141856291e-06 0.0 -0.09834728152925665 0.5775164518281227 0.5095041024855247 -2.356434061075852 -0.015493816221124137 -0.00726330518975705 0.00014417510582557177 2.1399293973179332e-05 -1.4872222161669238e-05 9.993003474776093e-05 8.784371628998191e-05 -0.0008663253382398796 3.4706709522299057 -4.18698960409731 -0.45034795353581525 0.1088350126192079 -0.06270804347841213 0.27444617956194145 -0.09840914659740613 0.5774426115021309 0.5095258382166512 -2.3563885441095627 -0.015588705836319246 -0.0072557728748750445 0.0 0.0 0.0 0.0 0.0 0.0 0 31.0 32.4375 30.75 34.875 37.0625 37.3125 0.589993 7 253 253 253 253 253 253 2 -0.09576806426048279 0.15322890877723694 -10.074800491333008 0.0 0.7 0.0 47.78450393676758 47.78718948364258 0.5516634583473206 47.7282600402832 47.6279296875 47.6279296875 47.6279296875 47.599266052246094 47.5275993347168 768 1
8045.902999999999 -1.6657969999999995 -1.73928 1.6485809999999999 -2.263236 -1.5036709999999998 -0.06727699999999981 0.0 0.0 0.0 0.0 0.0 0.0 0.0 0.0 0.0 0.0 0.0 0.0 0.8523200548859307 -4.616099689094421 -1.9194581074148727 -0.4494758834774109 -2.717093559422368e-05 0.0 9.79243673287355 -49.175987062280704 -21.8194185981516 -3.2683168816499935 -0.00020970976601762526 0.0 -1.6658533255206507 -1.7391721210875453 1.6484807173358362 -2.2632318935790003 -1.5036738554583948 -0.06729633012880498 0.00024017297255340964 -0.00016704291920177639 0.0008950507617555559 -9.91319102467969e-05 -0.00013099063653498888 0.0001759438746375963 1.4459490776062012 -5.144138336181641 -1.0915019512176514 -0.6647101640701294 -0.11383821070194244 0.1795470118522644 0.8523200548859307 -4.616099689094421 -1.9194581074148727 -0.4494758834774109 -2.717093559422368e-05 0.0 -0.09837175460908827 0.5774921463865961 0.5095276498434539 -2.3564007743122657 -0.015543344903281504 -0.007294651841775984 -0.00011635821000386263 -0.00013631216389742377 -0.0004523179302452731 -0.0006329375616465014 9.194303020107479e-05 2.3215352650022886e-05 3.3213067722785947 -4.252098982118446 -0.3010267136855045 0.10524571446573772 -0.06945494643140507 0.2693585346048838 -0.09840914659740613 0.5774426115021309 0.5095258382166512 -2.3563885441095627 -0.015588705836319246 -0.0072557728748750445 0.0 0.0 0.0 0.0 0.0 0.0 0 31.0 32.4375 30.75 34.875 37.0625 37.3125 0.579552 7 253 253 253 253 253 253 2 0.0 0.09576806426048279 -9.979032516479492 0.0 0.7 0.0 47.73972702026367 47.73883056640625 0.5583816170692444 47.65659713745117 47.599266052246094 47.599266052246094 47.584930419921875 47.5275993347168 47.47026824951172 768 1
8046.003 -1.6657969999999995 -1.73928 1.6485809999999999 -2.263236 -1.5036709999999998 -0.06727699999999981 0.0 0.0 0.0 0.0 0.0 0.0 0.0 0.0 0.0 0.0 0.0 0.0 0.8524560207510624 -4.615814833482107 -1.9194539844098146 -0.44946673559040096 -4.777471504188294e-06 0.0 9.793998865695018 -49.17295245366104 -21.819371729937654 -3.268250363746264 -3.6873313685679324e-05 0.0 -1.6658294836627405 -1.739220758477682 1.648552719746725 -2.2632318935790003 -1.5036981741534632 -0.06726056734193975 0.0002774838067125529 -0.0019864735659211874 3.668880162877031e-05 -9.871228877791248e-37 -8.989342473522677e-14 0.00011252464901190251 1.4373973608016968 -5.212152481079102 -1.2902284860610962 -0.661455512046814 -0.10931931436061859 0.16457512974739075 0.8524560207510624 -4.615814833482107 -1.9194539844098146 -0.44946673559040096 -4.777471504188294e-06 0.0 -0.09838150678296968 0.5774675972592161 0.509509074820887 -2.356425497180472 -0.015516497584820455 -0.007291459901692777 -0.00022581380539263185 -0.00071588427048552 0.0011001624043787107 0.0019410573465172807 -0.00010547180625179755 0.00019779315373018256 3.4011823459846395 -4.485065249660144 -0.32314882960616087 0.10548221445518169 -0.0671832751373721 0.2639412176600613 -0.09840914659740613 0.5774426115021309 0.5095258382166512 -2.3563885441095627 -0.015588705836319246 -0.0072557728748750445 0.0 0.0 0.0 0.0 0.0 0.0 0 31.0 32.4375 30.75 34.875 37.0625 37.3125 0.585468 7 253 253 253 253 253 253 2 -0.09576806426048279 0.05746084079146385 -9.84495735168457 0.0 0.7 0.0 47.748680114746094 47.742408752441406 0.5874739289283752 47.65659713745117 47.584930419921875 47.599266052246094 47.54193115234375 47.51326370239258 47.4559326171875 768 1
8046.103 -1.6657969999999995 -1.73928 1.6485809999999999 -2.263236 -1.5036709999999998 -0.06727699999999981 0.0 0.0 0.0 0.0 0.0 0.0 0.0 0.0 0.0 0.0 0.0 0.0 0.8524385303465786 -4.615825569369613 -1.919633174026196 -0.449519280925047 -1.1139102766163373e-05 0.0 9.79379791573689 -49.173066824645346 -21.82140866590055 -3.268632441652084 -8.597343387892073e-05 0.0 -1.6658175627337855 -1.7393161259093226 1.6485756079303187 -2.2632557354369105 -1.5036619345294397 -0.0672844091998499 4.779921073350124e-05 0.0 1.2075576705683488e-05 -0.0 -0.0 5.930274346610531e-05 1.3530586957931519 -5.123557090759277 -1.2995436191558838 -0.6617186069488525 -0.12163929641246796 0.15494899451732635 0.8524385303465786 -4.615825569369613 -1.919633174026196 -0.449519280925047 -1.1139102766163373e-05 0.0 -0.09840052955015768 0.5774347377014734 0.5095546584864414 -2.3563271580242424 -0.015580112236021572 -0.007265806905229071 -2.7677665347684377e-05 -5.570620804707861e-06 -7.690610936319386e-06 -1.1986186755791768e-05 4.307122866952938e-05 5.849446457721322e-06 3.755290125334307 -4.358923578989202 -0.2018157891889838 0.11353613470862808 -0.0718795881433392 0.26117548110887445 -0.09840914659740613 0.5774426115021309 0.5095258382166512 -2.3563885441095627 -0.015588705836319246 -0.0072557728748750445 0.0 0.0 0.0 0.0 0.0 0.0 0 31.0 32.4375 30.75 34.875 37.0625 37.3125 0.587725 7 253 253 253 253 253 253 2 -0.05746084079146385 0.07661445438861847 -9.84495735168457 0.0 0.7 0.0 47.764801025390625 47.767486572265625 0.6255202293395996 47.68526077270508 47.6279296875 47.61359786987305 47.599266052246094 47.5275993347168 47.498931884765625 768 1
8046.2029999999995 -1.6657969999999995 -1.73928 1.6485809999999999 -2.263236 -1.5036709999999998 -0.06727699999999981 0.0 0.0 0.0 0.0 0.0 0.0 0.0 0.0 0.0 0.0 0.0 0.0 0.8524738694089853 -4.615785540522564 -1.9196297019135533 -0.449514380571436 -4.77729099589472e-06 0.0 9.794203931682231 -49.172640391466444 -21.821369196698864 -3.268596809243268 -3.6871920492873046e-05 0.0 -1.6658414045916956 -1.7392918072142542 1.6485641638385218 -2.2632438145079554 -1.5036619345294397 -0.06729633012880498 0.0 0.0 -0.0 -0.0 -0.0 0.0 1.3609466552734375 -5.084322452545166 -1.2899529933929443 -0.6527974009513855 -0.12783345580101013 0.15324527025222778 0.8524738694089853 -4.615785540522564 -1.9196297019135533 -0.449514380571436 -4.77729099589472e-06 0.0 -0.09838598712183425 0.5774450331438573 0.5095452517626684 -2.3563519967263127 -0.015565051419601506 -0.007280428045200387 0.0 0.0 0.0 0.0 0.0 0.0 3.3497852791607143 -4.473403285907631 -0.34491910448613927 0.10950500750617606 -0.07208620587404237 0.2660203162669874 -0.09840914659740613 0.5774426115021309 0.5095258382166512 -2.3563885441095627 -0.015588705836319246 -0.0072557728748750445 0.0 0.0 0.0 0.0 0.0 0.0 0 31.0 32.4375 30.8125 34.875 37.0625 37.3125 0.594 7 253 253 253 253 253 253 2 0.019153613597154617 0.1149216815829277 -10.017339706420898 0.0 0.7 0.0 47.764801025390625 47.790771484375 0.6098535060882568 47.71392822265625 47.6279296875 47.6279296875 47.599266052246094 47.570594787597656 47.498931884765625 768 1
8046.303 -1.6657969999999995 -1.73928 1.6485809999999999 -2.263236 -1.5036709999999998 -0.06727699999999981 0.0 0.0 0.0 0.0 0.0 0.0 0.0 0.0 0.0 0.0 0.0 0.0 0.8524347946690385 -4.615814149111622 -1.9195818371638174 -0.4495147073588382 -1.1139100570965694e-05 0.0 9.79375499596074 -49.17294516296188 -21.82082509469083 -3.2685991854436884 -8.597341693602269e-05 0.0 -1.6658175627337855 -1.7392798862852992 1.6485403219806116 -2.2632557354369105 -1.5037100950824183 -0.06724864641298467 0.0 0.0 -0.0 -0.0 -0.0 0.0 1.3123600482940674 -5.058332920074463 -1.3381106853485107 -0.646672785282135 -0.11808253824710846 0.16681577265262604 0.8524347946690385 -4.615814149111622 -1.9195818371638174 -0.4495147073588382 -1.1139100570965694e-05 0.0 -0.0983870840557877 0.5774493230742003 0.509556183040506 -2.3563312278597235 -0.0155145656660056 -0.0073048889256550845 0.0 0.0 0.0 0.0 0.0 0.0 3.7751754079497917 -4.618175675786073 -0.4554172219003165 0.11862673742702258 -0.06697299794750707 0.2610253501130941 -0.09840914659740613 0.5774426115021309 0.5095258382166512 -2.3563885441095627 -0.015588705836319246 -0.0072557728748750445 0.0 0.0 0.0 0.0 0.0 0.0 0 31.0 32.4375 30.8125 34.875 37.0625 37.3125 0.585372 7 253 253 253 253 253 253 2 -0.05746084079146385 0.1149216815829277 -9.940725326538086 0.0 0.7 0.0 47.7585334777832 47.78450393676758 0.5897097587585449 47.670928955078125 47.61359786987305 47.64226531982422 47.599266052246094 47.5275993347168 47.498931884765625 768 1
8046.402999999999 -1.6657969999999995 -1.73928 1.6485809999999999 -2.263236 -1.5036709999999998 -0.06727699999999981 0.0 0.0 0.0 0.0 0.0 0.0 0.0 0.0 0.0 0.0 0.0 0.0 0.8524703281229623 -4.6157986624058065 -1.9196013645891858 -0.4495195258471939 -4.777293017713274e-06 0.0 9.794163245300238 -49.17278018081329 -21.821047072480606 -3.2686342225778615 -3.6871936097602394e-05 0.0 -1.6657937208758753 -1.739256044427389 1.6485403219806116 -2.2632318935790003 -1.5036261717425745 -0.0672844091998499 0.0 0.0 -0.0 -0.0 -0.0 0.0 1.347178339958191 -5.071751594543457 -1.334969162940979 -0.6415111422538757 -0.11473771929740906 0.16401858627796173 0.8524703281229623 -4.6157986624058065 -1.9196013645891858 -0.4495195258471939 -4.777293017713274e-06 0.0 -0.09842122429475737 0.577453477327176 0.5095376042535528 -2.3563732095443095 -0.01562359864553098 -0.007206554162574767 0.0 0.0 0.0 0.0 0.0 0.0 3.716202228848848 -4.344817066758243 -0.24416223781532675 0.10604462110210182 -0.07203557135360268 0.26057060273721977 -0.09840914659740613 0.5774426115021309 0.5095258382166512 -2.3563885441095627 -0.015588705836319246 -0.0072557728748750445 0.0 0.0 0.0 0.0 0.0 0.0 0 31.0 32.4375 30.8125 34.875 37.0625 37.3125 0.589417 7 253 253 253 253 253 253 2 -0.07661445438861847 0.13407529890537262 -10.017339706420898 0.0 0.7 0.0 47.788089752197266 47.79972839355469 0.6232790946960449 47.68526077270508 47.61359786987305 47.6279296875 47.599266052246094 47.570594787597656 47.5275993347168 768 1
8046.503 -1.6657969999999995 -1.73928 1.6485809999999999 -2.263236 -1.5036709999999998 -0.06727699999999981 0.0 0.0 0.0 0.0 0.0 0.0 0.0 0.0 0.0 0.0 0.0 0.0 0.8524256074063457 -4.615764671691872 -1.9196200350882493 -0.4495242083654162 -1.4320011300172949e-05 0.0 9.793649442080888 -49.17241807275211 -21.821259309170188 -3.268668271019429 -0.00011052421101640102 0.0 -1.6658175627337855 -1.739244123498434 1.6485641638385218 -2.2632438145079554 -1.5036500136004847 -0.06724864641298467 0.0 0.0 -0.0 -0.0 -0.0 0.0 1.288845181465149 -5.06085729598999 -1.3650054931640625 -0.6255372166633606 -0.11256535351276398 0.1508055478334427 0.8524256074063457 -4.615764671691872 -1.9196200350882493 -0.4495242083654162 -1.4320011300172949e-05 0.0 -0.09840116357422186 0.577459268844283 0.5095183951728635 -2.3563988198043413 -0.015540881051517798 -0.007225881878120621 0.0 0.0 0.0 0.0 0.0 0.0 3.5120182060936944 -4.506692161063075 -0.2695525297155039 0.11130938821872491 -0.06758029253530014 0.2588595975919801 -0.09840914659740613 0.5774426115021309 0.5095258382166512 -2.3563885441095627 -0.015588705836319246 -0.0072557728748750445 0.0 0.0 0.0 0.0 0.0 0.0 0 31.0 32.4375 30.8125 34.875 37.0625 37.3125 0.587904 7 253 253 253 253 253 253 2 -0.09576806426048279 0.0 -10.055646896362305 0.0 0.7 0.0 47.75315856933594 47.780025482177734 0.6120893359184265 47.68526077270508 47.61359786987305 47.6279296875 47.61359786987305 47.54193115234375 47.51326370239258 768 1
8046.603 -1.6657969999999995 -1.73928 1.6485809999999999 -2.263236 -1.5036709999999998 -0.06727699999999981 0.0 0.0 0.0 0.0 0.0 0.0 0.0 0.0 0.0 0.0 0.0 0.0 0.8525095324373959 -4.615799575838502 -1.919595497125363 -0.4495098623503768 1.5418147872695243e-05 0.0 9.79461366972302 -49.172789911745774 -21.820980374151134 -3.26856395547134 0.00011899981035233279 0.0 -1.6658294836627405 -1.739267965356344 1.6486004034625452 -2.263207574883932 -1.5036380926715296 -0.06724864641298467 0.0 0.0 -0.0 -0.0 -0.0 0.0 1.3113991022109985 -5.000785827636719 -1.369611382484436 -0.6188299059867859 -0.11175419390201569 0.14268332719802856 0.8525095324373959 -4.615799575838502 -1.919595497125363 -0.4495098623503768 1.5418147872695243e-05 0.0 -0.09839856870678812 0.5774458557787383 0.5094999701359592 -2.3564466493604774 -0.015530523076008535 -0.007212265637321204 0.0 0.0 0.0 0.0 0.0 0.0 3.711868417737126 -4.459469709356952 -0.3553288990984136 0.10799917372044454 -0.06430919634680934 0.2603773178977344 -0.09840914659740613 0.5774426115021309 0.5095258382166512 -2.3563885441095627 -0.015588705836319246 -0.0072557728748750445 0.0 0.0 0.0 0.0 0.0 0.0 0 31.0 32.4375 30.8125 34.875 37.0625 37.3125 0.591216 7 253 253 253 253 253 253 2 0.0 0.1149216815829277 -9.940725326538086 0.0 0.7 0.0 47.72629165649414 47.754947662353516 0.5874739289283752 47.65659713745117 47.584930419921875 47.599266052246094 47.599266052246094 47.51326370239258 47.498931884765625 768 1
8046.7029999999995 -1.6657969999999995 -1.73928 1.6485809999999999 -2.263236 -1.5036709999999998 -0.06727699999999981 0.0 0.0 0.0 0.0 0.0 0.0 0.0 0.0 0.0 0.0 0.0 0.0 0.8524806317318445 -4.615802345333855 -1.919560885750765 -0.44950545095213434 -6.105070504337868e-06 0.0 9.794281625053854 -49.172819415586 -21.820586929736955 -3.268531878450353 -4.711994191535972e-05 0.0 -1.6658056418048304 -1.7392198048033656 1.6485756079303187 -2.2632676563658656 -1.503686253224508 -0.06727248827089483 0.0 0.0 -0.0 -0.0 -0.0 0.0 1.266488790512085 -5.064764022827148 -1.4039255380630493 -0.6172367930412292 -0.11012184619903564 0.16397534310817719 0.8524806317318445 -4.615802345333855 -1.919560885750765 -0.44950545095213434 -6.105070504337868e-06 0.0 -0.09839807365061502 0.5774678638231799 0.5095028947249224 -2.3564125980538964 -0.015565033329083088 -0.007272724604877115 0.0 0.0 0.0 0.0 0.0 0.0 3.563759931653785 -4.313725228666554 -0.3567845341682081 0.10800096126367224 -0.0695927390941264 0.25863495757526633 -0.09840914659740613 0.5774426115021309 0.5095258382166512 -2.3563885441095627 -0.015588705836319246 -0.0072557728748750445 0.0 0.0 0.0 0.0 0.0 0.0 0 31.0 32.4375 30.8125 34.875 37.0625 37.3125 0.581004 7 253 253 253 253 253 253 2 -0.09576806426048279 0.1149216815829277 -9.998186111450195 0.0 0.7 0.0 47.74778747558594 47.75763702392578 0.6098535060882568 47.670928955078125 47.61359786987305 47.61359786987305 47.599266052246094 47.570594787597656 47.498931884765625 3840 1
8046.803 -1.6657969999999995 -1.73928 1.6485809999999999 -2.263236 -1.5036709999999998 -0.06727699999999981 0.0 0.0 0.0 0.0 0.0 0.0 0.0 0.0 0.0 0.0 0.0 0.0 0.8524362522433189 -4.615810913447047 -1.9196194390936092 -0.44952404500198756 -1.5647788755467266e-05 0.0 9.793771742256737 -49.17291069295257 -21.821252534207773 -3.268667083139342 -0.0001207722165923461 0.0 -1.6658414045916956 -1.739244123498434 1.648588005696432 -2.2632318935790003 -1.5036981741534632 -0.06729633012880498 0.0 0.0 -0.0 -0.0 -0.0 0.0 1.3261240720748901 -5.018528938293457 -1.4161033630371094 -0.6042409539222717 -0.09206236898899078 0.14849571883678436 0.8524362522433189 -4.615810913447047 -1.9196194390936092 -0.44952404500198756 -1.5647788755467266e-05 0.0 -0.09837561596632509 0.5774581660975658 0.5094998172994064 -2.3564372552612003 -0.015544088718268753 -0.007313331523901097 0.0 0.0 0.0 0.0 0.0 0.0 3.8350789104891607 -4.431043834890753 -0.38964128531171927 0.11153727186991261 -0.06630303064376991 0.2641344361201404 -0.09840914659740613 0.5774426115021309 0.5095258382166512 -2.3563885441095627 -0.015588705836319246 -0.0072557728748750445 0.0 0.0 0.0 0.0 0.0 0.0 0 31.0 32.4375 30.8125 34.875 37.0625 37.3125 0.592309 7 253 253 253 253 253 253 2 -0.019153613597154617 0.0 -9.959878921508789 0.0 0.7 0.0 47.75315856933594 47.77017593383789 0.5964226126670837 47.670928955078125 47.61359786987305 47.61359786987305 47.599266052246094 47.584930419921875 47.48460006713867 3840 1
